luts/1771694500118-Flick06.cube
TITLE "Generated by Resolve"
LUT_3D_SIZE 33
0.0377203 0.0507973 0.0554665
0.0505684 0.0502785 0.0535744
0.0616922 0.0522469 0.0488289
0.0752575 0.0535286 0.0454108
0.0925002 0.0536965 0.0422827
0.112154 0.0534829 0.0383612
0.134691 0.0526894 0.0331579
0.15906 0.0516518 0.0280613
0.184497 0.0505989 0.0235447
0.210544 0.0497292 0.0184329
0.236271 0.0491951 0.0122835
0.262501 0.0487678 0.00709545
0.289967 0.0482948 0.00202945
0.319066 0.0476081 0
0.348714 0.0466316 0
0.378897 0.0462654 0
0.411673 0.0461128 0
0.449058 0.045304 0
0.497581 0.0429389 0
0.552026 0.0401617 0
0.606806 0.0380255 0
0.647227 0.0388037 0
0.679896 0.041413 0
0.708385 0.0449531 0
0.735058 0.0493172 0
0.75874 0.0544594 0
0.779797 0.0602121 0
0.8009 0.0664073 0
0.822583 0.0730297 0
0.841535 0.0799725 0
0.86276 0.0874037 0
0.88127 0.0944533 0
0.900877 0.101457 0
0.0443427 0.0616617 0.0620127
0.0532387 0.0640726 0.0578164
0.0678721 0.0648966 0.0563363
0.0825513 0.0661936 0.0551461
0.100404 0.0666667 0.05243
0.120562 0.066743 0.0470436
0.142565 0.0665446 0.041001
0.166629 0.0660105 0.0351263
0.191775 0.0654459 0.0293278
0.217578 0.0649882 0.0240787
0.243458 0.0647746 0.019089
0.270146 0.0643015 0.0140841
0.298009 0.0645609 0.0090486
0.327108 0.0646677 0.00399786
0.357397 0.0648661 0
0.388708 0.0652323 0
0.422034 0.0656138 0
0.462776 0.0650339 0
0.51606 0.0627909 0
0.575341 0.0603342 0
0.624689 0.0603494 0
0.662715 0.0626841 0
0.693996 0.0664988 0
0.721935 0.0712444 0
0.747204 0.0767529 0
0.770672 0.0830854 0
0.792966 0.0894484 0
0.814237 0.0959182 0
0.835203 0.102403 0
0.855787 0.108873 0
0.876005 0.115282 0
0.895781 0.121645 0
0.915145 0.127932 0
0.049424 0.0755322 0.0686046
0.0559243 0.0789349 0.0666361
0.0667124 0.0818341 0.0582742
0.0848096 0.0821698 0.0577859
0.104204 0.0826276 0.0593881
0.129397 0.0815747 0.0564279
0.154665 0.0814069 0.0528267
0.181109 0.0806592 0.0496529
0.207233 0.0805371 0.0452125
0.232425 0.0809339 0.0398718
0.257801 0.0818647 0.0342718
0.284352 0.0826123 0.0286412
0.312001 0.0834669 0.0231174
0.341176 0.0843824 0.0178378
0.371725 0.0853895 0.0125582
0.403754 0.0865187 0.00721752
0.440223 0.0872663 0.000946059
0.487495 0.0867018 0
0.544945 0.084947 0
0.601267 0.084184 0
0.645502 0.0860304 0
0.680095 0.0897536 0
0.70959 0.0944381 0
0.736263 0.0996414 0
0.761028 0.105196 0
0.784085 0.110948 0
0.806134 0.116823 0
0.827527 0.122698 0
0.848402 0.128573 0
0.868833 0.134234 0
0.88893 0.140047 0
0.908476 0.145876 0
0.927352 0.151705 0
0.0539254 0.091249 0.0753643
0.0617227 0.0944839 0.0768444
0.0677653 0.0998703 0.0641642
0.0824292 0.102281 0.0572671
0.104631 0.102205 0.0569162
0.128893 0.101732 0.0590829
0.155428 0.101137 0.0603799
0.184085 0.100587 0.0606851
0.216815 0.0996414 0.0558938
0.245914 0.0999008 0.0517281
0.274342 0.100679 0.0488899
0.303502 0.101656 0.0455634
0.333242 0.102892 0.0414435
0.363546 0.104402 0.0365606
0.394842 0.106081 0.031342
0.42887 0.107622 0.0254978
0.471717 0.108003 0.0176547
0.527047 0.106905 0.0068513
0.585077 0.106432 0
0.632181 0.107958 0
0.668605 0.111315 0
0.699168 0.115602 0
0.726741 0.120211 0
0.752285 0.125277 0
0.775921 0.130617 0
0.798489 0.136141 0
0.819928 0.141772 0
0.841077 0.147448 0
0.861524 0.153155 0
0.881682 0.158862 0
0.90103 0.164584 0
0.919768 0.170321 0
0.938262 0.176059 0
0.0582132 0.109148 0.0821241
0.0671397 0.112627 0.0850233
0.0730144 0.118349 0.0772259
0.0823072 0.12398 0.0621195
0.101335 0.126055 0.0560006
0.127138 0.125948 0.055436
0.156085 0.125093 0.0579385
0.186191 0.124407 0.0602731
0.216007 0.124407 0.0619364
0.245777 0.124956 0.0637522
0.277897 0.125505 0.0636759
0.314916 0.12549 0.0591897
0.349554 0.126421 0.0544289
0.383169 0.127947 0.0511025
0.418204 0.129534 0.0476234
0.461204 0.129946 0.0419623
0.516716 0.128603 0.0324254
0.57615 0.127337 0.0213016
0.625132 0.128389 0.012604
0.662135 0.131533 0.00704967
0.693294 0.135653 0.00302129
0.720897 0.140352 0
0.746242 0.145418 0
0.769512 0.150759 0
0.791852 0.156222 0
0.81297 0.161791 0
0.8336 0.167376 0
0.854002 0.17293 0
0.873823 0.1785 0
0.892958 0.184146 0
0.911574 0.189853 0
0.929839 0.19559 0
0.947753 0.201404 0
0.0626535 0.129534 0.0890669
0.0725261 0.133486 0.0928817
0.0799115 0.139178 0.0893873
0.0858015 0.146822 0.0732738
0.0998245 0.152041 0.0597543
0.123507 0.153887 0.0542916
0.152987 0.153872 0.0539712
0.18497 0.153353 0.0561532
0.217151 0.153063 0.0600595
0.248569 0.153552 0.0631876
0.28069 0.15436 0.0658427
0.31368 0.155459 0.0680552
0.348272 0.156603 0.0697185
0.387488 0.157183 0.0682231
0.433768 0.156725 0.0623484
0.490944 0.154574 0.0527504
0.554696 0.151873 0.041825
0.61062 0.151263 0.0331884
0.652949 0.153353 0.0281987
0.686229 0.157031 0.0249485
0.715129 0.16141 0.0222171
0.74107 0.166232 0.0200198
0.764614 0.171374 0.0177768
0.78677 0.176669 0.0157931
0.807767 0.18204 0.0136416
0.827985 0.187518 0.011841
0.847837 0.193027 0.00985733
0.867063 0.198627 0.00813306
0.886015 0.204257 0.00646983
0.904326 0.21004 0.00482185
0.922301 0.215885 0.00318914
0.939956 0.221836 0.00205997
0.957031 0.227893 0.000839246
0.0668193 0.152926 0.0958419
0.07776 0.157397 0.100603
0.0867933 0.163287 0.0998856
0.0928206 0.171466 0.0877241
0.101747 0.179736 0.0691386
0.121035 0.184512 0.0572824
0.148882 0.186297 0.0525368
0.180819 0.186694 0.0523232
0.214343 0.186786 0.0543069
0.247654 0.186969 0.0591897
0.281498 0.187427 0.0633555
0.316136 0.188098 0.0665446
0.351797 0.188922 0.0691997
0.388708 0.189807 0.0712139
0.429633 0.190112 0.0720989
0.48481 0.187747 0.0686198
0.558724 0.182345 0.0579232
0.624949 0.179324 0.0469062
0.668605 0.180819 0.0407416
0.70161 0.184207 0.0373388
0.729702 0.188388 0.0352026
0.755047 0.192966 0.0337987
0.778439 0.197864 0.0326848
0.800275 0.203037 0.0315099
0.821317 0.208286 0.0301976
0.841382 0.213733 0.0287633
0.860945 0.219303 0.0268864
0.880018 0.22501 0.0252232
0.898146 0.2309 0.0234836
0.915908 0.236881 0.0217899
0.933333 0.242939 0.0202182
0.950408 0.249088 0.0187381
0.967071 0.255344 0.0170748
0.0713512 0.179355 0.103288
0.0831159 0.184543 0.108614
0.0936599 0.190768 0.109926
0.101381 0.198962 0.102068
0.108171 0.208713 0.0835889
0.121935 0.21651 0.06598
0.14583 0.220813 0.0550088
0.17644 0.222583 0.0509499
0.209995 0.223178 0.0513466
0.243641 0.223957 0.0526436
0.278508 0.224231 0.056733
0.314473 0.224308 0.0616312
0.351492 0.224445 0.0652476
0.38967 0.224598 0.0678721
0.431769 0.224079 0.0690929
0.48777 0.220691 0.0664683
0.555123 0.215442 0.0606088
0.614679 0.212467 0.0563668
0.66009 0.212741 0.0542458
0.699107 0.214527 0.0516518
0.733547 0.217273 0.0482795
0.76228 0.221088 0.0453498
0.78706 0.225666 0.0434882
0.809476 0.230716 0.0422065
0.830762 0.235981 0.0415503
0.851499 0.241413 0.0407416
0.871382 0.246998 0.0401312
0.890608 0.25275 0.0393683
0.908919 0.258686 0.0382239
0.926757 0.264729 0.0371252
0.944106 0.270878 0.0359197
0.961044 0.277119 0.0345922
0.977554 0.283467 0.0330053
0.0762646 0.208835 0.111452
0.0892195 0.21442 0.117617
0.101076 0.220905 0.120302
0.110536 0.228992 0.115541
0.117601 0.238941 0.100282
0.127489 0.248753 0.0793927
0.146044 0.255619 0.0632944
0.173281 0.259358 0.0532387
0.205371 0.261051 0.0496681
0.238682 0.261982 0.050309
0.273213 0.262684 0.050721
0.309865 0.262547 0.0535897
0.347814 0.261936 0.0581521
0.386862 0.261158 0.0619364
0.429618 0.259693 0.0634775
0.486061 0.255268 0.0611276
0.554223 0.248768 0.0554513
0.614252 0.244816 0.0514839
0.658167 0.244724 0.0514229
0.693477 0.246677 0.0535592
0.724651 0.249607 0.056199
0.754177 0.253056 0.0574807
0.783093 0.256779 0.0569619
0.810895 0.260838 0.0551156
0.835752 0.265522 0.0531472
0.858228 0.27068 0.051606
0.878828 0.276219 0.0505074
0.898528 0.281895 0.0499428
0.91722 0.2878 0.0493782
0.935439 0.293782 0.0490883
0.953017 0.299901 0.0488441
0.970275 0.306081 0.0483253
0.98706 0.312352 0.0474556
0.0822003 0.240375 0.120974
0.0961471 0.24622 0.127718
0.109239 0.25275 0.131426
0.120394 0.260517 0.129183
0.129076 0.269978 0.117494
0.137072 0.280552 0.0968948
0.150988 0.289403 0.0762188
0.173571 0.295064 0.0613413
0.202747 0.298131 0.0522164
0.234623 0.299718 0.0491646
0.268681 0.300252 0.0491951
0.304387 0.300343 0.0486305
0.342046 0.299779 0.0498512
0.38175 0.298466 0.0533761
0.424552 0.296422 0.0566567
0.481041 0.291279 0.0555734
0.551019 0.283543 0.0500343
0.612451 0.27863 0.0462806
0.657343 0.277943 0.0464485
0.693049 0.279545 0.0487678
0.724041 0.282292 0.0520638
0.752117 0.285771 0.0560159
0.778225 0.289708 0.060502
0.803159 0.294026 0.0640421
0.828351 0.298405 0.0659495
0.854444 0.302724 0.0657969
0.879576 0.307347 0.0642252
0.902403 0.312444 0.0626383
0.92314 0.317952 0.0614023
0.942168 0.323796 0.0603647
0.96025 0.329793 0.0599222
0.978012 0.335836 0.0596475
0.995239 0.34197 0.0591897
0.0892805 0.273045 0.132021
0.104204 0.278889 0.139239
0.118379 0.285237 0.143832
0.13106 0.2925 0.143328
0.141299 0.301198 0.134646
0.149386 0.311452 0.116304
0.159625 0.321477 0.0929427
0.177066 0.328908 0.0731212
0.201816 0.333562 0.0590066
0.231556 0.33611 0.0508431
0.264378 0.337209 0.0476997
0.29955 0.337301 0.047303
0.336599 0.337026 0.0460975
0.375891 0.336095 0.0464332
0.418738 0.334066 0.0487678
0.474708 0.328679 0.0493172
0.545571 0.320104 0.0448768
0.609659 0.313985 0.0411078
0.656016 0.312566 0.0414282
0.692546 0.313695 0.0441291
0.724071 0.316091 0.0478065
0.752438 0.31931 0.051957
0.778515 0.323095 0.0564736
0.803037 0.327276 0.0614939
0.826459 0.331716 0.0664073
0.849668 0.336248 0.0710307
0.87277 0.340902 0.0745708
0.895933 0.345632 0.0759136
0.919509 0.350393 0.0759442
0.942214 0.355398 0.0748608
0.963424 0.360739 0.0733196
0.983063 0.366339 0.0721141
1 0.372259 0.0708171
0.0974289 0.305882 0.144411
0.112993 0.311498 0.151919
0.128252 0.317418 0.156847
0.142016 0.324056 0.157427
0.153292 0.331975 0.150896
0.162097 0.341527 0.135225
0.170565 0.351949 0.111498
0.183398 0.361074 0.0876173
0.203449 0.367529 0.068986
0.22974 0.371572 0.0563516
0.260975 0.373678 0.0488899
0.295201 0.374487 0.0457923
0.332021 0.374334 0.0450446
0.37052 0.373846 0.0430457
0.412177 0.372473 0.042237
0.466545 0.367559 0.0416876
0.537408 0.358419 0.0390478
0.604547 0.350958 0.0355383
0.652949 0.348653 0.0359045
0.690578 0.349203 0.0386664
0.722759 0.351186 0.0424811
0.751751 0.354009 0.0469978
0.778134 0.357519 0.0518196
0.802823 0.361456 0.0568093
0.826444 0.365667 0.0618753
0.849638 0.369985 0.0670787
0.871885 0.374548 0.0721904
0.893248 0.379263 0.0774243
0.914168 0.384131 0.0824445
0.935119 0.389059 0.0859693
0.956771 0.393927 0.0875715
0.978622 0.39884 0.0872358
1 0.403815 0.0859083
0.105455 0.338262 0.156893
0.121706 0.343496 0.164218
0.137636 0.349004 0.169528
0.152316 0.355184 0.170962
0.164492 0.3626 0.166064
0.174212 0.371588 0.152911
0.182559 0.381918 0.13106
0.192599 0.392187 0.105196
0.208026 0.40061 0.0823072
0.230396 0.406378 0.065507
0.25864 0.409934 0.0536812
0.291539 0.411688 0.0465705
0.327596 0.4121 0.0433356
0.365896 0.411658 0.0423438
0.406546 0.410712 0.0395666
0.4589 0.406622 0.035462
0.52871 0.397635 0.031754
0.597116 0.389319 0.0292058
0.648035 0.385962 0.029572
0.686961 0.38587 0.0324102
0.720241 0.387304 0.0363622
0.749599 0.389776 0.0409552
0.776562 0.392889 0.0458686
0.801678 0.396475 0.0512398
0.825528 0.400397 0.0564279
0.848768 0.404471 0.0615854
0.87126 0.408713 0.0669566
0.892515 0.41323 0.0722667
0.913314 0.417823 0.0776532
0.933074 0.422644 0.0837415
0.952605 0.427482 0.0895552
0.972152 0.432364 0.0940566
0.992096 0.437201 0.0970779
0.113375 0.370092 0.168994
0.130129 0.375128 0.17641
0.14699 0.380377 0.182025
0.162249 0.386404 0.184237
0.175631 0.393454 0.18117
0.186465 0.401999 0.170596
0.1953 0.41207 0.151308
0.203723 0.42298 0.125185
0.215702 0.432853 0.0990463
0.23389 0.440406 0.0780041
0.258488 0.445533 0.06215
0.289021 0.448463 0.0508736
0.324086 0.449607 0.0439765
0.361608 0.449668 0.0406958
0.401831 0.448737 0.0392157
0.452308 0.445289 0.0323949
0.520317 0.436988 0.0248875
0.589975 0.428092 0.021622
0.641962 0.424079 0.0222629
0.681773 0.423423 0.0252079
0.715938 0.424308 0.0293889
0.746212 0.426246 0.0342412
0.773816 0.428901 0.039292
0.799374 0.432105 0.0445411
0.82359 0.435645 0.0501259
0.847181 0.439368 0.055314
0.869581 0.443351 0.0606241
0.891127 0.447517 0.0661936
0.911788 0.451865 0.0715648
0.931716 0.456352 0.0771191
0.951064 0.460929 0.0831464
0.970184 0.465507 0.0892195
0.988602 0.470207 0.0951553
0.121538 0.401877 0.181323
0.139071 0.406851 0.188983
0.156497 0.41207 0.194995
0.172671 0.417929 0.197986
0.186801 0.424735 0.196445
0.198611 0.432883 0.188235
0.208133 0.442557 0.171557
0.216236 0.453483 0.14699
0.225971 0.464302 0.118914
0.240406 0.473426 0.0936751
0.261509 0.480034 0.0738689
0.288853 0.484306 0.058793
0.321538 0.486549 0.0480201
0.358282 0.48719 0.0411994
0.397833 0.486656 0.0376135
0.447776 0.483055 0.0335241
0.514229 0.475441 0.0206912
0.583734 0.466606 0.0144503
0.636835 0.462043 0.0145113
0.676768 0.461067 0.0175174
0.711177 0.461601 0.0215915
0.741894 0.463111 0.0263676
0.769909 0.465354 0.0317693
0.796017 0.468086 0.0372931
0.82063 0.471214 0.0427558
0.844373 0.474571 0.048188
0.867124 0.478141 0.0536812
0.88867 0.481987 0.0590982
0.909651 0.485924 0.0646983
0.929641 0.490074 0.0701305
0.94902 0.494301 0.0757
0.967926 0.498604 0.0817121
0.986694 0.502861 0.0877699
0.130083 0.433936 0.194308
0.148302 0.438865 0.202182
0.166415 0.443992 0.208408
0.183169 0.449714 0.212222
0.198138 0.456275 0.211887
0.210742 0.464012 0.205722
0.220844 0.473289 0.191852
0.229419 0.483864 0.169726
0.238071 0.495048 0.141207
0.249821 0.505302 0.112749
0.267247 0.513405 0.0886854
0.290959 0.519127 0.0697642
0.320821 0.522545 0.0551766
0.355917 0.52398 0.0447547
0.394797 0.523888 0.0379644
0.444099 0.520592 0.031754
0.510002 0.512871 0.0194858
0.578698 0.504356 0.00917067
0.632273 0.499596 0.00721752
0.672328 0.498375 0.00953689
0.706661 0.49865 0.0134127
0.737346 0.49987 0.018143
0.765637 0.501732 0.023331
0.79176 0.504143 0.0288853
0.816861 0.506767 0.0347143
0.840803 0.509712 0.0402838
0.863706 0.512886 0.0458381
0.885801 0.516228 0.0514382
0.906554 0.51986 0.0569467
0.926665 0.523629 0.0623941
0.946075 0.527474 0.0680705
0.965026 0.531395 0.0733196
0.98378 0.535271 0.0791791
0.139315 0.466072 0.207813
0.158145 0.470924 0.215885
0.176455 0.476051 0.222293
0.193835 0.48159 0.22681
0.209354 0.487922 0.227604
0.222416 0.495399 0.223072
0.233478 0.504112 0.211795
0.242634 0.514229 0.192294
0.251392 0.5252 0.165225
0.261448 0.53611 0.134768
0.275868 0.545449 0.106691
0.295995 0.552544 0.0837262
0.322911 0.557122 0.0655222
0.355291 0.559625 0.0513771
0.392737 0.560189 0.0410925
0.441688 0.557198 0.0314946
0.507515 0.549233 0.0212711
0.575113 0.54107 0.00602731
0.628397 0.536355 0.0015259
0.66833 0.535027 0.00231937
0.70251 0.535119 0.00531014
0.733181 0.53608 0.00946059
0.761334 0.537652 0.0146487
0.787686 0.539666 0.0200809
0.81265 0.542 0.0256809
0.836774 0.544518 0.031342
0.860075 0.547173 0.0371862
0.882048 0.550164 0.0428321
0.90312 0.553323 0.0483864
0.923278 0.556634 0.054139
0.942779 0.560082 0.059617
0.961669 0.563592 0.0650645
0.980255 0.567086 0.0703899
0.148821 0.498238 0.221836
0.168276 0.502922 0.230137
0.186969 0.507973 0.236774
0.204822 0.513344 0.241749
0.220417 0.519585 0.243351
0.234333 0.526619 0.240513
0.24625 0.534798 0.23154
0.256321 0.544259 0.214862
0.265415 0.554818 0.190005
0.274571 0.565942 0.15903
0.286763 0.57615 0.127901
0.303899 0.584436 0.100649
0.327428 0.590265 0.0786908
0.356786 0.593851 0.0609751
0.392401 0.595163 0.0469673
0.440589 0.592584 0.0337224
0.506081 0.584817 0.0203098
0.573343 0.576455 0.00550851
0.625742 0.571908 0
0.665202 0.57055 0
0.699397 0.570459 0
0.72961 0.571328 0.00195315
0.757336 0.572763 0.00616464
0.783444 0.574533 0.011017
0.808362 0.576516 0.0163577
0.832441 0.578637 0.0220645
0.855711 0.580926 0.0277562
0.877897 0.583444 0.0334173
0.899062 0.586145 0.0390784
0.919371 0.588983 0.0449226
0.938918 0.591974 0.0504616
0.957885 0.595026 0.0559243
0.976623 0.598047 0.0614939
0.159106 0.530098 0.236439
0.178943 0.534676 0.244846
0.197894 0.539605 0.251698
0.215839 0.544869 0.257069
0.23183 0.550881 0.259464
0.246403 0.557534 0.257893
0.259205 0.565133 0.250858
0.270268 0.573922 0.236881
0.280003 0.583886 0.214801
0.289189 0.59472 0.185153
0.29987 0.605402 0.152087
0.314595 0.614618 0.121019
0.334829 0.621637 0.0947127
0.360998 0.626352 0.0733349
0.394568 0.628443 0.055436
0.441413 0.626398 0.0384375
0.506004 0.619013 0.0216983
0.573388 0.610254 0.00894179
0.624582 0.606012 0
0.663264 0.6047 0
0.696727 0.604608 0
0.726482 0.605371 0
0.754055 0.606592 0
0.779751 0.608194 0.00297551
0.804303 0.609949 0.00755322
0.82829 0.611734 0.0128023
0.85156 0.613626 0.0180667
0.873686 0.615747 0.023621
0.894774 0.618036 0.0292668
0.915358 0.620371 0.0350958
0.935012 0.622873 0.0406958
0.953857 0.625528 0.0462806
0.972534 0.628138 0.0518044
0.169818 0.561578 0.251591
0.189853 0.566064 0.259953
0.209033 0.57084 0.267002
0.226886 0.576059 0.272526
0.243687 0.581674 0.275639
0.258793 0.587945 0.275151
0.272282 0.595056 0.269596
0.28426 0.603159 0.258045
0.29485 0.612375 0.238895
0.304402 0.622629 0.211872
0.314565 0.633265 0.178576
0.327214 0.643183 0.144442
0.344686 0.65124 0.113848
0.368078 0.656916 0.0885176
0.399649 0.659754 0.0664836
0.445441 0.658167 0.0453193
0.508537 0.651286 0.0250553
0.57406 0.642985 0.0105287
0.62446 0.638621 0
0.662257 0.6374 0
0.695079 0.637247 0
0.724269 0.637903 0
0.751324 0.638972 0
0.776745 0.640345 0
0.801007 0.641886 0.000244144
0.824399 0.643534 0.00442512
0.84744 0.645121 0.00914015
0.869459 0.646876 0.0141604
0.890761 0.648722 0.0194553
0.910994 0.650752 0.0249638
0.930861 0.652781 0.0307164
0.94995 0.654932 0.0362707
0.968414 0.657191 0.0417487
0.181033 0.592523 0.267201
0.201114 0.596918 0.275456
0.220417 0.601526 0.282673
0.238514 0.606531 0.28835
0.255787 0.611826 0.291951
0.271397 0.617746 0.292058
0.285847 0.624216 0.288075
0.298741 0.631601 0.27866
0.31017 0.640055 0.262379
0.320516 0.649516 0.238468
0.330373 0.659846 0.206592
0.341985 0.669978 0.170779
0.357275 0.678767 0.136446
0.377646 0.685542 0.106325
0.407935 0.688884 0.0798352
0.452903 0.687694 0.054139
0.513726 0.681483 0.0305028
0.576181 0.674006 0.0135042
0.625177 0.669581 0.00471504
0.662104 0.668513 0
0.694224 0.668315 0
0.722942 0.668788 0
0.749477 0.669718 0
0.77438 0.670924 0
0.798138 0.672297 0
0.821103 0.673762 0
0.843671 0.675181 0.00157168
0.865782 0.67657 0.00585946
0.886748 0.678157 0.0105135
0.907118 0.679789 0.0154726
0.92665 0.681529 0.0207523
0.945663 0.683299 0.0260624
0.964477 0.685008 0.0316472
0.192737 0.622766 0.283192
0.212863 0.627008 0.291402
0.232029 0.631525 0.298451
0.250523 0.63621 0.304326
0.268208 0.641199 0.308019
0.284718 0.646586 0.308949
0.299657 0.652583 0.305959
0.313359 0.659281 0.29836
0.325582 0.666957 0.284703
0.336614 0.675639 0.263584
0.347021 0.685206 0.234699
0.357946 0.695201 0.199161
0.371695 0.704417 0.161868
0.390768 0.711711 0.127108
0.419287 0.715785 0.0952621
0.463935 0.714809 0.0647593
0.522362 0.70927 0.0377203
0.579889 0.70309 0.0187686
0.6262 0.69929 0.00802625
0.662867 0.69781 0.000427253
0.694133 0.697704 0
0.722332 0.6981 0
0.748272 0.698894 0
0.772686 0.699931 0
0.795987 0.701137 0
0.818601 0.702358 0
0.840833 0.703563 0
0.862303 0.704829 0
0.883009 0.706172 0.00280766
0.90312 0.70753 0.00701915
0.922881 0.708843 0.0117952
0.941833 0.710277 0.0166629
0.960296 0.711742 0.0217441
0.20473 0.652247 0.299367
0.224918 0.65626 0.307591
0.244297 0.660533 0.31458
0.263127 0.664942 0.320226
0.28127 0.66952 0.324361
0.298222 0.67451 0.325597
0.314046 0.67985 0.323613
0.328344 0.685954 0.31725
0.341375 0.692851 0.305806
0.353124 0.700694 0.287709
0.364172 0.709407 0.262074
0.375051 0.718868 0.228275
0.388037 0.728084 0.1897
0.407141 0.735485 0.149981
0.43505 0.73994 0.112413
0.478462 0.739437 0.0770581
0.533669 0.734813 0.0467079
0.585733 0.730068 0.0258335
0.62858 0.727123 0.0131075
0.663798 0.725765 0.0059205
0.694804 0.725399 0
0.72253 0.72575 0
0.748043 0.726375 0
0.771969 0.72723 0
0.794751 0.728267 0
0.816739 0.729366 0
0.83856 0.730388 0
0.859495 0.731487 0
0.879973 0.732601 0
0.899748 0.73373 0.000335698
0.919112 0.734874 0.00411994
0.937987 0.736019 0.00827039
0.956497 0.737163 0.012726
0.217288 0.680705 0.315938
0.237339 0.684535 0.323888
0.256886 0.688518 0.330785
0.276219 0.692531 0.336522
0.294713 0.696757 0.340581
0.312245 0.701244 0.342153
0.328634 0.70605 0.340856
0.343648 0.711467 0.335576
0.357473 0.717601 0.32578
0.36994 0.72462 0.310246
0.381598 0.732464 0.287495
0.393332 0.740993 0.256733
0.407645 0.749462 0.217868
0.426474 0.756878 0.175021
0.456245 0.761074 0.130861
0.496941 0.761456 0.0910201
0.54728 0.75816 0.0580148
0.593759 0.75491 0.0349584
0.632074 0.753109 0.0203403
0.665766 0.752041 0.0110781
0.696208 0.751446 0.00537118
0.723339 0.75169 0
0.74818 0.752331 0
0.77174 0.753033 0
0.794064 0.753872 0
0.81561 0.754788 0
0.836988 0.755642 0
0.857466 0.756588 0
0.877531 0.757519 0
0.897124 0.758434 0
0.915969 0.759441 0
0.934539 0.760403 0.00141909
0.952819 0.761318 0.00512703
0.229953 0.708125 0.332631
0.25008 0.711696 0.340429
0.269993 0.715312 0.347204
0.289631 0.718959 0.352758
0.308492 0.722759 0.356863
0.326589 0.726711 0.35877
0.343557 0.730953 0.35787
0.359228 0.735714 0.353414
0.3738 0.741115 0.344945
0.387091 0.747295 0.331334
0.400198 0.754101 0.310948
0.41416 0.761349 0.282582
0.429374 0.769024 0.245197
0.450965 0.775509 0.19968
0.479881 0.779919 0.151934
0.519203 0.780804 0.107485
0.562066 0.779583 0.0721752
0.602762 0.77789 0.0466621
0.637247 0.777096 0.0296483
0.668467 0.776577 0.0181735
0.69752 0.776257 0.0103609
0.724437 0.776135 0.00546273
0.748943 0.776669 0
0.771969 0.777325 0
0.794079 0.777981 0
0.815137 0.778744 0
0.836088 0.779416 0
0.856168 0.780194 0
0.875807 0.780972 0
0.89485 0.781796 0
0.913375 0.782635 0
0.931655 0.783398 0
0.949599 0.784146 0
0.243015 0.734325 0.349477
0.263279 0.737545 0.357061
0.28365 0.740734 0.363729
0.30341 0.74403 0.369116
0.322713 0.747356 0.373175
0.341253 0.750835 0.375204
0.35877 0.754498 0.374731
0.375113 0.758633 0.370901
0.390448 0.763317 0.363424
0.405631 0.768475 0.350652
0.420951 0.774075 0.331868
0.437156 0.780102 0.305318
0.45623 0.786084 0.269337
0.47805 0.79205 0.224338
0.506508 0.796445 0.174395
0.541909 0.798367 0.127199
0.577844 0.799084 0.0894636
0.612299 0.79913 0.061326
0.643137 0.799359 0.0412299
0.67219 0.79942 0.0269169
0.699657 0.799405 0.0168765
0.725612 0.79942 0.010071
0.750088 0.799527 0.00546273
0.772717 0.800122 0
0.7944 0.800702 0
0.815305 0.801282 0
0.835721 0.801831 0
0.855497 0.802441 0
0.874739 0.803067 0
0.8934 0.803723 0
0.911589 0.80441 0
0.929427 0.805066 0
0.946853 0.805722 0
0.256321 0.759182 0.366415
0.276783 0.762051 0.3738
0.297246 0.764904 0.380163
0.317571 0.767712 0.385489
0.337179 0.770626 0.389487
0.356176 0.773602 0.391592
0.374166 0.776745 0.391287
0.391287 0.780209 0.388067
0.408682 0.783886 0.380682
0.426184 0.787884 0.368673
0.444541 0.792142 0.350439
0.464378 0.796658 0.324224
0.484535 0.801709 0.290501
0.507286 0.806851 0.247288
0.534401 0.811154 0.198398
0.563256 0.814664 0.151095
0.593957 0.816876 0.110246
0.622171 0.818769 0.0786603
0.650019 0.819837 0.055436
0.676768 0.820554 0.0380102
0.702541 0.820966 0.025452
0.727352 0.82118 0.0165255
0.751217 0.821317 0.0103761
0.77377 0.821561 0.00520333
0.795041 0.822126 0
0.815702 0.822599 0
0.835676 0.823041 0
0.855146 0.823468 0
0.873991 0.823957 0
0.892424 0.824414 0
0.910262 0.824948 0
0.927749 0.825498 0
0.945006 0.825986 0
0.269917 0.782666 0.383413
0.290669 0.785168 0.390539
0.311452 0.787625 0.396643
0.331853 0.790112 0.401694
0.352041 0.792508 0.405676
0.371481 0.79498 0.407797
0.389883 0.79762 0.407599
0.409003 0.800122 0.40415
0.428687 0.802701 0.397024
