luts/1771694551960-Skrrt03.cube
TITLE "Generated by Resolve"
LUT_3D_SIZE 9
0 0 0.152026
0.15613 0 0.159533
0.373571 0.0299992 0.167437
0.576501 0.0608072 0.174899
0.780987 0.0916457 0.182284
0.984878 0.122606 0.189761
1 0.15349 0.197528
1 0.184924 0.205951
1 0.217044 0.214847
0 0.0826734 0.160433
0.0691539 0.0886702 0.158389
0.268406 0.119051 0.164309
0.467811 0.150195 0.170993
0.676158 0.182803 0.176623
0.889555 0.216266 0.183291
1 0.249744 0.191333
1 0.283665 0.200732
1 0.318364 0.211032
0 0.198505 0.16817
0 0.207004 0.167819
0.203967 0.213458 0.165286
0.40354 0.247059 0.171588
0.592279 0.281544 0.179965
0.783429 0.316579 0.189517
0.976959 0.352941 0.199207
1 0.389792 0.209049
1 0.426749 0.219623
0 0.321782 0.177279
0 0.333288 0.179141
0.120195 0.344381 0.178943
0.352804 0.353887 0.177951
0.540749 0.391073 0.186526
0.731868 0.428275 0.197009
0.919295 0.465568 0.208682
1 0.503304 0.221485
1 0.541009 0.23447
0 0.451362 0.192309
0 0.466407 0.196704
0.0574197 0.48098 0.199115
0.287602 0.494118 0.199725
0.505638 0.505638 0.200168
0.692576 0.544305 0.21001
0.876997 0.582376 0.220905
1 0.62002 0.232746
1 0.656519 0.244587
0 0.589929 0.213886
0 0.6065 0.219257
0.00628672 0.622614 0.222904
0.232822 0.636423 0.224002
0.450278 0.648737 0.224186
0.658869 0.658869 0.224018
0.8365 0.694682 0.232639
1 0.728649 0.24152
1 0.761288 0.250446
0 0.730343 0.238575
0 0.745968 0.243549
0 0.760143 0.246448
0.180285 0.771405 0.246433
0.397162 0.780591 0.244785
0.596017 0.787442 0.242191
0.792523 0.792523 0.239597
0.956008 0.822095 0.245304
1 0.850523 0.251179
0 0.862226 0.261311
0 0.874128 0.264195
0 0.883543 0.264698
0.121843 0.890471 0.262715
0.3364 0.895491 0.259007
0.530434 0.898665 0.254154
0.719295 0.901137 0.249577
0.903395 0.903395 0.245808
1 0.929503 0.249805
0 0.978851 0.276188
0 0.986404 0.27689
0 0.992035 0.275517
0.0522011 0.995789 0.272007
0.265049 0.998322 0.267277
0.461479 1 0.261814
0.645136 1 0.256413
0.824491 1 0.251804
1 1 0.247639
0 0 0.214786
0.0758221 0 0.214252
0.298558 0 0.222095
0.508141 0.0284581 0.229541
0.712657 0.0593423 0.236942
0.916655 0.0904097 0.24448
1 0.121447 0.252308
1 0.153094 0.260822
1 0.185443 0.269368
0 0.083711 0.208698
0.0702373 0.0896773 0.211673
0.293355 0.120378 0.219562
0.504311 0.152026 0.227451
0.710231 0.184436 0.23563
0.916197 0.217731 0.244236
1 0.251194 0.253407
1 0.28542 0.263386
1 0.320241 0.27361
0 0.199466 0.217716
0 0.207858 0.220569
0.206134 0.215457 0.219059
0.408316 0.249409 0.226307
0.602991 0.284367 0.235126
0.81442 0.320562 0.243091
1 0.357855 0.252705
1 0.394812 0.263691
1 0.431861 0.275502
0 0.323598 0.227893
0 0.335027 0.231861
0.127703 0.34725 0.233402
0.35642 0.357351 0.232532
0.545953 0.395026 0.241764
0.738796 0.432166 0.252796
0.927962 0.469871 0.264973
1 0.507759 0.276799
1 0.54609 0.289998
0 0.454368 0.243931
0 0.469505 0.249928
0.0694133 0.484489 0.253788
0.294301 0.498314 0.254948
0.510185 0.510185 0.255421
0.69781 0.548837 0.265156
0.883284 0.586755 0.275868
1 0.624155 0.289342
1 0.660334 0.303471
0 0.593378 0.265629
0 0.610071 0.271931
0.0198215 0.625925 0.276493
0.242176 0.640299 0.278447
0.454978 0.65243 0.278447
0.662593 0.662593 0.278187
0.840146 0.697917 0.287694
1 0.731472 0.298116
1 0.763638 0.308629
0 0.733791 0.291768
0 0.74902 0.298512
0 0.76286 0.302846
0.190295 0.773877 0.303395
0.402197 0.78291 0.301488
0.59852 0.789349 0.298039
0.794247 0.794247 0.294804
0.957656 0.823468 0.301335
1 0.85156 0.308202
0 0.864408 0.317968
0 0.8757 0.322255
0 0.884565 0.323598
0.13109 0.891218 0.32166
0.341848 0.896193 0.317311
0.532921 0.899382 0.311467
0.720333 0.901793 0.305898
0.903899 0.903899 0.301305
1 0.929839 0.305943
0 0.979477 0.336248
0 0.986374 0.337652
0 0.991867 0.336812
0.0611887 0.995514 0.332998
0.271031 0.998123 0.327214
0.464454 1 0.320317
0.646433 1 0.31371
0.824918 1 0.308186
1 1 0.303319
0 0 0.280613
0 0 0.279973
0.216464 0 0.278492
0.436164 0 0.28687
0.640726 0.0251011 0.295598
0.844678 0.0561074 0.304402
1 0.0875257 0.313909
1 0.119417 0.324392
1 0.152041 0.335912
0 0.08542 0.257633
0 0.0886549 0.27718
0.211261 0.0863203 0.276005
0.432776 0.118212 0.284703
0.638926 0.150881 0.294453
0.845167 0.18439 0.304723
1 0.21854 0.315816
1 0.253513 0.32845
1 0.289006 0.342489
0 0.20119 0.26688
0.00628672 0.209354 0.27071
0.208042 0.217227 0.27451
0.432822 0.251865 0.284733
0.642145 0.287327 0.296513
0.851835 0.323552 0.308995
1 0.360632 0.322896
1 0.397757 0.338613
1 0.434821 0.356268
0 0.325887 0.278157
0 0.337179 0.284291
0.140139 0.349508 0.290166
0.360143 0.360937 0.290532
0.552209 0.398718 0.302373
0.749874 0.436103 0.316075
0.956512 0.474571 0.329351
1 0.512963 0.344091
1 0.551583 0.361395
0 0.457649 0.298268
0 0.472526 0.306859
0.0846265 0.487495 0.314122
0.30248 0.502007 0.317418
0.514397 0.514397 0.318074
0.703014 0.552819 0.330571
0.890257 0.590753 0.345785
1 0.627741 0.363104
1 0.663752 0.381109
0 0.596994 0.325353
0 0.613489 0.335134
0.0356756 0.629038 0.343099
0.253544 0.643488 0.347448
0.460197 0.655924 0.347845
0.665934 0.665934 0.347173
0.843473 0.700572 0.358557
1 0.733776 0.371878
1 0.765393 0.386572
0 0.736873 0.358144
0 0.751705 0.367773
0 0.764996 0.37496
0.202274 0.775677 0.37731
0.408072 0.784604 0.375418
0.600916 0.790814 0.370504
0.795483 0.795483 0.366018
0.958938 0.824369 0.374319
1 0.852155 0.383734
0 0.866209 0.39295
0 0.876738 0.400397
0 0.88513 0.403967
0.142046 0.891402 0.40264
0.348409 0.896239 0.39704
0.535653 0.899504 0.388205
0.721096 0.902007 0.379797
0.904005 0.904005 0.373495
1 0.929824 0.37966
0 0.979797 0.418891
0 0.986175 0.421897
0 0.991302 0.422049
0.0715343 0.994705 0.418097
0.278279 0.997345 0.410864
0.468071 0.999283 0.40116
0.647837 1 0.391211
0.82504 1 0.382483
1 1 0.375845
0 0 0.369406
0 0 0.368414
0.134173 0 0.366293
0.357092 0 0.362814
0.563424 0 0.373922
0.767559 0.0191501 0.386419
0.965194 0.0508583 0.401572
1 0.0830091 0.417762
1 0.115938 0.434913
0 0.0873274 0.329061
0 0.0871748 0.364538
0.129259 0.085008 0.362966
0.353902 0.0816052 0.36051
0.562417 0.11458 0.373083
0.768734 0.14818 0.38764
0.969131 0.182895 0.405509
1 0.218631 0.424918
1 0.254932 0.445457
0 0.203021 0.325872
0 0.211307 0.33109
0.127108 0.216876 0.361501
0.355123 0.216709 0.361395
0.566674 0.252796 0.376669
0.777005 0.290044 0.395987
0.98117 0.327733 0.417548
1 0.366186 0.440925
1 0.403861 0.464973
0 0.328237 0.341482
0 0.340032 0.34966
0.151202 0.352285 0.358541
0.363516 0.364172 0.367575
0.578485 0.402304 0.387518
0.791745 0.44007 0.410727
0.99855 0.47834 0.434928
1 0.516396 0.459663
1 0.554665 0.484886
0 0.461082 0.367803
0 0.475792 0.380011
0.0997024 0.490501 0.393896
0.315007 0.504463 0.405188
0.51812 0.51812 0.408362
0.709163 0.556329 0.428214
0.900435 0.594217 0.450752
1 0.631312 0.470436
1 0.667735 0.489708
0 0.600687 0.408423
0 0.616861 0.423957
0.0516213 0.631876 0.437583
0.268086 0.645777 0.447608
0.466514 0.658518 0.450767
0.66862 0.66862 0.449531
0.846906 0.702815 0.464714
1 0.73547 0.481773
1 0.766262 0.498558
0 0.739803 0.454414
0 0.754131 0.467582
0.00325017 0.766339 0.477668
0.216266 0.776577 0.483436
0.415747 0.785336 0.483574
0.603494 0.791684 0.47805
0.796155 0.796155 0.472068
0.959884 0.824659 0.482017
1 0.851957 0.492973
0 0.867674 0.493675
0 0.877272 0.501671
0 0.885115 0.506859
0.154574 0.890852 0.507774
0.356802 0.895323 0.504173
0.539254 0.898939 0.49659
0.721614 0.90161 0.487663
0.903578 0.903578 0.480049
1 0.929305 0.487343
0 0.979644 0.518608
0 0.985611 0.522576
0 0.99025 0.524163
0.0831922 0.993301 0.522148
0.287343 0.995834 0.51696
0.472862 0.998001 0.508614
0.649531 1 0.499107
0.824796 1 0.490242
1 1 0.482658
0 0 0.49807
0 0 0.496773
0.0509041 0 0.494148
0.278767 0 0.48983
0.485298 0 0.485298
0.68954 0 0.499413
0.887388 0.0137026 0.514641
1 0.0461585 0.531106
1 0.0792401 0.548424
0 0.0871595 0.45452
0 0.0856336 0.492119
0.0464332 0.0836652 0.490333
0.276051 0.0804913 0.487434
0.484932 0.07776 0.484932
0.6916 0.111742 0.501457
0.892393 0.146899 0.519661
1 0.182742 0.539223
1 0.220188 0.560464
0 0.205005 0.405585
0 0.21413 0.436301
0.0453651 0.216541 0.489403
0.278508 0.216739 0.489601
0.490455 0.217655 0.490455
0.701259 0.255833 0.511116
0.905821 0.294301 0.533089
1 0.333394 0.556756
1 0.37232 0.580957
0 0.331151 0.428733
0 0.34342 0.440391
0.0970321 0.355871 0.452293
0.288792 0.365652 0.498711
0.503182 0.370291 0.503182
0.716884 0.408942 0.526757
0.923522 0.447028 0.550774
1 0.485405 0.57583
1 0.523384 0.600763
0 0.464958 0.464958
0 0.479805 0.479805
0.108858 0.49453 0.49453
0.326543 0.508064 0.508064
0.521752 0.521752 0.521752
0.735546 0.560052 0.545403
0.94197 0.59794 0.569223
1 0.634455 0.592432
1 0.6701 0.615015
0 0.604776 0.5093
0 0.620508 0.524956
0.0637827 0.63537 0.539651
0.28191 0.648112 0.551888
0.477241 0.66038 0.561502
0.670787 0.670787 0.561456
0.851331 0.704677 0.577646
1 0.736873 0.595422
1 0.767697 0.609415
0 0.74313 0.555444
0 0.756893 0.568887
0.0156863 0.768322 0.579721
0.229953 0.777554 0.587549
0.426184 0.785214 0.591348
0.607446 0.792035 0.588586
0.796613 0.796613 0.582284
0.961028 0.824659 0.592294
1 0.851774 0.604074
0 0.8692 0.593729
0 0.878187 0.602075
0 0.885298 0.608103
0.167041 0.890303 0.610971
0.367651 0.894255 0.610452
0.545037 0.897948 0.605493
0.722622 0.900984 0.597101
0.903014 0.903014 0.589242
1 0.928634 0.596719
0 0.979553 0.617731
0 0.985183 0.6224
0 0.989364 0.62504
0.0948959 0.991943 0.624903
0.298116 0.994141 0.622278
0.479789 0.996353 0.616388
0.652384 0.99881 0.608042
0.824964 1 0.599451
1 1 0.59176
0 0 0.628519
0 0 0.627192
0 0 0.624537
0.197513 0 0.620218
0.414893 0 0.615717
0.611948 0 0.611948
0.809995 0 0.62739
1 0.00955215 0.644114
1 0.0429084 0.661677
0 0.0859998 0.594507
0 0.0841688 0.622721
0 0.0824292 0.621164
0.195483 0.0795453 0.618509
0.415381 0.0770275 0.61619
0.614923 0.075639 0.614923
0.816083 0.111192 0.633478
1 0.147494 0.653468
1 0.185382 0.675196
0 0.207919 0.51751
0 0.215412 0.578698
0 0.216434 0.621241
0.199207 0.216846 0.621653
0.422232 0.218372 0.623056
0.625666 0.22121 0.625666
0.830884 0.260792 0.64828
1 0.300252 0.671977
1 0.339956 0.696559
0 0.334401 0.526772
0 0.347158 0.539101
0.0110628 0.360647 0.571359
0.211704 0.367269 0.632212
0.436072 0.372122 0.636896
0.64239 0.377844 0.64239
0.849149 0.41619 0.666545
1 0.454582 0.691615
1 0.492363 0.71635
0 0.46891 0.563973
0 0.484215 0.579263
0.0564889 0.498909 0.593927
0.276783 0.512718 0.607736
0.454597 0.523476 0.655406
0.661021 0.529061 0.661021
0.866911 0.566415 0.684306
1 0.602823 0.707393
1 0.63801 0.729519
0 0.609186 0.609186
0 0.624796 0.624796
0.07187 0.639445 0.639445
0.290227 0.651789 0.651789
0.486793 0.663142 0.663142
0.673045 0.673045 0.673045
0.875196 0.706645 0.692576
1 0.73846 0.71107
1 0.76878 0.728344
0 0.746639 0.655024
0 0.759854 0.668177
0.0244602 0.770825 0.679072
0.239628 0.779248 0.687343
0.436561 0.785794 0.693401
0.6159 0.791775 0.696803
0.796948 0.796948 0.691951
0.9635 0.824689 0.702876
1 0.851545 0.715618
0 0.870878 0.692103
0 0.879438 0.700496
0 0.885969 0.706722
0.17673 0.89012 0.710307
0.378317 0.893446 0.712306
0.554147 0.896605 0.711696
0.725246 0.900114 0.705989
0.902449 0.902449 0.698009
1 0.927977 0.705898
0 0.979919 0.71545
0 0.985122 0.720287
0 0.988876 0.723445
0.104829 0.990997 0.724498
0.308873 0.992706 0.724117
0.48896 0.994537 0.721538
0.657496 0.997208 0.715908
0.825711 1 0.708141
1 1 0.700496
0 0 0.754101
0 0 0.752728
0 0 0.750103
0.118044 0 0.745663
0.344945 0 0.741466
0.545037 0 0.737911
0.736126 0 0.736126
0.926055 0 0.753124
1 0.00860609 0.770993
0 0.0849622 0.72575
0 0.0831922 0.748531
0 0.0816815 0.747189
0.117037 0.0790875 0.744808
0.346288 0.0767681 0.742687
0.549035 0.0759136 0.741909
0.743328 0.0774701 0.743328
0.93666 0.114214 0.763729
1 0.152438 0.785748
0 0.210483 0.643229
0 0.215915 0.715023
0 0.216861 0.748348
0.122118 0.21767 0.749126
0.355367 0.219745 0.751034
0.561151 0.222995 0.754025
0.759426 0.22887 0.759426
0.956237 0.268879 0.783307
1 0.309102 0.808072
0 0.338079 0.621836
0 0.351858 0.645624
0 0.364446 0.7093
0.136019 0.369329 0.760891
0.371405 0.374426 0.765835
0.578576 0.380255 0.771435
0.778195 0.387106 0.778195
0.976013 0.425269 0.803082
1 0.463066 0.827832
0 0.473533 0.659831
0 0.489006 0.675273
0.0061799 0.503716 0.689967
0.199008 0.518318 0.721859
0.390799 0.525795 0.784451
0.597025 0.531228 0.789899
0.795407 0.536736 0.795407
0.991089 0.572808 0.818158
1 0.607263 0.839567
0 0.613825 0.70515
0 0.629526 0.720836
0.0219883 0.643824 0.735119
0.241703 0.655985 0.74725
0.443427 0.667002 0.758236
0.607813 0.673961 0.800671
0.802228 0.675517 0.802228
0.992981 0.706645 0.820035
1 0.73666 0.837003
0 0.75053 0.75053
0 0.763088 0.763088
0.0305943 0.773739 0.773739
0.245365 0.781598 0.781598
0.441917 0.787625 0.787625
0.623316 0.792676 0.792676
0.797498 0.797498 0.797498
0.984665 0.825055 0.811734
1 0.852018 0.825666
0 0.872984 0.786252
0 0.881102 0.794339
0 0.887221 0.800412
0.183093 0.890883 0.803998
0.385245 0.893706 0.806683
0.562966 0.896025 0.80856
0.732479 0.899046 0.809094
0.902174 0.902174 0.802731
1 0.927581 0.811765
0 0.980713 0.808759
0 0.985626 0.813565
0 0.989075 0.816846
0.111971 0.99086 0.818341
0.317143 0.992172 0.819074
0.498238 0.993515 0.819135
0.666087 0.995773 0.817761
0.828397 0.999481 0.812772
1 1 0.805249
0 0 0.873426
0 0 0.872038
0 0 0.869444
0.0436866 0 0.865141
0.274815 0 0.861067
0.482185 0 0.85771
0.673548 0 0.856199
0.856703 0 0.856703
1 0 0.875166
0 0.0843977 0.84889
0 0.082826 0.868193
0 0.0815595 0.867094
0.0432898 0.0790723 0.864805
0.277195 0.0772869 0.863172
0.487251 0.0768597 0.862791
0.681727 0.0786145 0.864378
0.868894 0.0835431 0.868894
1 0.121981 0.891127
0 0.212818 0.772442
0 0.216693 0.841367
0 0.217731 0.869139
0.0500343 0.219181 0.870527
0.288167 0.221775 0.872908
0.500771 0.225452 0.876295
0.699336 0.231632 0.881987
0.889448 0.239689 0.889448
1 0.280354 0.914321
0 0.342885 0.720424
0 0.356878 0.763333
0 0.367514 0.841642
0.0651255 0.371817 0.883299
0.305715 0.377279 0.888579
0.518486 0.38291 0.894011
0.718441 0.38996 0.901091
0.909194 0.398062 0.909194
1 0.435828 0.933928
0 0.478584 0.751232
0 0.494102 0.766766
0 0.50959 0.789715
0.10277 0.523125 0.852872
0.326421 0.528557 0.90721
0.536919 0.533761 0.912444
0.734981 0.538949 0.917632
0.923445 0.544778 0.923445
1 0.578805 0.944427
0 0.618967 0.796689
0 0.634638 0.812329
0 0.648493 0.826154
0.19443 0.660471 0.838132
0.38085 0.671382 0.863432
0.546334 0.67512 0.921828
0.740276 0.676204 0.922942
0.923735 0.677012 0.923735
1 0.706615 0.940307
0 0.754772 0.841276
0 0.766934 0.853422
0 0.77702 0.863508
0.196796 0.784192 0.870649
0.399893 0.790021 0.876448
0.580697 0.794766 0.881178
0.734035 0.796674 0.916686
0.914305 0.794293 0.914305
1 0.821027 0.927993
0 0.875532 0.875532
0 0.883192 0.883192
0 0.888914 0.888914
0.18732 0.892302 0.892302
0.3888 0.89485 0.89485
0.567102 0.896849 0.896849
0.738811 0.899199 0.899199
0.902266 0.902266 0.902266
1 0.92781 0.914778
0 0.981964 0.897047
0 0.986633 0.901701
0 0.989883 0.904921
0.116854 0.991455 0.906462
0.322393 0.992523 0.907439
0.504189 0.993469 0.908232
0.674556 0.9953 0.909621
0.835599 0.998718 0.910643
1 1 0.904875
0 0 0.990433
0 0 0.989044
0 0 0.986328
0 0 0.9823
0.203937 0 0.978424
0.42089 0 0.97528
0.612512 0 0.974029
0.796002 0 0.974868
0.977523 0 0.977523
0 0.084062 0.968719
0 0.0827497 0.985626
0 0.0817426 0.984787
0 0.079469 0.982696
0.207523 0.0781262 0.98146
0.427039 0.0780957 0.98143
0.621942 0.0803082 0.983459
0.809598 0.0857557 0.988464
0.994888 0.0927596 0.994888
0 0.214649 0.901411
0 0.217746 0.963821
0 0.219059 0.987884
0 0.221042 0.989761
0.220203 0.223789 0.992279
0.441917 0.228168 0.996307
0.640467 0.234318 1
0.831006 0.242832 1
1 0.251987 1
0 0.348196 0.828412
0 0.361532 0.889876
0 0.370428 0.968444
0 0.374731 1
0.239597 0.380331 1
0.460212 0.386007 1
0.660166 0.393027 1
0.850797 0.401007 1
1 0.409293 1
0 0.483848 0.841138
0 0.499718 0.861784
0 0.515679 0.902632
0.0145113 0.526589 0.983307
0.260929 0.531472 1
0.477913 0.53611 1
0.675898 0.541222 1
0.863767 0.546426 1
1 0.550896 1
0 0.624308 0.886595
0 0.639796 0.902083
0 0.653422 0.915679
0.135882 0.665492 0.933394
0.292241 0.67512 0.989441
0.486152 0.676295 1
0.679347 0.676616 1
0.862638 0.677256 1
1 0.677256 1
0 0.758862 0.929992
0 0.770794 0.941894
0 0.780346 0.951415
0.148425 0.787076 0.958114
0.35639 0.792462 0.963485
0.51809 0.797452 0.982452
0.672175 0.796155 1
0.852186 0.793515 1
1 0.790799 1
0 0.878172 0.96289
0 0.885435 0.970153
0 0.890608 0.975311
0.138231 0.893904 0.978592
0.343877 0.896254 0.980926
0.524849 0.898116 0.982757
0.696178 0.900374 0.984985
0.839673 0.901015 1
1 0.897276 1
0 0.983413 0.983413
0 0.987839 0.987839
0 0.990921 0.990921
0.120211 0.992401 0.992401
0.32549 0.993225 0.993225
0.507347 0.994156 0.994156
0.678523 0.995972 0.995972
0.841901 0.998962 0.998962
1 1 1
