luts/1771694500118-Flick06.cube
TITLE "Generated by Resolve"
LUT_3D_SIZE 5
0.0377203 0.0507973 0.0554665
0.184497 0.0505989 0.0235447
0.411673 0.0461128 0
0.735058 0.0493172 0
0.900877 0.101457 0
0.0762646 0.208835 0.111452
0.205371 0.261051 0.0496681
0.554223 0.248768 0.0554513
0.835752 0.265522 0.0531472
0.98706 0.312352 0.0474556
0.139315 0.466072 0.207813
0.251392 0.5252 0.165225
0.507515 0.549233 0.0212711
0.81265 0.542 0.0256809
0.980255 0.567086 0.0703899
0.229953 0.708125 0.332631
0.3738 0.741115 0.344945
0.562066 0.779583 0.0721752
0.794079 0.777981 0
0.949599 0.784146 0
0.340047 0.880796 0.465156
0.554299 0.87332 0.458732
0.673167 0.901411 0.279835
0.802197 0.928328 0.0390631
0.939544 0.929427 0
0.00843824 0.0885786 0.259876
0.177111 0.0493019 0.273945
0.434562 0.0277409 0.201465
0.746883 0.054902 0.0780957
0.903227 0.131823 0.0781567
0.00849927 0.226612 0.242679
0.194766 0.269215 0.288334
0.463752 0.289219 0.222736
0.780438 0.299062 0.152422
0.945663 0.34258 0.133074
0.0506905 0.489128 0.291188
0.288731 0.511208 0.399054
0.50663 0.552605 0.271611
0.803662 0.547875 0.295354
0.971435 0.57586 0.302556
0.155734 0.720104 0.423377
0.390478 0.732891 0.514275
0.599634 0.753872 0.424674
0.786435 0.774441 0.240116
0.940551 0.778027 0.269154
0.274586 0.877363 0.557473
0.566827 0.869718 0.608942
0.706767 0.874556 0.589105
0.793027 0.913436 0.343343
0.927886 0.920882 0.236378
0 0.134112 0.523079
0.122423 0.110567 0.545327
0.397208 0.0345922 0.549279
0.743801 0.0123751 0.513573
0.920424 0.0633707 0.470558
0 0.260777 0.449332
0.112734 0.316594 0.535866
0.482536 0.27982 0.599557
0.796368 0.279301 0.54136
0.952712 0.331136 0.462684
0 0.457679 0.467048
0.129061 0.492317 0.506844
0.485603 0.552407 0.570382
0.751842 0.575998 0.496834
0.913802 0.604791 0.454658
0.0083772 0.711849 0.528527
0.238178 0.720317 0.570657
0.642634 0.738018 0.654688
0.772854 0.76701 0.543175
0.917128 0.774838 0.572931
0.108049 0.875303 0.626505
0.407904 0.863081 0.674434
0.723033 0.869337 0.730419
0.797635 0.890822 0.680186
0.910704 0.908644 0.535485
0 0.173404 0.726055
0.0758068 0.151751 0.756405
0.357671 0.0375067 0.77438
0.730404 0.0099794 0.761593
0.909895 0.0422827 0.790677
0 0.31725 0.653086
0.0552682 0.364797 0.740047
0.439689 0.30782 0.829831
0.784848 0.277028 0.81706
0.961379 0.310658 0.832609
0 0.485237 0.63003
0.00764477 0.500282 0.639963
0.395636 0.579843 0.743435
0.767086 0.557702 0.800977
0.931228 0.587518 0.77641
0 0.686336 0.684108
0.105455 0.692226 0.693614
0.434577 0.713863 0.72015
0.766644 0.762249 0.775891
0.885359 0.785199 0.727321
0 0.857664 0.734157
0.185824 0.848157 0.732998
0.615854 0.87155 0.777157
0.819394 0.881971 0.826902
0.901137 0.900725 0.759762
0 0.202533 0.854459
0.0413519 0.18439 0.89189
0.322942 0.0377203 0.91957
0.730388 0.0334783 0.905913
0.907439 0.0580301 0.941527
0 0.359823 0.785016
0.0178225 0.404578 0.872251
0.430594 0.363088 0.954772
0.780011 0.308721 0.958785
0.954971 0.325078 0.98703
0 0.520195 0.733639
0 0.537346 0.749722
0.376165 0.608347 0.865751
0.746883 0.585824 0.953262
0.923323 0.587747 0.956847
0 0.705531 0.795254
0.0107881 0.705699 0.796475
0.330175 0.685344 0.772534
0.731472 0.796109 0.9093
0.895903 0.772702 0.918807
0 0.845182 0.835523
0.116716 0.835126 0.828794
0.414511 0.807034 0.80502
0.74255 0.876402 0.877943
0.898268 0.898436 0.903212
