luts/1771694500118-Flick06.cube
TITLE "Generated by Resolve"
LUT_3D_SIZE 9
0.0377203 0.0507973 0.0554665
0.0925002 0.0536965 0.0422827
0.184497 0.0505989 0.0235447
0.289967 0.0482948 0.00202945
0.411673 0.0461128 0
0.606806 0.0380255 0
0.735058 0.0493172 0
0.822583 0.0730297 0
0.900877 0.101457 0
0.0582132 0.109148 0.0821241
0.101335 0.126055 0.0560006
0.216007 0.124407 0.0619364
0.349554 0.126421 0.0544289
0.516716 0.128603 0.0324254
0.693294 0.135653 0.00302129
0.791852 0.156222 0
0.873823 0.1785 0
0.947753 0.201404 0
0.0762646 0.208835 0.111452
0.117601 0.238941 0.100282
0.205371 0.261051 0.0496681
0.347814 0.261936 0.0581521
0.554223 0.248768 0.0554513
0.724651 0.249607 0.056199
0.835752 0.265522 0.0531472
0.91722 0.2878 0.0493782
0.98706 0.312352 0.0474556
0.105455 0.338262 0.156893
0.164492 0.3626 0.166064
0.208026 0.40061 0.0823072
0.327596 0.4121 0.0433356
0.52871 0.397635 0.031754
0.720241 0.387304 0.0363622
0.825528 0.400397 0.0564279
0.913314 0.417823 0.0776532
0.992096 0.437201 0.0970779
0.139315 0.466072 0.207813
0.209354 0.487922 0.227604
0.251392 0.5252 0.165225
0.322911 0.557122 0.0655222
0.507515 0.549233 0.0212711
0.70251 0.535119 0.00531014
0.81265 0.542 0.0256809
0.90312 0.553323 0.0483864
0.980255 0.567086 0.0703899
0.181033 0.592523 0.267201
0.255787 0.611826 0.291951
0.31017 0.640055 0.262379
0.357275 0.678767 0.136446
0.513726 0.681483 0.0305028
0.694224 0.668315 0
0.798138 0.672297 0
0.886748 0.678157 0.0105135
0.964477 0.685008 0.0316472
0.229953 0.708125 0.332631
0.308492 0.722759 0.356863
0.3738 0.741115 0.344945
0.429374 0.769024 0.245197
0.562066 0.779583 0.0721752
0.69752 0.776257 0.0103609
0.794079 0.777981 0
0.875807 0.780972 0
0.949599 0.784146 0
0.283787 0.804807 0.400351
0.366827 0.813138 0.421561
0.451652 0.819562 0.411597
0.54313 0.829435 0.325109
0.622538 0.84889 0.163149
0.710536 0.859495 0.0483253
0.797086 0.861311 0.0108949
0.873915 0.862348 0
0.942046 0.86363 0
0.340047 0.880796 0.465156
0.433753 0.881971 0.480354
0.554299 0.87332 0.458732
0.624628 0.881773 0.398505
0.673167 0.901411 0.279835
0.731456 0.920775 0.124086
0.802197 0.928328 0.0390631
0.874907 0.928893 0.00827039
0.939544 0.929427 0
0.0256504 0.0666972 0.132448
0.090959 0.0546426 0.144183
0.195254 0.0429999 0.115816
0.298451 0.0419776 0.0734417
0.408301 0.0568246 0.0515602
0.587839 0.052903 0.0099794
0.717754 0.0656291 0
0.806531 0.0906996 0
0.886564 0.117205 0
0.0326543 0.120806 0.132113
0.0949264 0.131609 0.143603
0.190738 0.139178 0.119768
0.309453 0.146365 0.102281
0.455375 0.152117 0.08365
0.666255 0.151583 0.0468757
0.77734 0.169818 0.0385901
0.864805 0.190829 0.0391241
0.940551 0.213275 0.0340429
0.0466773 0.225193 0.143542
0.135378 0.23711 0.194354
0.207172 0.265187 0.14995
0.345144 0.268025 0.16054
0.554131 0.258198 0.13106
0.713314 0.262959 0.104341
0.805234 0.283055 0.0841535
0.884382 0.306035 0.0708324
0.955993 0.330419 0.0632792
0.0799268 0.351476 0.198535
0.173831 0.363058 0.25066
0.23212 0.393194 0.229175
0.328801 0.416495 0.142184
0.536446 0.400519 0.13431
0.717342 0.393866 0.145281
0.819867 0.408026 0.169497
0.916518 0.42562 0.156176
0.989075 0.448066 0.143465
0.114977 0.476432 0.257115
0.213123 0.490043 0.305409
0.282673 0.515084 0.316045
0.333837 0.555215 0.196048
0.51107 0.552651 0.117937
0.70425 0.538643 0.106798
0.812375 0.54519 0.13753
0.899336 0.556771 0.168643
0.973648 0.570657 0.198337
0.158877 0.600397 0.318822
0.256413 0.61384 0.363226
0.335378 0.633478 0.382635
0.387335 0.665019 0.315511
0.518212 0.681422 0.143725
0.694163 0.670771 0.0869459
0.798032 0.674006 0.0940414
0.886076 0.67863 0.121401
0.960906 0.684977 0.154391
0.210468 0.712779 0.385504
0.306859 0.723064 0.425879
0.393179 0.736126 0.446189
0.476738 0.750164 0.404105
0.574609 0.76994 0.23592
0.696269 0.77586 0.117037
0.792508 0.778302 0.0855268
0.874006 0.780682 0.0878462
0.947585 0.782773 0.106157
0.264302 0.805951 0.4542
0.362982 0.811521 0.488609
0.473075 0.813901 0.500832
0.580591 0.813642 0.462852
0.639368 0.833783 0.349645
0.709575 0.8533 0.194018
0.794186 0.859541 0.11397
0.871015 0.861036 0.0851911
0.938933 0.861891 0.0838941
0.319539 0.879042 0.51841
0.427558 0.87982 0.545449
0.568994 0.868482 0.543114
0.645609 0.870604 0.522881
0.689235 0.88658 0.451179
0.733974 0.908461 0.306966
0.798276 0.922683 0.171817
0.871061 0.926177 0.110079
0.935943 0.927123 0.0822919
0.00843824 0.0885786 0.259876
0.0696727 0.0813153 0.273243
0.177111 0.0493019 0.273945
0.298024 0.029633 0.254093
0.434562 0.0277409 0.201465
0.637125 0.0177462 0.113252
0.746883 0.054902 0.0780957
0.826551 0.107332 0.0838483
0.903227 0.131823 0.0781567
0 0.143786 0.241032
0.0663157 0.157794 0.270283
0.186252 0.140002 0.300465
0.326818 0.134386 0.270161
0.479133 0.141985 0.210849
0.668269 0.161791 0.157931
0.768933 0.18468 0.131975
0.850553 0.204578 0.114763
0.925338 0.226551 0.107317
0.00849927 0.226612 0.242679
0.0798505 0.249683 0.268009
0.194766 0.269215 0.288334
0.313802 0.282124 0.259266
0.463752 0.289219 0.222736
0.670817 0.283253 0.178347
0.780438 0.299062 0.152422
0.86833 0.319677 0.14287
0.945663 0.34258 0.133074
0.0222629 0.357321 0.252735
0.118379 0.374746 0.290623
0.246204 0.384604 0.343114
0.330343 0.414694 0.301579
0.524346 0.405951 0.290257
0.709484 0.403449 0.263752
0.806195 0.421103 0.248798
0.885542 0.442863 0.217411
0.955825 0.466117 0.18761
0.0506905 0.489128 0.291188
0.172793 0.498711 0.346136
0.288731 0.511208 0.399054
0.35903 0.543374 0.381048
0.50663 0.552605 0.271611
0.69987 0.539223 0.267079
0.803662 0.547875 0.295354
0.887755 0.561257 0.320363
0.971435 0.57586 0.302556
0.0966506 0.612207 0.352438
0.224582 0.618402 0.408301
0.335897 0.630716 0.456092
0.423697 0.651514 0.464744
0.521935 0.675059 0.31957
0.689479 0.669032 0.242115
0.793088 0.671824 0.253712
0.878813 0.676585 0.284535
0.950896 0.683986 0.313481
0.155734 0.720104 0.423377
0.277974 0.723629 0.473259
0.390478 0.732891 0.514275
0.517372 0.737545 0.518761
0.599634 0.753872 0.424674
0.691386 0.77084 0.278431
0.786435 0.774441 0.240116
0.867643 0.776455 0.246082
0.940551 0.778027 0.269154
0.217044 0.808286 0.493675
0.335225 0.808743 0.536126
0.46949 0.812345 0.567132
0.604379 0.805463 0.563653
0.660838 0.818936 0.518074
0.710506 0.842634 0.376837
0.787274 0.853559 0.269291
0.863554 0.855711 0.239155
0.931456 0.856275 0.241566
0.274586 0.877363 0.557473
0.396231 0.8757 0.592554
0.566827 0.869718 0.608942
0.658518 0.865339 0.611246
0.706767 0.874556 0.589105
0.741375 0.894224 0.49337
0.793027 0.913436 0.343343
0.86305 0.919463 0.262379
0.927886 0.920882 0.236378
0 0.111269 0.39234
0.0484779 0.104402 0.410025
0.137987 0.0597696 0.417472
0.277455 0.0423896 0.411643
0.416938 0.0191958 0.397726
0.63447 0.00404364 0.34641
0.754589 0.0189517 0.302937
0.842237 0.0458076 0.263249
0.921721 0.0762188 0.226032
0 0.167269 0.368017
0.0403754 0.182849 0.405081
0.166125 0.177752 0.434882
0.306172 0.147158 0.451728
0.490776 0.124178 0.432105
0.691768 0.127291 0.376043
0.794736 0.147845 0.329412
0.877241 0.17174 0.288808
0.950347 0.197559 0.251179
0 0.24036 0.339513
0.0238499 0.263737 0.36582
0.148501 0.292592 0.408621
0.296284 0.296727 0.460838
0.50518 0.269474 0.416709
0.686564 0.271275 0.345937
0.781659 0.298085 0.30692
0.851698 0.338643 0.289586
0.925338 0.359121 0.263142
0 0.341268 0.355261
0.0475776 0.363867 0.380514
0.170428 0.388251 0.407614
0.310689 0.413443 0.434485
0.470512 0.424536 0.399573
0.659876 0.426444 0.350591
0.769772 0.440604 0.331487
0.858167 0.45893 0.313664
0.935225 0.479194 0.290684
0 0.474617 0.361593
0.0749828 0.495094 0.390707
0.219379 0.514504 0.430854
0.369604 0.528283 0.487495
0.501381 0.551949 0.432364
0.68687 0.5449 0.422965
0.793439 0.556298 0.412238
0.873075 0.572671 0.397635
0.940978 0.590997 0.365438
0.0243992 0.611582 0.402747
0.132113 0.621622 0.438102
0.284718 0.630533 0.490608
0.430152 0.643214 0.541894
0.552804 0.659236 0.507301
0.683345 0.667399 0.398093
0.785718 0.670634 0.413855
0.867201 0.677409 0.440513
0.936584 0.68658 0.462028
0.0741741 0.724926 0.463935
0.201816 0.724651 0.501839
0.347936 0.729183 0.551843
0.523812 0.73608 0.589578
0.630426 0.739452 0.577905
0.688594 0.763928 0.450584
0.779721 0.770397 0.394629
0.859968 0.772564 0.402609
0.930587 0.774594 0.428717
0.136049 0.811261 0.529244
0.267826 0.805722 0.564858
0.420432 0.808957 0.608392
0.607584 0.806516 0.630182
0.680995 0.809842 0.631846
0.719265 0.829358 0.560815
0.780514 0.846784 0.430579
0.855573 0.850156 0.39266
0.922728 0.850935 0.395926
0.200565 0.877119 0.588724
0.332036 0.869612 0.620508
0.528756 0.871916 0.656229
0.659922 0.866224 0.671275
0.720363 0.868589 0.677562
0.755505 0.881468 0.644312
0.791074 0.902358 0.522408
0.854948 0.912306 0.418662
0.919264 0.914488 0.38912
0 0.134112 0.523079
0.0210422 0.128115 0.543252
0.122423 0.110567 0.545327
0.246067 0.0466773 0.555032
0.397208 0.0345922 0.549279
0.616693 0 0.524697
0.743801 0.0123751 0.513573
0.83653 0.0350347 0.4972
0.920424 0.0633707 0.470558
0 0.19295 0.498878
0.0113832 0.208286 0.538003
0.149157 0.204913 0.573922
0.271107 0.159228 0.600748
0.468116 0.142214 0.593317
0.681926 0.118212 0.573404
0.792554 0.138582 0.559274
0.881773 0.16051 0.529412
0.958511 0.186389 0.493126
0 0.260777 0.449332
0 0.283116 0.479606
0.112734 0.316594 0.535866
0.283894 0.329076 0.593469
0.482536 0.27982 0.599557
0.690929 0.258396 0.571725
0.796368 0.279301 0.54136
0.880262 0.304219 0.500618
0.952712 0.331136 0.462684
0 0.347311 0.449561
0 0.36495 0.466575
0.0900435 0.387518 0.487694
0.245411 0.424918 0.535012
0.469413 0.423301 0.607569
0.68661 0.409033 0.547723
0.78497 0.429999 0.500938
0.862486 0.456092 0.463218
0.912184 0.498863 0.446189
0 0.457679 0.467048
0.0122988 0.473915 0.48571
0.129061 0.492317 0.506844
0.276143 0.52192 0.539345
0.485603 0.552407 0.570382
0.654414 0.558785 0.522011
0.751842 0.575998 0.496834
0.838331 0.589761 0.478447
0.913802 0.604791 0.454658
0 0.591211 0.486946
0.0464942 0.604318 0.505348
0.169497 0.615152 0.523857
0.337102 0.637583 0.56437
0.58352 0.650263 0.614481
0.678126 0.665522 0.550607
0.771054 0.675029 0.560159
0.854719 0.684108 0.550103
0.921447 0.695705 0.534279
0.0083772 0.711849 0.528527
0.100099 0.718441 0.547707
0.238178 0.720317 0.570657
0.439277 0.734859 0.621332
0.642634 0.738018 0.654688
0.697444 0.753246 0.623758
0.772854 0.76701 0.543175
0.850584 0.77052 0.55288
0.917128 0.774838 0.572931
0.0534218 0.805539 0.578485
0.168719 0.803082 0.597162
0.316701 0.799344 0.624094
0.564767 0.812131 0.672572
0.686473 0.810132 0.694133
0.737209 0.818601 0.691554
0.776577 0.839185 0.590402
0.847654 0.845151 0.539788
0.913695 0.846677 0.54316
0.108049 0.875303 0.626505
0.237629 0.866606 0.644877
0.407904 0.863081 0.674434
0.638224 0.871 0.712154
0.723033 0.869337 0.730419
0.769955 0.874617 0.734874
0.797635 0.890822 0.680186
0.847837 0.905196 0.570718
0.910704 0.908644 0.535485
0 0.155459 0.636576
0 0.149905 0.657923
0.0986954 0.132509 0.663233
0.211322 0.0693065 0.674327
0.377646 0.0390936 0.674586
0.604868 0.00340276 0.655055
0.735836 0 0.66006
0.827924 0.0304112 0.667002
0.912993 0.05832 0.666468
0 0.218692 0.615656
0 0.233219 0.653788
0.128908 0.230488 0.692607
0.25835 0.220233 0.70605
0.452262 0.155596 0.719036
0.672007 0.120455 0.704219
0.785595 0.123629 0.712444
0.876692 0.152697 0.713329
0.957565 0.17879 0.703471
0 0.290517 0.5617
0 0.312047 0.591989
0.0805829 0.340993 0.64892
0.271748 0.354101 0.711391
0.460807 0.29572 0.728923
0.679515 0.260197 0.709117
0.794461 0.264118 0.715236
0.882628 0.293996 0.707759
0.959411 0.320699 0.686015
0 0.371374 0.538979
0 0.385199 0.55346
0.0340734 0.398474 0.573251
0.208118 0.441306 0.634943
0.444083 0.461173 0.716228
0.676509 0.406226 0.705776
0.791455 0.414496 0.703868
0.874907 0.440955 0.680842
0.945724 0.466026 0.647227
0 0.470573 0.561761
0 0.482963 0.574319
0.0483864 0.486625 0.577173
0.196292 0.509224 0.596902
0.420813 0.566613 0.664912
0.669718 0.545281 0.695979
0.776852 0.559213 0.672389
0.854154 0.580148 0.632029
0.913558 0.605356 0.599939
0 0.579461 0.582361
0.00303655 0.59202 0.597055
0.104143 0.593973 0.601434
0.239551 0.608927 0.618845
0.457725 0.647684 0.660655
0.674449 0.663905 0.684596
0.753536 0.679652 0.650889
0.822293 0.697185 0.623682
0.890303 0.709819 0.602243
0 0.694606 0.608713
0.0384222 0.703334 0.621088
0.146715 0.702617 0.62417
0.285374 0.7093 0.636805
0.564584 0.745266 0.687343
0.713314 0.748226 0.718349
0.76968 0.763241 0.673167
0.841672 0.769985 0.679454
0.904646 0.780774 0.663508
0 0.79118 0.643275
0.0826734 0.793835 0.65243
0.203983 0.788983 0.656443
0.376959 0.793347 0.676738
0.653544 0.817609 0.728542
0.745327 0.817731 0.751766
0.782757 0.830488 0.730205
0.842496 0.840925 0.666514
0.904601 0.845502 0.667277
0.0370947 0.867445 0.677699
0.139986 0.86302 0.684153
0.275517 0.853284 0.690898
0.534188 0.86717 0.728817
0.702983 0.874876 0.763455
0.774075 0.87512 0.782101
0.812909 0.882368 0.781003
0.844175 0.899107 0.701946
0.904234 0.904372 0.659846
0 0.173404 0.726055
0 0.168688 0.748135
0.0758068 0.151751 0.756405
0.207202 0.137011 0.758755
0.357671 0.0375067 0.77438
0.600931 0.01561 0.753674
0.730404 0.0099794 0.761593
0.823896 0.0238499 0.77818
0.909895 0.0422827 0.790677
0 0.240421 0.707591
0 0.255299 0.745312
0.109483 0.253147 0.785748
0.250721 0.243748 0.799725
0.437873 0.164858 0.81796
0.667323 0.135607 0.800244
0.778637 0.135363 0.811643
0.872007 0.147387 0.825544
0.956237 0.165957 0.834318
0 0.31725 0.653086
0 0.339559 0.68455
0.0552682 0.364797 0.740047
0.259846 0.375998 0.802609
0.439689 0.30782 0.829831
0.673136 0.278264 0.806363
0.784848 0.277028 0.81706
0.879499 0.288441 0.829007
0.961379 0.310658 0.832609
0 0.394751 0.617853
0 0.409522 0.635081
0.00712596 0.421698 0.657832
0.18555 0.460975 0.720073
0.44065 0.485527 0.805188
0.66627 0.424659 0.806882
0.780377 0.421836 0.812757
0.877089 0.429435 0.82005
0.953079 0.454505 0.814191
0 0.485237 0.63003
0 0.497887 0.640696
0.00764477 0.500282 0.639963
0.143786 0.511391 0.651102
0.395636 0.579843 0.743435
0.643488 0.562539 0.810376
0.767086 0.557702 0.800977
0.865217 0.562814 0.798428
0.931228 0.587518 0.77641
0 0.591409 0.660761
0 0.602609 0.672541
0.0419318 0.601358 0.672312
0.174701 0.599298 0.670665
0.385504 0.633097 0.701122
0.65243 0.688731 0.780514
0.763363 0.670802 0.785397
0.847272 0.679866 0.767559
0.908934 0.697887 0.730724
0 0.686336 0.684108
0.00668345 0.694759 0.694163
0.105455 0.692226 0.693614
0.222446 0.686748 0.690318
0.434577 0.713863 0.72015
0.661707 0.753414 0.761913
0.766644 0.762249 0.775891
0.827924 0.773236 0.750301
0.885359 0.785199 0.727321
0 0.77998 0.709636
0.0382849 0.784024 0.71603
0.141405 0.778622 0.712978
0.261463 0.769879 0.707393
0.51368 0.797879 0.740475
0.704646 0.825284 0.778729
0.794858 0.826749 0.801724
0.840223 0.837781 0.76704
0.901167 0.842191 0.769558
0 0.857664 0.734157
0.0735027 0.856657 0.73698
0.185824 0.848157 0.732998
0.328801 0.837568 0.729854
0.615854 0.87155 0.777157
0.751461 0.881285 0.808194
0.819394 0.881971 0.826902
0.850355 0.892393 0.809873
0.901137 0.900725 0.759762
0 0.188708 0.796017
0 0.185016 0.818799
0.0569314 0.168734 0.829816
0.198032 0.153704 0.83299
0.339559 0.0367742 0.853086
0.599344 0.0229648 0.831815
0.729854 0.0234226 0.839353
0.822721 0.032929 0.857221
0.907118 0.0494545 0.875105
0 0.25919 0.779812
0 0.274784 0.817029
0.0918898 0.273548 0.859098
0.244968 0.263615 0.874556
0.426291 0.173037 0.895811
0.664286 0.147601 0.876967
0.777157 0.149905 0.887251
0.869581 0.157092 0.902831
0.952544 0.173144 0.919005
0 0.339757 0.724834
0 0.362173 0.756756
0.0353552 0.385718 0.811933
0.250233 0.395682 0.874205
0.428046 0.328359 0.90277
0.668513 0.292821 0.88397
0.782116 0.29395 0.893156
0.874846 0.29958 0.907027
0.957488 0.314595 0.921065
0 0.415457 0.683085
0 0.431159 0.702037
0 0.446113 0.729656
0.171313 0.481483 0.79057
0.441245 0.50367 0.878294
0.658 0.43917 0.887419
0.774945 0.438911 0.890394
0.867887 0.441794 0.900374
0.950591 0.452934 0.910124
0 0.5028 0.685283
0 0.515892 0.695857
0 0.519539 0.697978
0.112047 0.523507 0.706889
0.383001 0.593896 0.808667
0.624125 0.575067 0.897261
0.756313 0.573236 0.88307
0.850599 0.57232 0.884825
0.935744 0.576532 0.888304
0 0.601999 0.717021
0 0.611872 0.726406
0.00482185 0.608728 0.722438
0.130205 0.6 0.710903
0.340368 0.626825 0.73463
0.629297 0.707729 0.854139
0.743038 0.685969 0.873579
0.837156 0.680797 0.86685
0.919646 0.682826 0.862394
0 0.696437 0.746029
0 0.703807 0.754421
0.0483711 0.699519 0.751568
0.176898 0.688869 0.742367
0.375967 0.698146 0.752331
0.611704 0.750957 0.80145
0.750103 0.781079 0.849241
0.834821 0.767117 0.853117
0.904479 0.772396 0.836744
0 0.773983 0.767849
0.0148623 0.777646 0.773053
0.111574 0.771008 0.7682
0.223713 0.759487 0.758587
0.423606 0.764797 0.766308
0.643656 0.808988 0.812543
0.758022 0.830793 0.83595
0.837827 0.837507 0.845853
0.889967 0.844953 0.82501
0 0.850263 0.78735
0.039765 0.850385 0.789273
0.139544 0.841459 0.782437
0.254948 0.828809 0.772091
0.480232 0.834592 0.78117
0.673564 0.872877 0.823484
0.787564 0.888655 0.848157
0.860975 0.889479 0.866377
0.899733 0.898665 0.837781
0 0.202533 0.854459
0 0.199939 0.878294
0.0413519 0.18439 0.89189
0.191119 0.169589 0.89604
0.322942 0.0377203 0.91957
0.599451 0.0278172 0.898116
0.730388 0.0334783 0.905913
0.823804 0.0456703 0.922835
0.907439 0.0580301 0.941527
0 0.276448 0.840314
0 0.292897 0.877836
0.0751049 0.292638 0.921019
0.240864 0.282246 0.938125
0.417288 0.180789 0.96141
0.662013 0.158251 0.942687
0.776364 0.162585 0.952468
0.869764 0.171603 0.967437
0.951919 0.182834 0.984771
0 0.359823 0.785016
0 0.382086 0.81706
0.0178225 0.404578 0.872251
0.24184 0.414237 0.934722
0.430594 0.363088 0.954772
0.664057 0.306096 0.950607
0.780011 0.308721 0.958785
0.873564 0.315847 0.971618
0.954971 0.325078 0.98703
0 0.434409 0.73933
0 0.450935 0.75967
0 0.467765 0.790234
0.161563 0.502281 0.852354
0.443061 0.520531 0.940185
0.649439 0.452354 0.956222
0.770489 0.453407 0.957443
0.864729 0.457694 0.965698
0.944701 0.463447 0.976898
0 0.520195 0.733639
0 0.533394 0.744869
0 0.537346 0.749722
0.0935988 0.542641 0.763531
0.376165 0.608347 0.865751
0.61648 0.602533 0.946975
0.746883 0.585824 0.953262
0.84361 0.586816 0.952071
0.923323 0.587747 0.956847
0 0.612818 0.76257
0 0.622232 0.77055
0 0.619638 0.765194
0.101381 0.612528 0.754269
0.31107 0.626825 0.771374
0.605982 0.723339 0.913878
0.724025 0.700633 0.944411
0.820951 0.694499 0.939712
0.902632 0.691249 0.936187
0 0.705531 0.795254
0 0.711894 0.802045
0.0107881 0.705699 0.796475
0.141405 0.692073 0.78265
0.330175 0.685344 0.772534
0.566735 0.749386 0.839048
0.731472 0.796109 0.9093
0.818235 0.779736 0.925902
0.895903 0.772702 0.918807
0 0.78204 0.819379
0 0.785031 0.823713
0.0570077 0.777188 0.817243
0.184756 0.763745 0.805447
0.374624 0.753368 0.796658
0.591959 0.796445 0.839353
0.719203 0.829831 0.870192
0.823072 0.852659 0.906004
0.895079 0.839918 0.908965
0 0.845182 0.835523
0.0222934 0.845045 0.836988
0.116716 0.835126 0.828794
0.22649 0.820584 0.816175
0.414511 0.807034 0.80502
0.622309 0.847929 0.84802
0.74255 0.876402 0.877943
0.830732 0.893019 0.895781
0.898268 0.898436 0.903212
