luts/1771694097459-Drip04.cube
TITLE "Generated by Resolve"
LUT_3D_SIZE 5
0 0.0401923 0.0554665
0.284993 0.0351873 0
0.553079 0.0284733 0
0.821729 0.0234379 0
1 0.0209812 0
0 0.254276 0.0822766
0.302556 0.205936 0.0270085
0.523644 0.224079 0
0.774517 0.231357 0
1 0.236942 0
0 0.498741 0.121965
0.00340276 0.501152 0.11873
0.621408 0.410651 0.0274052
0.81355 0.439384 0.0445716
1 0.437613 0
0 0.758068 0.171405
0 0.746838 0.169802
0.298238 0.726177 0.0664225
0.897765 0.575967 0.00161746
1 0.601572 0.0426337
0 0.999496 0.203708
0 0.972549 0.186297
0.0724346 0.954116 0.156847
0.524941 0.87776 0
1 0.715724 0
0 0.0943465 0.269413
0.285924 0.0361028 0.302541
0.556344 0.0319066 0.145068
0.825132 0.0270085 0.0201419
1 0.0221866 0
0.0202182 0.255406 0.266712
0.218448 0.258991 0.292058
0.507546 0.266423 0.153094
0.780179 0.271855 0.0363775
1 0.273899 0
0 0.498329 0.342885
0.118563 0.513161 0.37261
0.546838 0.471672 0.301701
0.765103 0.487663 0.241199
1 0.487587 0.121187
0 0.75079 0.406561
0 0.755474 0.422339
0.313359 0.749783 0.408286
0.81529 0.6374 0.259373
0.998749 0.653941 0.262486
0 0.980194 0.439384
0 0.965759 0.434913
0.112306 0.970108 0.444938
0.478508 0.928008 0.298741
1 0.781262 0.203891
0 0.139406 0.465675
0 0.0740673 0.453407
0.555032 0.0299077 0.570672
0.828183 0.0291142 0.399649
1 0.0299382 0.250095
0 0.237522 0.379873
0 0.223972 0.435554
0.510781 0.269444 0.581155
0.78674 0.278004 0.418006
1 0.283803 0.270161
0.17203 0.522255 0.543404
0.360037 0.520043 0.561135
0.489754 0.522408 0.5906
0.748211 0.523934 0.430228
1 0.520027 0.270848
0.066453 0.766384 0.628687
0.266804 0.756222 0.639261
0.403235 0.747341 0.645792
0.744671 0.687953 0.551476
0.95259 0.694484 0.472023
0 0.978683 0.658427
0.111513 0.972473 0.67013
0.276066 0.964126 0.672419
0.499702 0.944335 0.644526
0.991684 0.834577 0.484596
0 0.182208 0.668467
0 0.114229 0.63537
0 0.0375067 0.833799
0.82829 0.0276493 0.848341
1 0.0313726 0.681178
0 0.298253 0.580591
0 0.300023 0.690227
0 0.241932 0.661082
0.788922 0.279683 0.868376
1 0.286809 0.700313
0 0.472847 0.631327
0 0.472328 0.649897
0 0.455421 0.702617
0.747539 0.523278 0.877501
1 0.520195 0.695109
0.294072 0.773495 0.803098
0.443229 0.754559 0.80415
0.573358 0.742382 0.808255
0.687892 0.733745 0.829465
0.934432 0.727306 0.663539
0.16733 0.987976 0.858824
0.343008 0.965301 0.859434
0.472313 0.950332 0.863203
0.597894 0.939574 0.868482
0.923858 0.883177 0.778073
0 0.223972 0.873213
0 0.155383 0.836332
0 0.104524 0.876432
0.120668 0.0463569 1
1 0.0305028 1
0 0.375174 0.828641
0 0.36228 0.9281
0 0.253101 0.832776
0.0646067 0.282704 1
1 0.286778 1
0 0.471138 0.762295
0 0.455299 0.784405
0 0.436316 0.868269
0.129107 0.501457 0.955215
1 0.517678 1
0 0.711742 0.879759
0.00550851 0.709773 0.896269
0.168811 0.708019 0.910338
0.123644 0.680522 0.9505
0.93164 0.724468 1
0.354635 0.987381 1
0.500771 0.962493 1
0.633555 0.947753 1
0.758938 0.936385 1
0.870237 0.928222 1
