luts/1771694551960-Skrrt03.cube
TITLE "Generated by Resolve"
LUT_3D_SIZE 33
0 0 0.152026
0 0 0.153307
0.047425 0 0.155489
0.10164 0 0.157519
0.15613 0 0.159533
0.211292 0.0069276 0.161532
0.266026 0.0146792 0.163561
0.320119 0.0224002 0.165545
0.373571 0.0299992 0.167437
0.423896 0.0376287 0.169299
0.474311 0.0452735 0.171145
0.525399 0.0531777 0.173098
0.576501 0.0608072 0.174899
0.627649 0.0684367 0.176699
0.67863 0.0760815 0.178515
0.729641 0.0837568 0.180362
0.780987 0.0916457 0.182284
0.832151 0.0993057 0.1841
0.883238 0.106981 0.185931
0.934112 0.114672 0.187778
0.984878 0.122606 0.189761
1 0.130327 0.191669
1 0.138048 0.193591
1 0.145769 0.195544
1 0.15349 0.197528
1 0.161501 0.199664
1 0.169268 0.201724
1 0.177081 0.20383
1 0.184924 0.205951
1 0.192813 0.208103
1 0.200992 0.210407
1 0.208988 0.212619
1 0.217044 0.214847
0 0 0.15378
0 0 0.153399
0.0204166 0.0065156 0.15494
0.0705119 0.0140078 0.156725
0.125002 0.0216373 0.158175
0.182254 0.0295415 0.159792
0.239506 0.0371862 0.161456
0.295338 0.0448005 0.163195
0.350225 0.0524147 0.164981
0.403128 0.0602884 0.166888
0.453956 0.0679332 0.168673
0.505135 0.0755779 0.170459
0.556527 0.083238 0.172259
0.607996 0.0910048 0.174105
0.659312 0.0988479 0.175998
0.710506 0.106523 0.177813
0.761822 0.114229 0.179644
0.813138 0.12195 0.181491
0.864622 0.129961 0.183474
0.915648 0.137728 0.185351
0.966354 0.14551 0.187259
1 0.153307 0.189181
1 0.16112 0.19115
1 0.169223 0.193301
1 0.177096 0.195346
1 0.185 0.197436
1 0.19292 0.199573
1 0.2009 0.201724
1 0.20914 0.204044
1 0.217258 0.206302
1 0.225345 0.208576
1 0.233433 0.210864
1 0.241566 0.213184
0 0.0258793 0.156115
0 0.0276036 0.15584
0.00451667 0.0288243 0.155077
0.0521553 0.0365148 0.156512
0.101259 0.044007 0.15819
0.151293 0.0514382 0.159991
0.203784 0.0589456 0.161624
0.258762 0.0666209 0.163043
0.315175 0.0745098 0.164416
0.371588 0.0822461 0.165728
0.424659 0.090013 0.167147
0.477256 0.0977646 0.168673
0.530068 0.105776 0.170397
0.582452 0.113542 0.172061
0.634363 0.121309 0.1738
0.686244 0.129091 0.17557
0.738201 0.136965 0.177386
0.790265 0.144991 0.179324
0.841978 0.15285 0.18117
0.893446 0.160739 0.183078
0.944564 0.168673 0.185
0.995254 0.176684 0.187015
1 0.184863 0.189136
1 0.192859 0.191196
1 0.200916 0.193301
1 0.209003 0.195453
1 0.217121 0.197665
1 0.225467 0.200015
1 0.233646 0.202319
1 0.241794 0.204639
1 0.250004 0.207004
1 0.258259 0.2094
1 0.26656 0.21181
0 0.0541695 0.158251
0 0.0561685 0.158236
0 0.0576638 0.157549
0.0368048 0.058732 0.156756
0.084123 0.0661936 0.158007
0.13315 0.0736553 0.159518
0.183856 0.0813916 0.161303
0.235264 0.0888991 0.163043
0.286534 0.096437 0.164782
0.339178 0.104097 0.166262
0.392294 0.11194 0.16762
0.444038 0.119951 0.168948
0.496773 0.12784 0.170214
0.549996 0.135775 0.171542
0.603113 0.143694 0.172992
0.656321 0.151827 0.174609
0.709468 0.159899 0.176272
0.762402 0.167926 0.177981
0.815091 0.175967 0.179767
0.867414 0.184039 0.181598
0.919295 0.192248 0.183566
0.970703 0.200565 0.185611
1 0.208759 0.18764
1 0.216968 0.189746
1 0.225177 0.191882
1 0.233387 0.19408
1 0.241886 0.196475
1 0.250156 0.19881
1 0.258442 0.201175
1 0.266758 0.203571
1 0.275105 0.206012
1 0.283543 0.208499
1 0.292271 0.211139
0 0.0826734 0.160433
0 0.0844129 0.160357
0 0.0860456 0.159823
0.0157321 0.0874189 0.159045
0.0691539 0.0886702 0.158389
0.116777 0.0961929 0.159594
0.166186 0.103731 0.161013
0.217273 0.111315 0.16257
0.268406 0.119051 0.164309
0.319387 0.126833 0.16611
0.369924 0.134524 0.167895
0.418479 0.142306 0.169528
0.467811 0.150195 0.170993
0.518669 0.158358 0.172457
0.570443 0.166506 0.173861
0.622965 0.17464 0.175219
0.676158 0.182803 0.176623
0.729656 0.191028 0.178119
0.783215 0.199374 0.179721
0.836683 0.207919 0.181506
0.889555 0.216266 0.183291
0.941802 0.224613 0.185153
0.993378 0.232959 0.187106
1 0.241306 0.189166
1 0.249744 0.191333
1 0.258335 0.193668
1 0.266728 0.195926
1 0.275166 0.198306
1 0.283665 0.200732
1 0.292226 0.203204
1 0.300786 0.205722
1 0.309422 0.208301
1 0.318364 0.211032
0 0.111055 0.162417
0 0.112825 0.162387
0 0.114672 0.162066
0 0.11635 0.161456
0.0475319 0.117662 0.160662
0.101534 0.118669 0.159884
0.149813 0.126299 0.161089
0.20032 0.134234 0.1626
0.251286 0.141955 0.164111
0.302144 0.149737 0.165743
0.352804 0.157565 0.167468
0.401556 0.165454 0.169284
0.448737 0.173617 0.171267
0.496422 0.181613 0.173083
0.545068 0.189715 0.174762
0.594842 0.19794 0.176364
0.645853 0.206271 0.17789
0.697856 0.21471 0.179416
0.750668 0.223346 0.181048
0.803616 0.23183 0.18262
0.856596 0.24033 0.184268
0.909331 0.248844 0.186023
0.961501 0.257374 0.187869
1 0.265904 0.189822
1 0.274754 0.19202
1 0.283391 0.194202
1 0.292042 0.19646
1 0.300679 0.198795
1 0.309377 0.201205
1 0.318151 0.203708
1 0.327062 0.206317
1 0.336126 0.209049
1 0.345006 0.211704
0 0.139666 0.164309
0 0.141756 0.164477
0 0.143557 0.164202
0 0.145296 0.163684
0.0268559 0.146853 0.162982
0.0794385 0.14818 0.162219
0.134798 0.149462 0.161563
0.183993 0.15729 0.162799
0.234745 0.165164 0.164187
0.285481 0.173098 0.165698
0.336172 0.181079 0.16733
0.386465 0.189395 0.169207
0.433219 0.197543 0.171054
0.480278 0.205722 0.172992
0.527352 0.213931 0.17499
0.574807 0.222187 0.177005
0.623545 0.230793 0.179049
0.673106 0.239231 0.180865
0.7234 0.2477 0.18265
0.774411 0.256229 0.184375
0.82591 0.264836 0.186099
0.877623 0.273518 0.1879
0.929335 0.282307 0.189776
0.980941 0.291295 0.191821
1 0.300053 0.19382
1 0.308888 0.195926
1 0.317769 0.198154
1 0.326711 0.200473
1 0.335637 0.202853
1 0.34461 0.205325
1 0.353948 0.208026
1 0.363104 0.210681
1 0.37229 0.213382
0 0.168948 0.166308
0 0.170871 0.1664
0 0.172778 0.166247
0 0.174701 0.165881
0.0069276 0.176745 0.165454
0.0584421 0.178363 0.164752
0.112322 0.179721 0.164004
0.168658 0.180819 0.163256
0.218906 0.188876 0.164553
0.269657 0.197253 0.166094
0.320333 0.205509 0.167666
0.370657 0.213764 0.169345
0.418082 0.222049 0.171145
0.465034 0.230396 0.173053
0.512093 0.238758 0.175082
0.559457 0.247288 0.177249
0.607034 0.255802 0.179461
0.65478 0.264271 0.181674
0.703151 0.272862 0.183856
0.752132 0.281529 0.185962
0.801678 0.290242 0.187976
0.851362 0.299001 0.190021
0.901625 0.308141 0.192218
0.95172 0.317098 0.194308
1 0.326085 0.196429
1 0.335073 0.198596
1 0.344137 0.200839
1 0.353292 0.203174
1 0.362509 0.2056
1 0.371801 0.208103
1 0.381277 0.210758
1 0.390311 0.213367
1 0.399405 0.216052
0 0.198505 0.16817
0 0.20058 0.168368
0 0.202731 0.168368
0 0.204974 0.168231
0 0.207004 0.167819
0.0377508 0.208896 0.167269
0.0907149 0.210605 0.166613
0.146029 0.212055 0.165896
0.203967 0.213458 0.165286
0.254383 0.221851 0.16669
0.30486 0.230243 0.168185
0.3552 0.238636 0.169833
0.40354 0.247059 0.171588
0.450309 0.255528 0.17348
0.497505 0.264317 0.175631
0.544747 0.272923 0.177768
0.592279 0.281544 0.179965
0.639979 0.290196 0.182239
0.687755 0.298909 0.184604
0.735531 0.307698 0.18706
0.783429 0.316579 0.189517
0.831693 0.325628 0.191989
0.880079 0.334722 0.19443
0.928573 0.343786 0.19678
0.976959 0.352941 0.199207
1 0.362173 0.201633
1 0.371405 0.204059
1 0.380667 0.206516
1 0.389792 0.209049
1 0.39913 0.211749
1 0.408301 0.214343
1 0.417502 0.216968
1 0.426749 0.219623
0 0.228672 0.170123
0 0.231144 0.17052
0 0.233387 0.170626
0 0.23563 0.17055
0 0.237827 0.170291
0.0174563 0.239948 0.169894
0.0698405 0.242008 0.169406
0.124529 0.243977 0.168887
0.181292 0.245563 0.168246
0.239918 0.246906 0.16759
0.290166 0.255406 0.169055
0.340429 0.263996 0.170672
0.389776 0.272648 0.172427
0.436439 0.281453 0.17438
0.483345 0.290288 0.176455
0.530449 0.299062 0.178592
0.577981 0.307927 0.18085
0.625788 0.316838 0.183185
0.673625 0.32575 0.185611
0.721431 0.334707 0.188113
0.769268 0.343923 0.190799
0.816846 0.353185 0.193576
0.863935 0.362341 0.196338
0.910964 0.371511 0.199054
0.958007 0.380743 0.20177
1 0.389792 0.204486
1 0.398871 0.207202
1 0.40798 0.209918
1 0.417121 0.212619
1 0.426642 0.215488
1 0.435966 0.218219
1 0.445319 0.220951
1 0.454688 0.223651
0 0.259434 0.172351
0 0.261784 0.172717
0 0.264164 0.17293
0 0.266606 0.173007
0 0.269047 0.17293
0 0.271412 0.172702
0.0497444 0.273899 0.172457
0.103624 0.276005 0.171969
0.15967 0.277958 0.171435
0.21799 0.279728 0.170886
0.276509 0.281285 0.170336
0.326604 0.290028 0.171939
0.376638 0.299062 0.173785
0.423423 0.308064 0.175723
0.470054 0.317006 0.177768
0.517021 0.325963 0.179919
0.564462 0.334997 0.182177
0.612238 0.344121 0.184573
0.660182 0.353338 0.187076
0.708095 0.362539 0.189654
0.755932 0.371862 0.192355
0.803616 0.381338 0.195224
0.850752 0.390387 0.198093
0.897444 0.399435 0.201022
0.943618 0.408484 0.204013
0.989532 0.417594 0.207019
1 0.426764 0.210025
1 0.436011 0.213001
1 0.445472 0.216052
1 0.454887 0.219028
1 0.464225 0.221881
1 0.473625 0.224781
1 0.483055 0.227619
0 0.290364 0.174655
0 0.292927 0.175158
0 0.295491 0.175494
0 0.2981 0.175708
0 0.300893 0.175875
0 0.303685 0.175906
0.0303502 0.306218 0.175723
0.0837873 0.308614 0.175387
0.139239 0.310857 0.174975
0.196918 0.312993 0.174533
0.255619 0.314977 0.174105
0.314015 0.316823 0.173693
0.363958 0.326009 0.17554
0.411383 0.33521 0.177508
0.457832 0.344411 0.179583
0.504723 0.353643 0.181796
0.552056 0.362905 0.184085
0.59971 0.372183 0.186496
0.647593 0.381552 0.189029
0.695598 0.390738 0.191699
0.743603 0.400061 0.194537
0.791135 0.409186 0.197314
0.838254 0.418357 0.200198
0.884978 0.427588 0.203174
0.931243 0.436851 0.206226
0.977005 0.446097 0.209308
1 0.45536 0.212451
1 0.464805 0.215732
1 0.47425 0.218967
1 0.483589 0.22211
1 0.492958 0.225193
1 0.502373 0.228229
1 0.511833 0.23125
0 0.321782 0.177279
0 0.324559 0.177905
0 0.327382 0.178408
0 0.330236 0.17879
0 0.333288 0.179141
0 0.336233 0.179309
0.011902 0.339071 0.179324
0.0651408 0.341817 0.179187
0.120195 0.344381 0.178943
0.177218 0.346822 0.178622
0.235996 0.349157 0.178302
0.294682 0.351629 0.178119
0.352804 0.353887 0.177951
0.400717 0.363165 0.179873
0.446876 0.372503 0.181949
0.493538 0.381933 0.184176
0.540749 0.391073 0.186526
0.588296 0.400229 0.188952
0.636027 0.409415 0.19147
0.684123 0.418952 0.194263
0.731868 0.428275 0.197009
0.779355 0.437598 0.199817
0.826444 0.446906 0.202701
0.873091 0.45623 0.205646
0.919295 0.465568 0.208682
0.965042 0.474937 0.21178
1 0.484276 0.214908
1 0.493751 0.218173
1 0.503304 0.221485
1 0.512703 0.22475
1 0.522118 0.228046
1 0.531548 0.231281
1 0.541009 0.23447
0 0.353796 0.180331
0 0.356756 0.181064
0 0.359792 0.18172
0 0.363149 0.182422
0 0.366323 0.182879
0 0.369421 0.183169
0 0.372503 0.183352
0.0477607 0.37554 0.183429
0.102632 0.3785 0.183383
0.159319 0.381277 0.18323
0.217899 0.383902 0.183017
0.276692 0.386664 0.182986
0.334768 0.389059 0.182849
0.391409 0.391409 0.182803
0.437263 0.40058 0.184894
0.483619 0.409812 0.187091
0.530571 0.41912 0.189425
0.57792 0.428489 0.191852
0.625483 0.437842 0.194385
0.67332 0.44744 0.197101
0.720958 0.456916 0.199832
0.768307 0.466331 0.202625
0.815259 0.475746 0.205478
0.861799 0.485161 0.208423
0.907912 0.494575 0.211414
0.953597 0.504005 0.214481
0.998962 0.513573 0.217685
1 0.523186 0.220966
1 0.532616 0.224186
1 0.542046 0.22742
1 0.551476 0.230686
1 0.560891 0.233951
1 0.570321 0.237232
0 0.386236 0.183871
0 0.389303 0.184756
0 0.392401 0.185534
0 0.395911 0.186404
0 0.399222 0.187045
0 0.402533 0.187564
0 0.405768 0.187915
0.0318608 0.408942 0.188159
0.0865492 0.412055 0.188266
0.142992 0.415076 0.188296
0.201358 0.418067 0.188296
0.260151 0.420981 0.188281
0.318166 0.423651 0.18822
0.375463 0.426291 0.188205
0.428901 0.428901 0.188281
0.474922 0.43827 0.190478
0.521538 0.447669 0.192767
0.568582 0.457115 0.195148
0.616098 0.466804 0.197757
0.663569 0.476356 0.200351
0.710903 0.485832 0.203006
0.758053 0.495323 0.205753
0.804852 0.504829 0.208576
0.85127 0.514321 0.21149
0.897276 0.523827 0.214466
0.942824 0.533303 0.217502
0.988235 0.543069 0.220752
1 0.552514 0.22388
1 0.561959 0.227039
1 0.571389 0.230243
1 0.580789 0.233433
1 0.590143 0.236637
1 0.599481 0.239826
0 0.41828 0.187854
0 0.421714 0.188922
0 0.425361 0.18999
0 0.42887 0.19089
0 0.432395 0.191669
0 0.435966 0.19237
0 0.43949 0.19292
0.0171054 0.442908 0.193317
0.0716259 0.44622 0.193561
0.127901 0.449546 0.193744
0.185946 0.452873 0.193912
0.244663 0.455879 0.193912
0.302602 0.458762 0.193896
0.359808 0.461555 0.193912
0.413916 0.464332 0.193988
0.467033 0.467033 0.194125
0.513298 0.476539 0.196384
0.559991 0.486046 0.198703
0.607294 0.495888 0.201297
0.654414 0.505455 0.20383
0.701534 0.515007 0.206439
0.748455 0.524575 0.209125
0.795056 0.534112 0.211902
0.84126 0.543633 0.214755
0.887053 0.55314 0.21767
0.932448 0.562661 0.220661
0.977615 0.572335 0.223819
1 0.581781 0.226886
1 0.59115 0.229953
1 0.600473 0.233036
1 0.609796 0.236149
1 0.619074 0.239261
1 0.628275 0.242344
0 0.451362 0.192309
0 0.455207 0.193622
0 0.458961 0.194766
0 0.462684 0.195789
0 0.466407 0.196704
0 0.47013 0.197513
0 0.473838 0.198184
0.00302129 0.47747 0.198734
0.0574197 0.48098 0.199115
0.113359 0.484367 0.199359
0.171054 0.487907 0.199634
0.229725 0.491066 0.199695
0.287602 0.494118 0.199725
0.344732 0.497078 0.199771
0.399619 0.500008 0.199863
0.452262 0.502861 0.199985
0.505638 0.505638 0.200168
0.552178 0.515404 0.202564
0.598978 0.525139 0.20502
0.645777 0.534722 0.207477
0.692576 0.544305 0.21001
0.739193 0.553872 0.212619
0.785519 0.563409 0.21532
0.831464 0.572915 0.218082
0.876997 0.582376 0.220905
0.922301 0.592004 0.223896
0.96701 0.601419 0.226841
1 0.610758 0.229786
1 0.62002 0.232746
1 0.629206 0.235721
1 0.638346 0.238682
1 0.647456 0.241642
1 0.656519 0.244587
0 0.485252 0.197223
0 0.489204 0.198581
0 0.493187 0.199847
0 0.497093 0.200992
0 0.501015 0.202045
0 0.504875 0.202945
0 0.508675 0.203723
0 0.512413 0.204334
0.0437781 0.51606 0.204822
0.0997482 0.519814 0.20528
0.156847 0.523217 0.205493
0.215274 0.526497 0.205615
0.273182 0.529686 0.205692
0.330266 0.532815 0.205768
0.386099 0.535882 0.20589
0.438178 0.538842 0.206012
0.491234 0.541878 0.206256
0.544823 0.544823 0.206516
0.591104 0.554421 0.20882
0.637522 0.564004 0.2112
0.683955 0.573541 0.213642
0.730205 0.583047 0.216144
0.776135 0.592493 0.218723
0.821744 0.601907 0.221363
0.866941 0.611276 0.224063
0.911971 0.620859 0.226963
0.956268 0.63006 0.229725
1 0.639216 0.232532
1 0.648341 0.235355
1 0.657374 0.238178
1 0.666316 0.240986
1 0.675181 0.243763
1 0.684092 0.246601
0 0.519829 0.202533
0 0.523995 0.203998
0 0.527947 0.205264
0 0.531929 0.20647
0 0.535943 0.207584
0 0.53991 0.208576
0 0.543816 0.209415
0 0.547616 0.210101
0.0308995 0.551614 0.210803
0.0864576 0.555245 0.211215
0.143267 0.558755 0.21149
0.201358 0.562127 0.211673
0.259342 0.565408 0.211795
0.316335 0.568612 0.211887
0.372259 0.57174 0.211994
0.424659 0.574777 0.2121
0.477134 0.577783 0.212253
0.530282 0.580835 0.212497
0.583535 0.583535 0.21265
0.629511 0.593027 0.214908
0.675517 0.602502 0.217243
0.721355 0.611902 0.219623
0.766873 0.621225 0.222049
0.812024 0.630472 0.224537
0.856962 0.639826 0.227176
0.901473 0.649104 0.229831
0.945403 0.658152 0.232441
0.988952 0.667079 0.235065
1 0.675944 0.23769
1 0.684764 0.240345
1 0.693507 0.242985
1 0.702281 0.24567
1 0.710948 0.248325
0 0.554849 0.208133
0 0.558923 0.209567
0 0.562982 0.210895
0 0.567056 0.212161
0 0.571115 0.213321
0 0.575158 0.214374
0 0.579141 0.21529
0 0.583047 0.216052
0.018265 0.587045 0.21677
0.0737011 0.590784 0.217273
0.130236 0.594324 0.217594
0.1879 0.597742 0.217792
0.245945 0.601068 0.217929
0.302831 0.604288 0.218021
0.358618 0.607416 0.218097
0.411566 0.610483 0.218173
0.463676 0.613626 0.218341
0.516075 0.616434 0.218402
0.568811 0.61912 0.218463
0.621698 0.621698 0.21854
0.66717 0.630976 0.220706
0.712535 0.640223 0.22295
0.75761 0.649393 0.225238
0.802472 0.658625 0.227649
0.84686 0.667704 0.23006
0.890745 0.6766 0.232441
0.934249 0.685435 0.234882
0.977401 0.694163 0.237339
1 0.70277 0.23978
1 0.711269 0.242206
1 0.719738 0.244633
1 0.728298 0.247166
1 0.736675 0.249592
0 0.589929 0.213886
0 0.594079 0.215351
0 0.598215 0.216739
0 0.602365 0.218051
0 0.6065 0.219257
0 0.61059 0.220356
0 0.614603 0.221317
0 0.618692 0.222202
0.00628672 0.622614 0.222904
0.0614176 0.626276 0.223392
0.117662 0.629786 0.223713
0.174868 0.633173 0.223896
0.232822 0.636423 0.224002
0.28957 0.639612 0.224063
0.345205 0.64271 0.224094
0.398978 0.64593 0.224231
0.450278 0.648737 0.224186
0.502068 0.651423 0.224125
0.554238 0.654017 0.224079
0.606546 0.656504 0.224048
0.658869 0.658869 0.224018
0.703655 0.667857 0.226062
0.748196 0.676799 0.228153
0.792569 0.685817 0.230396
0.8365 0.694682 0.232639
0.87985 0.703288 0.234806
0.922805 0.711818 0.237018
0.965484 0.720287 0.239277
1 0.728649 0.24152
1 0.736889 0.243748
1 0.745251 0.246082
1 0.753292 0.248264
1 0.761288 0.250446
0 0.625193 0.219867
0 0.629404 0.221378
0 0.63357 0.222782
0 0.637736 0.224109
0 0.641871 0.22533
0 0.64596 0.226444
0 0.649943 0.22742
0 0.654108 0.228367
0 0.657832 0.228992
0.0493935 0.661418 0.22945
0.105348 0.664881 0.22977
0.162188 0.668193 0.229938
0.219867 0.671351 0.229984
0.276432 0.674388 0.229969
0.331868 0.677363 0.229923
0.386343 0.680415 0.229938
0.437064 0.683177 0.229831
0.488243 0.685679 0.229633
0.539742 0.688075 0.229435
0.591455 0.690394 0.229252
0.643198 0.692622 0.229099
0.694728 0.694728 0.228946
0.738872 0.703563 0.23093
0.782574 0.7122 0.232898
0.825864 0.720684 0.234882
0.868742 0.729061 0.236881
0.911162 0.73727 0.238865
0.953262 0.745373 0.240864
0.995178 0.753414 0.242878
1 0.761501 0.244968
1 0.769482 0.247044
1 0.777203 0.249012
1 0.784833 0.250935
0 0.660471 0.226047
0 0.664683 0.227558
0 0.668833 0.228946
0 0.672969 0.230274
0 0.677043 0.231479
0 0.681041 0.232563
0 0.685039 0.233539
0 0.689021 0.23444
0 0.692653 0.235019
0.0376287 0.696086 0.235416
0.0931868 0.699382 0.23566
0.149615 0.702556 0.235782
0.206897 0.705592 0.235782
0.263386 0.708476 0.235676
0.318822 0.711467 0.23563
0.373083 0.714168 0.235447
0.423896 0.716686 0.235187
0.474495 0.719051 0.234867
0.525368 0.721233 0.234516
0.576394 0.723278 0.234134
0.627482 0.725277 0.233799
0.678416 0.727199 0.233494
0.729274 0.729274 0.233356
0.77229 0.737499 0.23505
0.814969 0.745632 0.236774
0.857298 0.753689 0.23856
0.899229 0.761654 0.24036
0.940826 0.769482 0.242145
0.982437 0.777417 0.244053
1 0.785046 0.245838
1 0.792615 0.247654
1 0.800107 0.249439
1 0.807492 0.251194
0 0.695598 0.232319
0 0.699733 0.233783
0 0.703792 0.235142
0 0.707835 0.236423
0 0.711818 0.237598
0 0.71577 0.238666
0 0.719722 0.239643
0 0.723339 0.240345
0 0.726802 0.240864
0.0258946 0.730098 0.241199
0.0810559 0.733196 0.241367
0.136995 0.736126 0.241367
0.193698 0.738964 0.24126
0.250172 0.74168 0.241077
0.305455 0.744518 0.240955
0.35938 0.746914 0.240604
0.410605 0.749157 0.240177
0.460624 0.751308 0.239704
0.510918 0.753292 0.239216
0.561318 0.755123 0.238666
0.61178 0.756893 0.238163
0.662211 0.758694 0.237751
0.712184 0.760281 0.237278
0.761776 0.761776 0.236851
0.803876 0.769589 0.238361
0.845594 0.777295 0.239887
0.886992 0.784939 0.241474
0.928298 0.792676 0.243168
0.969299 0.800214 0.244816
1 0.807568 0.246418
1 0.814847 0.248005
1 0.82208 0.249607
1 0.829267 0.251209
0 0.730343 0.238575
0 0.734371 0.239994
0 0.738293 0.241276
0 0.742153 0.242451
0 0.745968 0.243549
0 0.749722 0.244526
0 0.753552 0.245441
0 0.756924 0.246036
0 0.760143 0.246448
0.0139467 0.763241 0.246693
0.0686961 0.766155 0.246754
0.124208 0.768856 0.246677
0.180285 0.771405 0.246433
0.236866 0.77409 0.246235
0.291646 0.77644 0.245853
0.345403 0.778622 0.24538
0.397162 0.780591 0.244785
0.44651 0.782406 0.244129
0.496162 0.784131 0.243442
0.545983 0.785733 0.242756
0.596017 0.787442 0.242191
0.645609 0.788769 0.241459
0.694911 0.790051 0.240787
0.743893 0.791302 0.240162
0.792523 0.792523 0.239597
0.83386 0.800076 0.241001
0.874876 0.807584 0.242466
0.915511 0.814862 0.24387
0.956008 0.822095 0.245304
0.996414 0.829267 0.246754
1 0.836332 0.248188
1 0.843488 0.249714
1 0.850523 0.251179
0 0.764492 0.244694
0 0.768368 0.246021
0 0.772137 0.247227
0 0.775799 0.24831
0 0.7794 0.249287
0 0.783123 0.250263
0 0.786496 0.25095
0 0.78967 0.251453
0 0.792615 0.251743
0.0016022 0.795392 0.251835
0.0559243 0.798032 0.251774
0.111009 0.800504 0.251575
0.166857 0.803067 0.251347
0.222812 0.805173 0.250858
0.277302 0.807187 0.250294
0.330846 0.80911 0.249668
0.383474 0.810864 0.248951
0.432166 0.812421 0.248142
0.48127 0.813916 0.247318
0.530602 0.815366 0.246525
0.579812 0.816602 0.245655
0.628885 0.817761 0.2448
0.677623 0.818814 0.243961
0.726024 0.819821 0.243168
0.774136 0.820859 0.242451
0.822019 0.822019 0.241871
0.862486 0.829175 0.243107
0.902678 0.836255 0.244343
0.942733 0.843244 0.245609
0.982727 0.850202 0.246906
1 0.857298 0.248325
1 0.864179 0.249638
1 0.87097 0.250935
0 0.797971 0.250614
0 0.801572 0.251804
0 0.805112 0.252888
0 0.808591 0.25388
0 0.812207 0.254871
0 0.815396 0.255558
0 0.818433 0.256092
0 0.821347 0.256458
0 0.824063 0.256626
0 0.826551 0.256596
0.0426337 0.82884 0.256352
0.0973831 0.831159 0.256092
0.152544 0.833265 0.25565
0.208072 0.835142 0.255039
0.262486 0.836866 0.254322
0.315755 0.838437 0.253513
0.368215 0.839902 0.252628
0.417502 0.841276 0.251713
0.466239 0.84271 0.250843
0.514855 0.843763 0.249805
0.563485 0.844739 0.248783
0.612024 0.845701 0.247776
0.660288 0.846601 0.24683
0.708431 0.847684 0.246021
0.755993 0.848478 0.245136
0.803189 0.849256 0.244297
0.850034 0.850034 0.243534
0.889876 0.856947 0.244648
0.929732 0.863951 0.245884
0.969406 0.870756 0.247059
1 0.877485 0.248219
1 0.884169 0.249409
1 0.890822 0.250584
0 0.83061 0.256229
0 0.833967 0.257282
0 0.837186 0.258183
0 0.840452 0.259068
0 0.843732 0.259876
0 0.846662 0.260426
0 0.849393 0.260777
0 0.851926 0.26096
0 0.854337 0.260975
