luts/1771694097459-Drip04.cube
TITLE "Generated by Resolve"
LUT_3D_SIZE 9
0 0.0401923 0.0554665
0.102159 0.0405737 0
0.284993 0.0351873 0
0.420447 0.0315862 0
0.553079 0.0284733 0
0.686809 0.0257115 0
0.821729 0.0234379 0
0.958221 0.0219425 0
1 0.0209812 0
0 0.144854 0.068864
0.103471 0.120165 0.0374304
0.2542 0.125582 0.01355
0.386175 0.124559 0
0.514382 0.123583 0
0.651881 0.122408 0
0.793149 0.121508 0
0.935607 0.121416 0
1 0.122194 0
0 0.254276 0.0822766
0 0.243763 0.0697337
0.302556 0.205936 0.0270085
0.401083 0.220829 0.0360418
0.523644 0.224079 0
0.648142 0.227466 0
0.774517 0.231357 0
0.905501 0.234852 0
1 0.236942 0
0 0.37232 0.0994278
0 0.367391 0.0982376
0.0938277 0.367498 0.054963
0.462654 0.307164 0.0275425
0.554894 0.327718 0.0577096
0.672251 0.334508 0.0201267
0.795926 0.337652 0
0.920104 0.340291 0
1 0.342443 0
0 0.498741 0.121965
0 0.497047 0.122805
0.00340276 0.501152 0.11873
0.29482 0.481178 0.043534
0.621408 0.410651 0.0274052
0.713024 0.429877 0.0610056
0.81355 0.439384 0.0445716
0.933608 0.439582 0.000106813
1 0.437613 0
0 0.628992 0.14696
0 0.625986 0.147311
0 0.624506 0.150546
0.153704 0.627573 0.103288
0.442359 0.578622 0.0299535
0.766491 0.500267 0.0178836
0.858808 0.514824 0.0448768
0.94229 0.526528 0.0516976
1 0.525154 0.00891127
0 0.758068 0.171405
0 0.751369 0.169055
0 0.746838 0.169802
0.0559701 0.747295 0.154009
0.298238 0.726177 0.0664225
0.575448 0.658091 0.00967422
0.897765 0.575967 0.00161746
0.99411 0.587213 0.0197299
1 0.601572 0.0426337
0 0.881666 0.190448
0 0.869825 0.184085
0 0.863371 0.179751
0 0.854154 0.176089
0.176211 0.846693 0.119158
0.409903 0.805447 0.0294499
0.701915 0.728649 0
1 0.645441 0
1 0.655299 0
0 0.999496 0.203708
0 0.983001 0.19353
0 0.972549 0.186297
0 0.957397 0.181903
0.0724346 0.954116 0.156847
0.290303 0.933867 0.0717937
0.524941 0.87776 0
0.827909 0.797971 0
1 0.715724 0
0 0.0713512 0.169039
0.101808 0.0404059 0.179706
0.286671 0.0371862 0.100496
0.422492 0.0338445 0.0335088
0.553979 0.0296635 0
0.686213 0.025452 0
0.820447 0.0225071 0
0.956344 0.0204623 0
1 0.0195163 0
0 0.139879 0.153033
0.0554513 0.142885 0.166186
0.241352 0.144076 0.0952468
0.388388 0.142718 0.031342
0.519646 0.140856 0
0.653147 0.139971 0
0.789197 0.140536 0
0.926619 0.141649 0
1 0.14345 0
0 0.246693 0.177783
0 0.250202 0.187991
0.256199 0.234455 0.160052
0.379202 0.244266 0.132952
0.504173 0.24892 0.076997
0.63798 0.251286 0.0218357
0.777508 0.251026 0
0.91928 0.251164 0
1 0.251514 0
0 0.366613 0.203082
0 0.367895 0.209628
0.107164 0.380758 0.219333
0.425452 0.338933 0.162005
0.524529 0.355291 0.170428
0.649042 0.360708 0.114702
0.773999 0.365042 0.0632486
0.899062 0.367636 0.0162356
1 0.367483 0
0 0.494591 0.23183
0 0.495094 0.237186
0.0247501 0.511788 0.256046
0.267536 0.507012 0.202304
0.581628 0.443366 0.161959
0.671046 0.46125 0.194064
0.787121 0.465019 0.143435
0.907774 0.46569 0.0879988
1 0.464866 0.0368963
0 0.624643 0.262196
0 0.622873 0.265187
0 0.63473 0.279561
0.174792 0.637736 0.27306
0.407889 0.609033 0.17525
0.724071 0.532876 0.14931
0.810117 0.548012 0.185412
0.90959 0.553079 0.157595
1 0.550927 0.100145
0 0.75201 0.290532
0 0.746868 0.290059
0 0.750439 0.296742
0.0800336 0.755566 0.305211
0.294453 0.742916 0.23888
0.535531 0.690333 0.14493
0.85388 0.609049 0.126513
0.942031 0.621653 0.158373
1 0.630854 0.159457
0 0.87277 0.311772
0 0.863661 0.307317
0 0.860533 0.307759
0 0.86453 0.314244
0.197147 0.855024 0.288502
0.389761 0.829648 0.186236
0.659815 0.7626 0.11342
0.97879 0.679973 0.101045
1 0.691173 0.126711
0 0.987671 0.325643
0 0.975509 0.318257
0 0.967987 0.314778
0 0.965942 0.313573
0.0957809 0.96173 0.313558
0.297932 0.946807 0.245624
0.494881 0.907195 0.140246
0.784894 0.833661 0.0847639
1 0.751476 0.0775006
0 0.0943465 0.269413
0 0.0582742 0.249683
0.285924 0.0361028 0.302541
0.422919 0.0341497 0.219013
0.556344 0.0319066 0.145068
0.690379 0.0294652 0.0790265
0.825132 0.0270085 0.0201419
0.960662 0.0245212 0
1 0.0221866 0
0 0.135698 0.210407
0 0.127337 0.233692
0.241337 0.143999 0.294789
0.390021 0.144305 0.214694
0.523796 0.144869 0.14406
0.658824 0.145464 0.0811475
0.795239 0.146334 0.025742
0.931945 0.1467 0
1 0.147066 0
0.0202182 0.255406 0.266712
0.125444 0.256214 0.276478
0.218448 0.258991 0.292058
0.372305 0.262913 0.221622
0.507546 0.266423 0.153094
0.643503 0.269291 0.0914168
0.780179 0.271855 0.0363775
0.916686 0.273472 0
1 0.273899 0
0 0.372152 0.305119
0.0738231 0.378363 0.321691
0.177371 0.382956 0.334646
0.393179 0.366735 0.302266
0.50486 0.378027 0.272007
0.631037 0.383551 0.20972
0.76556 0.385931 0.143572
0.90483 0.385473 0.0783856
1 0.383688 0.0201572
0 0.498329 0.342885
0.019791 0.506737 0.360052
0.118563 0.513161 0.37261
0.285649 0.51693 0.373541
0.546838 0.471672 0.301701
0.6439 0.485405 0.307195
0.765103 0.487663 0.241199
0.885908 0.488258 0.179355
1 0.487587 0.121187
0 0.626398 0.377844
0 0.630655 0.389593
0.0567788 0.638972 0.402914
0.201465 0.644846 0.411154
0.38941 0.630594 0.339284
0.686885 0.560937 0.285771
0.772137 0.574823 0.317006
0.885176 0.575174 0.255955
1 0.573327 0.192691
0 0.75079 0.406561
0 0.748974 0.411383
0 0.755474 0.422339
0.128832 0.760449 0.429862
0.313359 0.749783 0.408286
0.504097 0.71635 0.292149
0.81529 0.6374 0.259373
0.898497 0.650568 0.297368
0.998749 0.653941 0.262486
0 0.86804 0.426566
0 0.861295 0.42591
0 0.860868 0.429694
0.0508278 0.867979 0.43975
0.220249 0.86096 0.435264
0.389639 0.843351 0.359701
0.623758 0.790585 0.251713
0.939406 0.708965 0.23061
1 0.721614 0.265751
0 0.980194 0.439384
0 0.970169 0.435203
0 0.965759 0.434913
0 0.970474 0.442939
0.112306 0.970108 0.444938
0.314595 0.953445 0.412451
0.478508 0.928008 0.298741
0.746807 0.863081 0.217395
1 0.781262 0.203891
0 0.116747 0.367697
0 0.0817273 0.342596
0 0.0388952 0.429343
0.421622 0.0326085 0.435523
0.556054 0.0313726 0.346929
0.691203 0.0300145 0.265339
0.827543 0.0289769 0.194369
0.964813 0.0281224 0.12903
1 0.0276188 0.0697948
0 0.166781 0.307301
0 0.166537 0.356832
0 0.128511 0.331426
0.390005 0.144152 0.429725
0.524987 0.145846 0.344366
0.661341 0.147662 0.266773
0.798764 0.149523 0.19884
0.937331 0.151659 0.136339
1 0.153399 0.0786908
0 0.234348 0.311559
0 0.23122 0.317372
0 0.225284 0.345815
0.373587 0.264164 0.438987
0.509789 0.268559 0.35584
0.646693 0.272328 0.278996
0.784344 0.275837 0.211551
0.921828 0.278462 0.148333
1 0.280537 0.0901198
0.0913405 0.385412 0.40119
0.204059 0.385611 0.411627
0.300359 0.388251 0.423148
0.36759 0.392111 0.443305
0.498482 0.397162 0.370047
0.63415 0.400809 0.291554
0.769482 0.403174 0.221744
0.904356 0.404425 0.156451
1 0.404425 0.096025
0.0484169 0.512489 0.452338
0.162799 0.513542 0.464866
0.263203 0.514855 0.47628
0.344137 0.516457 0.486748
0.514473 0.497902 0.452735
0.623804 0.506447 0.416648
0.746639 0.508446 0.342351
0.877226 0.506722 0.263066
1 0.50277 0.187518
0 0.638636 0.493309
0.105226 0.640024 0.50518
0.20412 0.640726 0.514504
0.291768 0.640787 0.521263
0.408011 0.636652 0.515633
0.652232 0.586877 0.434104
0.745525 0.596704 0.434669
0.863172 0.595804 0.359335
0.981201 0.594125 0.287739
0 0.755947 0.51989
0.0381476 0.758709 0.531792
0.133532 0.758511 0.53872
0.221256 0.757031 0.542412
0.334554 0.754009 0.541772
0.486305 0.735775 0.463218
0.779126 0.663371 0.403677
0.862394 0.675532 0.433799
0.974212 0.674739 0.366567
0 0.86772 0.537652
0 0.866926 0.544991
0.0550393 0.867781 0.551965
0.143267 0.866377 0.554955
0.26775 0.862943 0.554177
0.407034 0.848249 0.528267
0.59379 0.814939 0.407614
0.902647 0.735698 0.370642
0.985428 0.749081 0.411933
0 0.97641 0.549355
0 0.969573 0.54995
0 0.971481 0.557382
0.0614023 0.970626 0.5617
0.190768 0.968765 0.56289
0.333028 0.958022 0.554269
0.47953 0.940475 0.477333
0.712627 0.88957 0.363516
1 0.808667 0.339773
0 0.139406 0.465675
0 0.102708 0.445319
0 0.0740673 0.453407
0.00535592 0.0384375 0.577142
0.555032 0.0299077 0.570672
0.691096 0.0294041 0.482399
0.828183 0.0291142 0.399649
0.967941 0.0294041 0.322377
1 0.0299382 0.250095
0 0.205997 0.430823
0 0.197223 0.474098
0 0.139696 0.421775
0 0.138415 0.539391
0.52517 0.145739 0.568261
0.662623 0.148547 0.483604
0.800931 0.151232 0.403845
0.940368 0.154162 0.328847
1 0.15668 0.258228
0 0.237522 0.379873
0 0.229892 0.390845
0 0.223972 0.435554
0.00343328 0.250889 0.47509
0.510781 0.269444 0.581155
0.648569 0.274022 0.49749
0.78674 0.278004 0.418006
0.924865 0.281254 0.342077
1 0.283803 0.270161
0 0.356329 0.440848
0 0.359365 0.453727
0.0403906 0.370871 0.474144
0.0271 0.365133 0.503365
0.499687 0.398413 0.596551
0.635828 0.402457 0.511116
0.771389 0.405051 0.429023
0.90663 0.406668 0.350439
1 0.406973 0.275471
0.17203 0.522255 0.543404
0.28043 0.520165 0.552026
0.360037 0.520043 0.561135
0.42887 0.520867 0.570382
0.489754 0.522408 0.5906
0.616342 0.524163 0.515755
0.748211 0.523934 0.430228
0.879469 0.52253 0.348257
1 0.520027 0.270848
0.128023 0.647684 0.5935
0.237232 0.643275 0.600763
0.325917 0.640391 0.608209
0.394568 0.637522 0.614878
0.460853 0.634775 0.620539
0.619135 0.611322 0.583871
0.724758 0.61619 0.542962
0.844282 0.615106 0.463569
0.972457 0.611154 0.377432
0.066453 0.766384 0.628687
0.174304 0.760845 0.634318
0.266804 0.756222 0.639261
0.340734 0.751614 0.643107
0.403235 0.747341 0.645792
0.510369 0.738689 0.637415
0.744671 0.687953 0.551476
0.836332 0.696284 0.549844
0.95259 0.694484 0.472023
0 0.876173 0.649424
0.0990311 0.871229 0.654658
0.191791 0.866438 0.658274
0.275334 0.861646 0.660563
0.342168 0.856886 0.661219
0.431495 0.850919 0.658076
0.576654 0.833371 0.578271
0.867582 0.760967 0.516945
0.950698 0.773251 0.547265
0 0.978683 0.658427
0.0202792 0.976989 0.665995
0.111513 0.972473 0.67013
0.197055 0.968215 0.671931
0.276066 0.964126 0.672419
0.371328 0.958465 0.669779
0.499702 0.944335 0.644526
0.68365 0.913115 0.522362
0.991684 0.834577 0.484596
0 0.161135 0.566812
0 0.123323 0.547036
0 0.0944076 0.536461
0 0.0568856 0.640543
0.184955 0.0403296 0.717494
0.690455 0.0281376 0.70811
0.828428 0.0286259 0.620905
0.968811 0.0295109 0.538598
1 0.0310063 0.460899
0 0.237644 0.554147
0 0.222934 0.585443
0 0.180652 0.549416
0 0.134112 0.529595
0.140291 0.150805 0.709163
0.663172 0.148638 0.70985
0.802274 0.152026 0.625528
0.94229 0.15552 0.545464
1 0.158633 0.468528
0 0.255299 0.463615
0 0.255039 0.507378
0 0.252537 0.553903
0 0.227298 0.532738
0.125048 0.27068 0.692653
0.649638 0.274876 0.724712
0.788113 0.279149 0.640177
0.926772 0.282887 0.559045
1 0.285786 0.480568
0 0.347906 0.499199
0 0.343359 0.50454
0 0.343359 0.524208
0 0.332815 0.56437
0.175174 0.389502 0.633234
0.636561 0.403174 0.738506
0.772366 0.405982 0.651179
0.90779 0.407767 0.566842
1 0.408225 0.48484
0 0.491417 0.582147
0.027924 0.49897 0.599893
0.124681 0.503594 0.613535
0.215778 0.506783 0.625193
0.197391 0.499016 0.652155
0.616205 0.524041 0.742199
0.748196 0.523919 0.651072
0.879683 0.522774 0.563165
1 0.520577 0.478172
0.242206 0.654124 0.68014
0.336095 0.647486 0.684245
0.407156 0.643 0.689036
0.474601 0.639521 0.693935
0.538674 0.636576 0.698894
0.594598 0.634241 0.716991
0.716335 0.632593 0.640879
0.845151 0.629664 0.551217
0.973602 0.625956 0.464897
0.190341 0.770489 0.720851
0.292027 0.761105 0.723064
0.365164 0.753841 0.72604
0.432227 0.747631 0.729381
0.497566 0.74197 0.732631
0.561151 0.736828 0.735393
0.711513 0.711528 0.70013
0.815503 0.715068 0.657328
0.933806 0.713146 0.576028
0.122667 0.880446 0.748272
0.225818 0.870558 0.749874
0.312215 0.862745 0.752102
0.376455 0.855543 0.754101
0.439521 0.849241 0.756237
0.501091 0.843717 0.757916
0.607248 0.833951 0.750484
0.833783 0.785168 0.664408
0.925414 0.793683 0.662562
0.045655 0.986419 0.765591
0.149508 0.976623 0.767834
0.239841 0.969467 0.769985
0.317235 0.962936 0.77171
0.378378 0.956847 0.772854
0.438422 0.951736 0.773571
0.528313 0.946517 0.772168
0.667369 0.930983 0.693004
0.957275 0.859312 0.630854
0 0.182208 0.668467
0 0.145052 0.646983
0 0.114229 0.63537
0 0.0889448 0.663371
0 0.0375067 0.833799
0.343542 0.0395056 0.856397
0.82829 0.0276493 0.848341
0.969436 0.0292058 0.762524
1 0.0313726 0.681178
0 0.265538 0.672953
0 0.246983 0.694377
0 0.209003 0.663874
0 0.160067 0.626017
0 0.138949 0.724269
0.316854 0.156191 0.85391
0.803082 0.152239 0.853483
0.943374 0.156008 0.769329
1 0.159747 0.688609
0 0.298253 0.580591
0 0.308614 0.656092
0 0.300023 0.690227
0 0.236942 0.631846
0 0.241932 0.661082
0.30016 0.27924 0.865583
0.788922 0.279683 0.868376
0.927886 0.283711 0.783169
1 0.286809 0.700313
0 0.351843 0.568917
0 0.343572 0.573892
0 0.341787 0.617197
0 0.33286 0.656504
0 0.349813 0.675502
0.290593 0.40441 0.84535
0.77258 0.406149 0.878874
0.90811 0.408042 0.790143
1 0.408576 0.703395
0 0.472847 0.631327
0 0.469642 0.638148
0 0.472328 0.649897
0 0.473701 0.670954
0 0.455421 0.702617
0.323293 0.514565 0.774182
0.747539 0.523278 0.877501
0.879133 0.522225 0.784985
1 0.520195 0.695109
0 0.627604 0.723583
0.0988479 0.627207 0.733349
0.193469 0.625986 0.741039
0.278187 0.624277 0.747585
0.345571 0.622065 0.753201
0.328298 0.610727 0.776059
0.71516 0.631388 0.866011
0.844221 0.628717 0.77174
0.973037 0.625422 0.680644
0.294072 0.773495 0.803098
0.373495 0.762356 0.80267
0.443229 0.754559 0.80415
0.509606 0.748058 0.806088
0.573358 0.742382 0.808255
0.634653 0.737575 0.811124
0.687892 0.733745 0.829465
0.806851 0.730983 0.754665
0.934432 0.727306 0.663539
0.236683 0.88159 0.835233
0.327871 0.869169 0.834394
0.396902 0.859754 0.835233
0.463478 0.851835 0.836896
0.528557 0.844831 0.838956
0.592523 0.83859 0.84123
0.655146 0.833127 0.843336
0.802792 0.808164 0.811109
0.905333 0.812787 0.770382
0.16733 0.987976 0.858824
0.267506 0.974746 0.858503
0.343008 0.965301 0.859434
0.408255 0.957244 0.861021
0.472313 0.950332 0.863203
0.5355 0.944366 0.865736
0.597894 0.939574 0.868482
0.704646 0.929671 0.862715
0.923858 0.883177 0.778073
0 0.203204 0.770779
0 0.165957 0.747051
0 0.134295 0.736324
0 0.108522 0.738796
0 0.0787671 0.849851
0 0.035462 0.990753
0.47747 0.0401617 0.999603
0.969726 0.0284733 0.992584
1 0.0310063 0.906828
0 0.291142 0.787259
0 0.270298 0.801968
0 0.234104 0.774533
0 0.196857 0.747097
0 0.147356 0.738216
0 0.144793 0.949905
0.452369 0.161517 1
0.944228 0.156207 0.999588
1 0.160296 0.914443
0 0.339254 0.703929
0 0.346044 0.786892
0 0.333165 0.81149
0 0.273945 0.757763
0 0.236469 0.729305
0 0.262165 0.865507
0.43682 0.285786 1
0.92842 0.283955 1
1 0.287037 0.925307
0 0.365042 0.647761
0 0.35758 0.666514
0 0.361273 0.734462
0 0.351827 0.766583
0 0.336568 0.753643
0 0.377493 0.816571
0.418906 0.408759 1
0.907729 0.407599 1
1 0.408179 0.927214
0 0.467781 0.692973
0 0.4598 0.694957
0 0.456962 0.705242
0 0.45066 0.744076
0 0.436164 0.776242
0.00408942 0.480842 0.821698
0.402579 0.523217 0.978637
0.877989 0.52108 1
1 0.519173 0.917494
0 0.596918 0.76112
0 0.592599 0.766674
0 0.595087 0.777951
0.033753 0.601022 0.792111
0.0647593 0.598413 0.80882
0 0.574701 0.834104
0.420951 0.620844 0.893202
0.84268 0.627176 0.996796
0.971649 0.624018 0.901717
0.0513924 0.748394 0.848066
0.155169 0.742123 0.851881
0.245106 0.736904 0.855543
0.321553 0.73196 0.858808
0.381399 0.72694 0.86154
0.44004 0.722667 0.864759
0.42092 0.710018 0.886046
0.805386 0.729458 0.978927
0.933272 0.726116 0.883909
0.327688 0.882612 0.914778
0.40351 0.869047 0.911955
0.472892 0.859388 0.911696
0.539269 0.851469 0.912413
0.60354 0.844739 0.913725
0.665949 0.839017 0.915633
0.726406 0.834241 0.918593
0.778744 0.83064 0.938994
0.896834 0.828656 0.867628
0.274708 0.987182 0.94342
0.356268 0.973083 0.940978
0.425589 0.962783 0.941039
0.492561 0.95433 0.94226
0.558282 0.947173 0.944305
0.623255 0.941115 0.947066
0.686885 0.935286 0.949523
0.749157 0.930175 0.95172
0.894636 0.905882 0.920531
0 0.223972 0.873213
0 0.186297 0.847959
0 0.155383 0.836332
0 0.127581 0.831693
0 0.104524 0.876432
0 0.0540169 1
0.120668 0.0463569 1
0.614984 0.0419623 1
1 0.0305028 1
0 0.31574 0.899199
0 0.293034 0.908293
0 0.257908 0.883391
0 0.224216 0.860212
0 0.182788 0.838239
0 0.148348 0.921233
0.079881 0.161944 1
0.590188 0.166552 1
1 0.160357 1
0 0.375174 0.828641
0 0.377432 0.909468
0 0.36228 0.9281
0 0.316793 0.889006
0 0.253101 0.832776
0 0.245899 0.861357
0.0646067 0.282704 1
0.572885 0.291188 1
1 0.286778 1
0 0.389853 0.74258
0 0.388739 0.785061
0 0.403998 0.872709
0 0.394049 0.899077
0 0.343374 0.851255
0 0.346838 0.860975
0.0900435 0.400443 1
0.550759 0.411429 1
1 0.40708 1
0 0.471138 0.762295
0 0.460014 0.762448
0 0.455299 0.784405
0 0.450309 0.842481
0 0.436316 0.868269
0 0.444083 0.876768
0.129107 0.501457 0.955215
0.520729 0.521874 1
1 0.517678 1
0 0.584192 0.815564
0 0.574685 0.815763
0 0.570092 0.819898
0 0.567178 0.829618
0 0.554528 0.861646
0 0.53492 0.887358
0.136767 0.592554 0.945113
0.496727 0.626078 1
0.969818 0.622202 1
0 0.711742 0.879759
0 0.706752 0.88455
0.00550851 0.709773 0.896269
0.0869154 0.709697 0.90428
0.168811 0.708019 0.910338
0.196231 0.702571 0.924102
0.123644 0.680522 0.9505
0.511513 0.718563 1
0.93164 0.724468 1
0.0987106 0.858412 0.960632
0.199954 0.848829 0.961227
0.286366 0.841428 0.962783
0.352773 0.834684 0.964385
0.413352 0.828824 0.966415
0.472862 0.823789 0.968978
0.53138 0.819501 0.972152
0.512047 0.807172 0.993729
0.895415 0.827161 1
0.354635 0.987381 1
0.430869 0.972778 1
0.500771 0.962493 1
0.56791 0.954269 1
0.633555 0.947753 1
0.697078 0.941649 1
0.758938 0.936385 1
0.81883 0.931853 1
0.870237 0.928222 1
