luts/1771694525668-PopOff07.cube
TITLE "Generated by Resolve"
LUT_3D_SIZE 5
0 0 0
0.0141604 0.0141604 0.0141604
0.028336 0.028336 0.028336
0.0424964 0.0424964 0.0424964
0.056672 0.056672 0.056672
0.166659 0.166659 0.166659
0.180819 0.180819 0.180819
0.194995 0.194995 0.194995
0.209155 0.209155 0.209155
0.223331 0.223331 0.223331
0.333333 0.333333 0.333333
0.347494 0.347494 0.347494
0.361654 0.361654 0.361654
0.37583 0.37583 0.37583
0.38999 0.38999 0.38999
0.499992 0.499992 0.499992
0.514168 0.514168 0.514168
0.528328 0.528328 0.528328
0.542504 0.542504 0.542504
0.556664 0.556664 0.556664
0.666667 0.666667 0.666667
0.680827 0.680827 0.680827
0.695003 0.695003 0.695003
0.709163 0.709163 0.709163
0.723339 0.723339 0.723339
0.0691691 0.0691691 0.0691691
0.0833295 0.0833295 0.0833295
0.0974899 0.0974899 0.0974899
0.111666 0.111666 0.111666
0.125826 0.125826 0.125826
0.235828 0.235828 0.235828
0.249989 0.249989 0.249989
0.264149 0.264149 0.264149
0.278325 0.278325 0.278325
0.292485 0.292485 0.292485
0.402487 0.402487 0.402487
0.416663 0.416663 0.416663
0.430823 0.430823 0.430823
0.444999 0.444999 0.444999
0.459159 0.459159 0.459159
0.569162 0.569162 0.569162
0.583322 0.583322 0.583322
0.597498 0.597498 0.597498
0.611658 0.611658 0.611658
0.625834 0.625834 0.625834
0.735836 0.735836 0.735836
0.749996 0.749996 0.749996
0.764157 0.764157 0.764157
0.778332 0.778332 0.778332
0.792493 0.792493 0.792493
0.138338 0.138338 0.138338
0.152499 0.152499 0.152499
0.166659 0.166659 0.166659
0.180835 0.180835 0.180835
0.194995 0.194995 0.194995
0.304997 0.304997 0.304997
0.319158 0.319158 0.319158
0.333318 0.333318 0.333318
0.347494 0.347494 0.347494
0.361654 0.361654 0.361654
0.471656 0.471656 0.471656
0.485832 0.485832 0.485832
0.499992 0.499992 0.499992
0.514153 0.514153 0.514153
0.528328 0.528328 0.528328
0.638331 0.638331 0.638331
0.652491 0.652491 0.652491
0.666667 0.666667 0.666667
0.680827 0.680827 0.680827
0.695003 0.695003 0.695003
0.805005 0.805005 0.805005
0.819165 0.819165 0.819165
0.833326 0.833326 0.833326
0.847501 0.847501 0.847501
0.861662 0.861662 0.861662
0.207492 0.207492 0.207492
0.221668 0.221668 0.221668
0.235828 0.235828 0.235828
0.250004 0.250004 0.250004
0.264164 0.264164 0.264164
0.374151 0.374151 0.374151
0.388327 0.388327 0.388327
0.402487 0.402487 0.402487
0.416663 0.416663 0.416663
0.430823 0.430823 0.430823
0.540825 0.540825 0.540825
0.554986 0.554986 0.554986
0.569162 0.569162 0.569162
0.583322 0.583322 0.583322
0.597498 0.597498 0.597498
0.7075 0.7075 0.7075
0.72166 0.72166 0.72166
0.735836 0.735836 0.735836
0.749996 0.749996 0.749996
0.764157 0.764157 0.764157
0.874159 0.874159 0.874159
0.888334 0.888334 0.888334
0.902495 0.902495 0.902495
0.916671 0.916671 0.916671
0.930831 0.930831 0.930831
0.276661 0.276661 0.276661
0.290837 0.290837 0.290837
0.304997 0.304997 0.304997
0.319173 0.319173 0.319173
0.333333 0.333333 0.333333
0.44332 0.44332 0.44332
0.457496 0.457496 0.457496
0.471656 0.471656 0.471656
0.485832 0.485832 0.485832
0.499992 0.499992 0.499992
0.609995 0.609995 0.609995
0.624155 0.624155 0.624155
0.638331 0.638331 0.638331
0.652491 0.652491 0.652491
0.666667 0.666667 0.666667
0.776669 0.776669 0.776669
0.790829 0.790829 0.790829
0.80499 0.80499 0.80499
0.819165 0.819165 0.819165
0.833326 0.833326 0.833326
0.943328 0.943328 0.943328
0.957504 0.957504 0.957504
0.971664 0.971664 0.971664
0.98584 0.98584 0.98584
1 1 1
