luts/1771694525668-PopOff07.cube
TITLE "Generated by Resolve"
LUT_3D_SIZE 33
0 0 0
0.00177005 0.00177005 0.00177005
0.00354009 0.00354009 0.00354009
0.00531014 0.00531014 0.00531014
0.00708019 0.00708019 0.00708019
0.00885023 0.00885023 0.00885023
0.0106203 0.0106203 0.0106203
0.0123903 0.0123903 0.0123903
0.0141604 0.0141604 0.0141604
0.0159304 0.0159304 0.0159304
0.0177005 0.0177005 0.0177005
0.0194858 0.0194858 0.0194858
0.0212558 0.0212558 0.0212558
0.0230259 0.0230259 0.0230259
0.0247959 0.0247959 0.0247959
0.026566 0.026566 0.026566
0.028336 0.028336 0.028336
0.0301061 0.0301061 0.0301061
0.0318761 0.0318761 0.0318761
0.0336461 0.0336461 0.0336461
0.0354162 0.0354162 0.0354162
0.0371862 0.0371862 0.0371862
0.0389563 0.0389563 0.0389563
0.0407263 0.0407263 0.0407263
0.0424964 0.0424964 0.0424964
0.0442664 0.0442664 0.0442664
0.0460365 0.0460365 0.0460365
0.0478065 0.0478065 0.0478065
0.0495766 0.0495766 0.0495766
0.0513466 0.0513466 0.0513466
0.0531319 0.0531319 0.0531319
0.054902 0.054902 0.054902
0.056672 0.056672 0.056672
0.0208286 0.0208286 0.0208286
0.0225986 0.0225986 0.0225986
0.0243687 0.0243687 0.0243687
0.0261387 0.0261387 0.0261387
0.0279088 0.0279088 0.0279088
0.0296788 0.0296788 0.0296788
0.0314488 0.0314488 0.0314488
0.0332189 0.0332189 0.0332189
0.0349889 0.0349889 0.0349889
0.036759 0.036759 0.036759
0.038529 0.038529 0.038529
0.0402991 0.0402991 0.0402991
0.0420691 0.0420691 0.0420691
0.0438392 0.0438392 0.0438392
0.0456092 0.0456092 0.0456092
0.0473793 0.0473793 0.0473793
0.0491493 0.0491493 0.0491493
0.0509346 0.0509346 0.0509346
0.0527047 0.0527047 0.0527047
0.0544747 0.0544747 0.0544747
0.0562448 0.0562448 0.0562448
0.0580148 0.0580148 0.0580148
0.0597848 0.0597848 0.0597848
0.0615549 0.0615549 0.0615549
0.0633249 0.0633249 0.0633249
0.065095 0.065095 0.065095
0.066865 0.066865 0.066865
0.0686351 0.0686351 0.0686351
0.0704051 0.0704051 0.0704051
0.0721752 0.0721752 0.0721752
0.0739452 0.0739452 0.0739452
0.0757153 0.0757153 0.0757153
0.0774853 0.0774853 0.0774853
0.0416571 0.0416571 0.0416571
0.0434272 0.0434272 0.0434272
0.0451972 0.0451972 0.0451972
0.0469673 0.0469673 0.0469673
0.0487373 0.0487373 0.0487373
0.0505074 0.0505074 0.0505074
0.0522774 0.0522774 0.0522774
0.0540475 0.0540475 0.0540475
0.0558175 0.0558175 0.0558175
0.0575875 0.0575875 0.0575875
0.0593576 0.0593576 0.0593576
0.0611429 0.0611429 0.0611429
0.0629129 0.0629129 0.0629129
0.064683 0.064683 0.064683
0.066453 0.066453 0.066453
0.0682231 0.0682231 0.0682231
0.0699931 0.0699931 0.0699931
0.0717632 0.0717632 0.0717632
0.0735332 0.0735332 0.0735332
0.0753033 0.0753033 0.0753033
0.0770733 0.0770733 0.0770733
0.0788434 0.0788434 0.0788434
0.0806134 0.0806134 0.0806134
0.0823835 0.0823835 0.0823835
0.0841535 0.0841535 0.0841535
0.0859236 0.0859236 0.0859236
0.0876936 0.0876936 0.0876936
0.0894636 0.0894636 0.0894636
0.0912337 0.0912337 0.0912337
0.0930037 0.0930037 0.0930037
0.094789 0.094789 0.094789
0.0965591 0.0965591 0.0965591
0.0983291 0.0983291 0.0983291
0.0624857 0.0624857 0.0624857
0.0642557 0.0642557 0.0642557
0.0660258 0.0660258 0.0660258
0.0677958 0.0677958 0.0677958
0.0695659 0.0695659 0.0695659
0.0713512 0.0713512 0.0713512
0.0731212 0.0731212 0.0731212
0.0748913 0.0748913 0.0748913
0.0766613 0.0766613 0.0766613
0.0784314 0.0784314 0.0784314
0.0802014 0.0802014 0.0802014
0.0819715 0.0819715 0.0819715
0.0837415 0.0837415 0.0837415
0.0855116 0.0855116 0.0855116
0.0872816 0.0872816 0.0872816
0.0890516 0.0890516 0.0890516
0.0908217 0.0908217 0.0908217
0.0925917 0.0925917 0.0925917
0.0943618 0.0943618 0.0943618
0.0961318 0.0961318 0.0961318
0.0979019 0.0979019 0.0979019
0.0996719 0.0996719 0.0996719
0.101442 0.101442 0.101442
0.103227 0.103227 0.103227
0.104997 0.104997 0.104997
0.106767 0.106767 0.106767
0.108537 0.108537 0.108537
0.110307 0.110307 0.110307
0.112078 0.112078 0.112078
0.113848 0.113848 0.113848
0.115618 0.115618 0.115618
0.117388 0.117388 0.117388
0.119158 0.119158 0.119158
0.0833295 0.0833295 0.0833295
0.0850996 0.0850996 0.0850996
0.0868696 0.0868696 0.0868696
0.0886397 0.0886397 0.0886397
0.0904097 0.0904097 0.0904097
0.0921798 0.0921798 0.0921798
0.0939498 0.0939498 0.0939498
0.0957198 0.0957198 0.0957198
0.0974899 0.0974899 0.0974899
0.0992599 0.0992599 0.0992599
0.10103 0.10103 0.10103
0.1028 0.1028 0.1028
0.10457 0.10457 0.10457
0.10634 0.10634 0.10634
0.10811 0.10811 0.10811
0.10988 0.10988 0.10988
0.11165 0.11165 0.11165
0.113436 0.113436 0.113436
0.115206 0.115206 0.115206
0.116976 0.116976 0.116976
0.118746 0.118746 0.118746
0.120516 0.120516 0.120516
0.122286 0.122286 0.122286
0.124056 0.124056 0.124056
0.125826 0.125826 0.125826
0.127596 0.127596 0.127596
0.129366 0.129366 0.129366
0.131136 0.131136 0.131136
0.132906 0.132906 0.132906
0.134676 0.134676 0.134676
0.136446 0.136446 0.136446
0.138216 0.138216 0.138216
0.139986 0.139986 0.139986
0.104158 0.104158 0.104158
0.105928 0.105928 0.105928
0.107698 0.107698 0.107698
0.109468 0.109468 0.109468
0.111238 0.111238 0.111238
0.113008 0.113008 0.113008
0.114778 0.114778 0.114778
0.116548 0.116548 0.116548
0.118318 0.118318 0.118318
0.120089 0.120089 0.120089
0.121859 0.121859 0.121859
0.123644 0.123644 0.123644
0.125414 0.125414 0.125414
0.127184 0.127184 0.127184
0.128954 0.128954 0.128954
0.130724 0.130724 0.130724
0.132494 0.132494 0.132494
0.134264 0.134264 0.134264
0.136034 0.136034 0.136034
0.137804 0.137804 0.137804
0.139574 0.139574 0.139574
0.141344 0.141344 0.141344
0.143114 0.143114 0.143114
0.144884 0.144884 0.144884
0.146654 0.146654 0.146654
0.148425 0.148425 0.148425
0.150195 0.150195 0.150195
0.151965 0.151965 0.151965
0.153735 0.153735 0.153735
0.155505 0.155505 0.155505
0.15729 0.15729 0.15729
0.15906 0.15906 0.15906
0.16083 0.16083 0.16083
0.124987 0.124987 0.124987
0.126757 0.126757 0.126757
0.128527 0.128527 0.128527
0.130297 0.130297 0.130297
0.132067 0.132067 0.132067
0.133852 0.133852 0.133852
0.135622 0.135622 0.135622
0.137392 0.137392 0.137392
0.139162 0.139162 0.139162
0.140932 0.140932 0.140932
0.142702 0.142702 0.142702
0.144472 0.144472 0.144472
0.146242 0.146242 0.146242
0.148013 0.148013 0.148013
0.149783 0.149783 0.149783
0.151553 0.151553 0.151553
0.153323 0.153323 0.153323
0.155093 0.155093 0.155093
0.156863 0.156863 0.156863
0.158633 0.158633 0.158633
0.160403 0.160403 0.160403
0.162173 0.162173 0.162173
0.163943 0.163943 0.163943
0.165728 0.165728 0.165728
0.167498 0.167498 0.167498
0.169268 0.169268 0.169268
0.171038 0.171038 0.171038
0.172808 0.172808 0.172808
0.174578 0.174578 0.174578
0.176349 0.176349 0.176349
0.178119 0.178119 0.178119
0.179889 0.179889 0.179889
0.181659 0.181659 0.181659
0.14583 0.14583 0.14583
0.147601 0.147601 0.147601
0.149371 0.149371 0.149371
0.151141 0.151141 0.151141
0.152911 0.152911 0.152911
0.154681 0.154681 0.154681
0.156451 0.156451 0.156451
0.158221 0.158221 0.158221
0.159991 0.159991 0.159991
0.161761 0.161761 0.161761
0.163531 0.163531 0.163531
0.165301 0.165301 0.165301
0.167071 0.167071 0.167071
0.168841 0.168841 0.168841
0.170611 0.170611 0.170611
0.172381 0.172381 0.172381
0.174151 0.174151 0.174151
0.175937 0.175937 0.175937
0.177707 0.177707 0.177707
0.179477 0.179477 0.179477
0.181247 0.181247 0.181247
0.183017 0.183017 0.183017
0.184787 0.184787 0.184787
0.186557 0.186557 0.186557
0.188327 0.188327 0.188327
0.190097 0.190097 0.190097
0.191867 0.191867 0.191867
0.193637 0.193637 0.193637
0.195407 0.195407 0.195407
0.197177 0.197177 0.197177
0.198947 0.198947 0.198947
0.200717 0.200717 0.200717
0.202487 0.202487 0.202487
0.166659 0.166659 0.166659
0.168429 0.168429 0.168429
0.170199 0.170199 0.170199
0.171969 0.171969 0.171969
0.173739 0.173739 0.173739
0.175509 0.175509 0.175509
0.177279 0.177279 0.177279
0.179049 0.179049 0.179049
0.180819 0.180819 0.180819
0.182589 0.182589 0.182589
0.18436 0.18436 0.18436
0.186145 0.186145 0.186145
0.187915 0.187915 0.187915
0.189685 0.189685 0.189685
0.191455 0.191455 0.191455
0.193225 0.193225 0.193225
0.194995 0.194995 0.194995
0.196765 0.196765 0.196765
0.198535 0.198535 0.198535
0.200305 0.200305 0.200305
0.202075 0.202075 0.202075
0.203845 0.203845 0.203845
0.205615 0.205615 0.205615
0.207385 0.207385 0.207385
0.209155 0.209155 0.209155
0.210925 0.210925 0.210925
0.212696 0.212696 0.212696
0.214466 0.214466 0.214466
0.216236 0.216236 0.216236
0.218006 0.218006 0.218006
0.219791 0.219791 0.219791
0.221561 0.221561 0.221561
0.223331 0.223331 0.223331
0.187488 0.187488 0.187488
0.189258 0.189258 0.189258
0.191028 0.191028 0.191028
0.192798 0.192798 0.192798
0.194568 0.194568 0.194568
0.196353 0.196353 0.196353
0.198123 0.198123 0.198123
0.199893 0.199893 0.199893
0.201663 0.201663 0.201663
0.203433 0.203433 0.203433
0.205203 0.205203 0.205203
0.206973 0.206973 0.206973
0.208743 0.208743 0.208743
0.210513 0.210513 0.210513
0.212284 0.212284 0.212284
0.214054 0.214054 0.214054
0.215824 0.215824 0.215824
0.217594 0.217594 0.217594
0.219364 0.219364 0.219364
0.221134 0.221134 0.221134
0.222904 0.222904 0.222904
0.224674 0.224674 0.224674
0.226444 0.226444 0.226444
0.228229 0.228229 0.228229
0.229999 0.229999 0.229999
0.231769 0.231769 0.231769
0.233539 0.233539 0.233539
0.235309 0.235309 0.235309
0.237079 0.237079 0.237079
0.238849 0.238849 0.238849
0.24062 0.24062 0.24062
0.24239 0.24239 0.24239
0.24416 0.24416 0.24416
0.208331 0.208331 0.208331
0.210101 0.210101 0.210101
0.211872 0.211872 0.211872
0.213642 0.213642 0.213642
0.215412 0.215412 0.215412
0.217182 0.217182 0.217182
0.218952 0.218952 0.218952
0.220722 0.220722 0.220722
0.222492 0.222492 0.222492
0.224262 0.224262 0.224262
0.226032 0.226032 0.226032
0.227802 0.227802 0.227802
0.229572 0.229572 0.229572
0.231342 0.231342 0.231342
0.233112 0.233112 0.233112
0.234882 0.234882 0.234882
0.236652 0.236652 0.236652
0.238437 0.238437 0.238437
0.240208 0.240208 0.240208
0.241978 0.241978 0.241978
0.243748 0.243748 0.243748
0.245518 0.245518 0.245518
0.247288 0.247288 0.247288
0.249058 0.249058 0.249058
0.250828 0.250828 0.250828
0.252598 0.252598 0.252598
0.254368 0.254368 0.254368
0.256138 0.256138 0.256138
0.257908 0.257908 0.257908
0.259678 0.259678 0.259678
0.261448 0.261448 0.261448
0.263218 0.263218 0.263218
0.264988 0.264988 0.264988
0.22916 0.22916 0.22916
0.23093 0.23093 0.23093
0.2327 0.2327 0.2327
0.23447 0.23447 0.23447
0.23624 0.23624 0.23624
0.23801 0.23801 0.23801
0.23978 0.23978 0.23978
0.24155 0.24155 0.24155
0.24332 0.24332 0.24332
0.24509 0.24509 0.24509
0.24686 0.24686 0.24686
0.248646 0.248646 0.248646
0.250416 0.250416 0.250416
0.252186 0.252186 0.252186
0.253956 0.253956 0.253956
0.255726 0.255726 0.255726
0.257496 0.257496 0.257496
0.259266 0.259266 0.259266
0.261036 0.261036 0.261036
0.262806 0.262806 0.262806
0.264576 0.264576 0.264576
0.266346 0.266346 0.266346
0.268116 0.268116 0.268116
0.269886 0.269886 0.269886
0.271656 0.271656 0.271656
0.273426 0.273426 0.273426
0.275196 0.275196 0.275196
0.276967 0.276967 0.276967
0.278737 0.278737 0.278737
0.280507 0.280507 0.280507
0.282292 0.282292 0.282292
0.284062 0.284062 0.284062
0.285832 0.285832 0.285832
0.249989 0.249989 0.249989
0.251759 0.251759 0.251759
0.253529 0.253529 0.253529
0.255299 0.255299 0.255299
0.257069 0.257069 0.257069
0.258854 0.258854 0.258854
0.260624 0.260624 0.260624
0.262394 0.262394 0.262394
0.264164 0.264164 0.264164
0.265934 0.265934 0.265934
0.267704 0.267704 0.267704
0.269474 0.269474 0.269474
0.271244 0.271244 0.271244
0.273014 0.273014 0.273014
0.274784 0.274784 0.274784
0.276555 0.276555 0.276555
0.278325 0.278325 0.278325
0.280095 0.280095 0.280095
0.281865 0.281865 0.281865
0.283635 0.283635 0.283635
0.285405 0.285405 0.285405
0.287175 0.287175 0.287175
0.288945 0.288945 0.288945
0.29073 0.29073 0.29073
0.2925 0.2925 0.2925
0.29427 0.29427 0.29427
0.29604 0.29604 0.29604
0.29781 0.29781 0.29781
0.29958 0.29958 0.29958
0.30135 0.30135 0.30135
0.30312 0.30312 0.30312
0.304891 0.304891 0.304891
0.306661 0.306661 0.306661
0.270832 0.270832 0.270832
0.272602 0.272602 0.272602
0.274372 0.274372 0.274372
0.276143 0.276143 0.276143
0.277913 0.277913 0.277913
0.279683 0.279683 0.279683
0.281453 0.281453 0.281453
0.283223 0.283223 0.283223
0.284993 0.284993 0.284993
0.286763 0.286763 0.286763
0.288533 0.288533 0.288533
0.290303 0.290303 0.290303
0.292073 0.292073 0.292073
0.293843 0.293843 0.293843
0.295613 0.295613 0.295613
0.297383 0.297383 0.297383
0.299153 0.299153 0.299153
0.300938 0.300938 0.300938
0.302708 0.302708 0.302708
0.304479 0.304479 0.304479
0.306249 0.306249 0.306249
0.308019 0.308019 0.308019
0.309789 0.309789 0.309789
0.311559 0.311559 0.311559
0.313329 0.313329 0.313329
0.315099 0.315099 0.315099
0.316869 0.316869 0.316869
0.318639 0.318639 0.318639
0.320409 0.320409 0.320409
0.322179 0.322179 0.322179
0.323949 0.323949 0.323949
0.325719 0.325719 0.325719
0.327489 0.327489 0.327489
0.291661 0.291661 0.291661
0.293431 0.293431 0.293431
0.295201 0.295201 0.295201
0.296971 0.296971 0.296971
0.298741 0.298741 0.298741
0.300511 0.300511 0.300511
0.302281 0.302281 0.302281
0.304051 0.304051 0.304051
0.305821 0.305821 0.305821
0.307591 0.307591 0.307591
0.309361 0.309361 0.309361
0.311147 0.311147 0.311147
0.312917 0.312917 0.312917
0.314687 0.314687 0.314687
0.316457 0.316457 0.316457
0.318227 0.318227 0.318227
0.319997 0.319997 0.319997
0.321767 0.321767 0.321767
0.323537 0.323537 0.323537
0.325307 0.325307 0.325307
0.327077 0.327077 0.327077
0.328847 0.328847 0.328847
0.330617 0.330617 0.330617
0.332387 0.332387 0.332387
0.334157 0.334157 0.334157
0.335927 0.335927 0.335927
0.337697 0.337697 0.337697
0.339467 0.339467 0.339467
0.341238 0.341238 0.341238
0.343008 0.343008 0.343008
0.344793 0.344793 0.344793
0.346563 0.346563 0.346563
0.348333 0.348333 0.348333
0.31249 0.31249 0.31249
0.31426 0.31426 0.31426
0.31603 0.31603 0.31603
0.3178 0.3178 0.3178
0.31957 0.31957 0.31957
0.321355 0.321355 0.321355
0.323125 0.323125 0.323125
0.324895 0.324895 0.324895
0.326665 0.326665 0.326665
0.328435 0.328435 0.328435
0.330205 0.330205 0.330205
0.331975 0.331975 0.331975
0.333745 0.333745 0.333745
0.335515 0.335515 0.335515
0.337285 0.337285 0.337285
0.339055 0.339055 0.339055
0.340825 0.340825 0.340825
0.342596 0.342596 0.342596
0.344366 0.344366 0.344366
0.346136 0.346136 0.346136
0.347906 0.347906 0.347906
0.349676 0.349676 0.349676
0.351446 0.351446 0.351446
0.353231 0.353231 0.353231
0.355001 0.355001 0.355001
0.356771 0.356771 0.356771
0.358541 0.358541 0.358541
0.360311 0.360311 0.360311
0.362081 0.362081 0.362081
0.363851 0.363851 0.363851
0.365621 0.365621 0.365621
0.367391 0.367391 0.367391
0.369162 0.369162 0.369162
0.333333 0.333333 0.333333
0.335103 0.335103 0.335103
0.336873 0.336873 0.336873
0.338643 0.338643 0.338643
0.340414 0.340414 0.340414
0.342184 0.342184 0.342184
0.343954 0.343954 0.343954
0.345724 0.345724 0.345724
0.347494 0.347494 0.347494
0.349264 0.349264 0.349264
0.351034 0.351034 0.351034
0.352804 0.352804 0.352804
0.354574 0.354574 0.354574
0.356344 0.356344 0.356344
0.358114 0.358114 0.358114
0.359884 0.359884 0.359884
0.361654 0.361654 0.361654
0.363439 0.363439 0.363439
0.365209 0.365209 0.365209
0.366979 0.366979 0.366979
0.36875 0.36875 0.36875
0.37052 0.37052 0.37052
0.37229 0.37229 0.37229
0.37406 0.37406 0.37406
0.37583 0.37583 0.37583
0.3776 0.3776 0.3776
0.37937 0.37937 0.37937
0.38114 0.38114 0.38114
0.38291 0.38291 0.38291
0.38468 0.38468 0.38468
0.38645 0.38645 0.38645
0.38822 0.38822 0.38822
0.38999 0.38999 0.38999
0.354162 0.354162 0.354162
0.355932 0.355932 0.355932
0.357702 0.357702 0.357702
0.359472 0.359472 0.359472
0.361242 0.361242 0.361242
0.363012 0.363012 0.363012
0.364782 0.364782 0.364782
0.366552 0.366552 0.366552
0.368322 0.368322 0.368322
0.370092 0.370092 0.370092
0.371862 0.371862 0.371862
0.373648 0.373648 0.373648
0.375418 0.375418 0.375418
0.377188 0.377188 0.377188
0.378958 0.378958 0.378958
0.380728 0.380728 0.380728
0.382498 0.382498 0.382498
0.384268 0.384268 0.384268
0.386038 0.386038 0.386038
0.387808 0.387808 0.387808
0.389578 0.389578 0.389578
0.391348 0.391348 0.391348
0.393118 0.393118 0.393118
0.394888 0.394888 0.394888
0.396658 0.396658 0.396658
0.398428 0.398428 0.398428
0.400198 0.400198 0.400198
0.401968 0.401968 0.401968
0.403738 0.403738 0.403738
0.405509 0.405509 0.405509
0.407294 0.407294 0.407294
0.409064 0.409064 0.409064
0.410834 0.410834 0.410834
0.37499 0.37499 0.37499
0.376761 0.376761 0.376761
0.378531 0.378531 0.378531
0.380301 0.380301 0.380301
0.382071 0.382071 0.382071
0.383856 0.383856 0.383856
0.385626 0.385626 0.385626
0.387396 0.387396 0.387396
0.389166 0.389166 0.389166
0.390936 0.390936 0.390936
0.392706 0.392706 0.392706
0.394476 0.394476 0.394476
0.396246 0.396246 0.396246
0.398016 0.398016 0.398016
0.399786 0.399786 0.399786
0.401556 0.401556 0.401556
0.403326 0.403326 0.403326
0.405097 0.405097 0.405097
0.406867 0.406867 0.406867
0.408637 0.408637 0.408637
0.410407 0.410407 0.410407
0.412177 0.412177 0.412177
0.413947 0.413947 0.413947
0.415732 0.415732 0.415732
0.417502 0.417502 0.417502
0.419272 0.419272 0.419272
0.421042 0.421042 0.421042
0.422812 0.422812 0.422812
0.424582 0.424582 0.424582
0.426352 0.426352 0.426352
0.428122 0.428122 0.428122
0.429892 0.429892 0.429892
0.431662 0.431662 0.431662
0.395834 0.395834 0.395834
0.397604 0.397604 0.397604
0.399374 0.399374 0.399374
0.401144 0.401144 0.401144
0.402914 0.402914 0.402914
0.404685 0.404685 0.404685
0.406455 0.406455 0.406455
0.408225 0.408225 0.408225
0.409995 0.409995 0.409995
0.411765 0.411765 0.411765
0.413535 0.413535 0.413535
0.415305 0.415305 0.415305
0.417075 0.417075 0.417075
0.418845 0.418845 0.418845
0.420615 0.420615 0.420615
0.422385 0.422385 0.422385
0.424155 0.424155 0.424155
0.42594 0.42594 0.42594
0.42771 0.42771 0.42771
0.42948 0.42948 0.42948
0.43125 0.43125 0.43125
0.433021 0.433021 0.433021
0.434791 0.434791 0.434791
0.436561 0.436561 0.436561
0.438331 0.438331 0.438331
0.440101 0.440101 0.440101
0.441871 0.441871 0.441871
0.443641 0.443641 0.443641
0.445411 0.445411 0.445411
0.447181 0.447181 0.447181
0.448951 0.448951 0.448951
0.450721 0.450721 0.450721
0.452491 0.452491 0.452491
0.416663 0.416663 0.416663
0.418433 0.418433 0.418433
0.420203 0.420203 0.420203
0.421973 0.421973 0.421973
0.423743 0.423743 0.423743
0.425513 0.425513 0.425513
0.427283 0.427283 0.427283
0.429053 0.429053 0.429053
0.430823 0.430823 0.430823
0.432593 0.432593 0.432593
0.434363 0.434363 0.434363
0.436149 0.436149 0.436149
0.437919 0.437919 0.437919
0.439689 0.439689 0.439689
0.441459 0.441459 0.441459
0.443229 0.443229 0.443229
0.444999 0.444999 0.444999
0.446769 0.446769 0.446769
0.448539 0.448539 0.448539
0.450309 0.450309 0.450309
0.452079 0.452079 0.452079
0.453849 0.453849 0.453849
0.455619 0.455619 0.455619
0.457389 0.457389 0.457389
0.459159 0.459159 0.459159
0.460929 0.460929 0.460929
0.462699 0.462699 0.462699
0.464469 0.464469 0.464469
0.466239 0.466239 0.466239
0.468009 0.468009 0.468009
0.469795 0.469795 0.469795
0.471565 0.471565 0.471565
0.473335 0.473335 0.473335
0.437491 0.437491 0.437491
0.439261 0.439261 0.439261
0.441032 0.441032 0.441032
0.442802 0.442802 0.442802
0.444572 0.444572 0.444572
0.446357 0.446357 0.446357
0.448127 0.448127 0.448127
0.449897 0.449897 0.449897
0.451667 0.451667 0.451667
0.453437 0.453437 0.453437
0.455207 0.455207 0.455207
0.456977 0.456977 0.456977
0.458747 0.458747 0.458747
0.460517 0.460517 0.460517
0.462287 0.462287 0.462287
0.464057 0.464057 0.464057
0.465827 0.465827 0.465827
0.467597 0.467597 0.467597
0.469368 0.469368 0.469368
0.471138 0.471138 0.471138
0.472908 0.472908 0.472908
0.474678 0.474678 0.474678
0.476448 0.476448 0.476448
0.478233 0.478233 0.478233
0.480003 0.480003 0.480003
0.481773 0.481773 0.481773
0.483543 0.483543 0.483543
0.485313 0.485313 0.485313
0.487083 0.487083 0.487083
0.488853 0.488853 0.488853
0.490623 0.490623 0.490623
0.492393 0.492393 0.492393
0.494163 0.494163 0.494163
0.458335 0.458335 0.458335
0.460105 0.460105 0.460105
0.461875 0.461875 0.461875
0.463645 0.463645 0.463645
0.465415 0.465415 0.465415
0.467185 0.467185 0.467185
0.468956 0.468956 0.468956
0.470726 0.470726 0.470726
0.472496 0.472496 0.472496
0.474266 0.474266 0.474266
0.476036 0.476036 0.476036
0.477806 0.477806 0.477806
0.479576 0.479576 0.479576
0.481346 0.481346 0.481346
0.483116 0.483116 0.483116
0.484886 0.484886 0.484886
0.486656 0.486656 0.486656
0.488441 0.488441 0.488441
0.490211 0.490211 0.490211
0.491981 0.491981 0.491981
0.493751 0.493751 0.493751
0.495521 0.495521 0.495521
0.497292 0.497292 0.497292
0.499062 0.499062 0.499062
0.500832 0.500832 0.500832
0.502602 0.502602 0.502602
0.504372 0.504372 0.504372
0.506142 0.506142 0.506142
0.507912 0.507912 0.507912
0.509682 0.509682 0.509682
0.511452 0.511452 0.511452
0.513222 0.513222 0.513222
0.514992 0.514992 0.514992
0.479164 0.479164 0.479164
0.480934 0.480934 0.480934
0.482704 0.482704 0.482704
0.484474 0.484474 0.484474
0.486244 0.486244 0.486244
0.488014 0.488014 0.488014
0.489784 0.489784 0.489784
0.491554 0.491554 0.491554
0.493324 0.493324 0.493324
0.495094 0.495094 0.495094
0.496864 0.496864 0.496864
0.49865 0.49865 0.49865
0.50042 0.50042 0.50042
0.50219 0.50219 0.50219
0.50396 0.50396 0.50396
0.50573 0.50573 0.50573
0.5075 0.5075 0.5075
0.50927 0.50927 0.50927
0.51104 0.51104 0.51104
0.51281 0.51281 0.51281
0.51458 0.51458 0.51458
0.51635 0.51635 0.51635
0.51812 0.51812 0.51812
0.51989 0.51989 0.51989
0.52166 0.52166 0.52166
0.52343 0.52343 0.52343
0.5252 0.5252 0.5252
0.52697 0.52697 0.52697
0.52874 0.52874 0.52874
0.53051 0.53051 0.53051
0.532296 0.532296 0.532296
0.534066 0.534066 0.534066
0.535836 0.535836 0.535836
0.499992 0.499992 0.499992
0.501762 0.501762 0.501762
0.503532 0.503532 0.503532
0.505302 0.505302 0.505302
0.507073 0.507073 0.507073
0.508858 0.508858 0.508858
0.510628 0.510628 0.510628
0.512398 0.512398 0.512398
0.514168 0.514168 0.514168
0.515938 0.515938 0.515938
0.517708 0.517708 0.517708
0.519478 0.519478 0.519478
0.521248 0.521248 0.521248
0.523018 0.523018 0.523018
0.524788 0.524788 0.524788
0.526558 0.526558 0.526558
0.528328 0.528328 0.528328
0.530098 0.530098 0.530098
0.531868 0.531868 0.531868
0.533639 0.533639 0.533639
0.535409 0.535409 0.535409
0.537179 0.537179 0.537179
0.538949 0.538949 0.538949
0.540734 0.540734 0.540734
0.542504 0.542504 0.542504
0.544274 0.544274 0.544274
0.546044 0.546044 0.546044
0.547814 0.547814 0.547814
0.549584 0.549584 0.549584
0.551354 0.551354 0.551354
0.553124 0.553124 0.553124
0.554894 0.554894 0.554894
0.556664 0.556664 0.556664
0.520836 0.520836 0.520836
0.522606 0.522606 0.522606
0.524376 0.524376 0.524376
0.526146 0.526146 0.526146
0.527916 0.527916 0.527916
0.529686 0.529686 0.529686
0.531456 0.531456 0.531456
0.533227 0.533227 0.533227
0.534997 0.534997 0.534997
0.536767 0.536767 0.536767
0.538537 0.538537 0.538537
0.540307 0.540307 0.540307
0.542077 0.542077 0.542077
0.543847 0.543847 0.543847
0.545617 0.545617 0.545617
0.547387 0.547387 0.547387
0.549157 0.549157 0.549157
0.550942 0.550942 0.550942
0.552712 0.552712 0.552712
0.554482 0.554482 0.554482
0.556252 0.556252 0.556252
0.558022 0.558022 0.558022
0.559792 0.559792 0.559792
0.561563 0.561563 0.561563
0.563333 0.563333 0.563333
0.565103 0.565103 0.565103
0.566873 0.566873 0.566873
0.568643 0.568643 0.568643
0.570413 0.570413 0.570413
0.572183 0.572183 0.572183
0.573953 0.573953 0.573953
0.575723 0.575723 0.575723
0.577493 0.577493 0.577493
0.541665 0.541665 0.541665
0.543435 0.543435 0.543435
0.545205 0.545205 0.545205
0.546975 0.546975 0.546975
0.548745 0.548745 0.548745
0.550515 0.550515 0.550515
0.552285 0.552285 0.552285
0.554055 0.554055 0.554055
0.555825 0.555825 0.555825
0.557595 0.557595 0.557595
0.559365 0.559365 0.559365
0.561151 0.561151 0.561151
0.562921 0.562921 0.562921
0.564691 0.564691 0.564691
0.566461 0.566461 0.566461
0.568231 0.568231 0.568231
0.570001 0.570001 0.570001
0.571771 0.571771 0.571771
0.573541 0.573541 0.573541
0.575311 0.575311 0.575311
0.577081 0.577081 0.577081
0.578851 0.578851 0.578851
0.580621 0.580621 0.580621
0.582391 0.582391 0.582391
0.584161 0.584161 0.584161
