luts/1771694514910-Gessy01.cube
TITLE "Generated by Resolve"
LUT_3D_SIZE 5
0 0.00891127 0.0713207
0.22443 0 0.0534066
0.622553 0 0.0336309
0.894362 0 0.0526436
1 0.0210422 0.0815442
0 0.040528 0.246647
0.141131 0.255131 0.0648814
0.608026 0.254353 0.0647746
0.90016 0.278218 0.0857099
1 0.310307 0.113695
0 0.0676585 0.483421
0 0.315343 0.239322
0.544823 0.562448 0.0620127
0.84622 0.570428 0.0704967
1 0.586252 0.0859083
0 0.0946212 0.688258
0 0.349859 0.46006
0.41323 0.603601 0.219455
0.792737 0.795605 0.057969
1 0.793317 0.0567178
0 0.116121 0.830518
0 0.364248 0.653376
0.194659 0.622553 0.423911
0.676387 0.804822 0.176211
0.953964 0.946181 0.0287938
0 0.0121767 0.118837
0.117586 0 0.271473
0.570901 0 0.250797
0.858076 0 0.268788
1 0.0193942 0.298741
0 0.206531 0.24094
0.0674754 0.259342 0.286397
0.570932 0.257221 0.284566
0.874662 0.277943 0.302708
1 0.308965 0.33019
0 0.272465 0.474174
0 0.312581 0.531945
0.503578 0.564401 0.276066
0.817472 0.567956 0.278737
1 0.582269 0.290654
0 0.308125 0.672068
0 0.34667 0.724895
0.357717 0.600366 0.508537
0.758694 0.791455 0.251408
0.986114 0.787564 0.244114
0 0.329442 0.808682
0 0.363592 0.85803
0.110063 0.61941 0.704097
0.628367 0.795117 0.44799
0.923171 0.939895 0.194354
0 0.0140993 0.186969
0.0828412 0 0.364874
0.512535 0 0.541436
0.8177 0 0.560006
1 0.014313 0.594141
0 0.213184 0.315435
0.0785229 0.26627 0.374487
0.511482 0.256916 0.583139
0.832654 0.272602 0.599374
1 0.302541 0.630167
0 0.478065 0.489555
0 0.538766 0.549767
0.457099 0.562661 0.573236
0.783123 0.561166 0.571923
1 0.573465 0.584451
0 0.551583 0.689433
0 0.589639 0.740322
0.292912 0.601114 0.767254
0.717037 0.781964 0.538399
0.949737 0.77554 0.527764
0 0.574197 0.824933
0 0.599771 0.86949
0.0337072 0.621973 0.906416
0.580819 0.788708 0.717876
0.884184 0.925719 0.465248
0 0.0148165 0.265522
0.0555123 0 0.451225
0.501534 0 0.639216
0.781674 0 0.791257
1 0.0150301 0.82501
0 0.222141 0.400702
0.0896315 0.273228 0.471717
0.494209 0.267033 0.671824
0.794186 0.272923 0.832013
1 0.301457 0.862638
0 0.485603 0.569055
0 0.547082 0.627405
0.462516 0.568231 0.655619
0.739483 0.559182 0.80798
0.985107 0.568933 0.82063
0 0.727657 0.732601
0 0.773449 0.778164
0.143954 0.797513 0.802045
0.678172 0.777661 0.78204
0.917754 0.767575 0.772229
0 0.785382 0.88072
0 0.816236 0.917113
0 0.828855 0.940505
0.536767 0.788495 0.912261
0.847562 0.914626 0.725032
0 0.0156252 0.34931
0.045243 0.00471504 0.535882
0.48481 0 0.712322
0.778912 0 0.864225
1 0.0195926 1
0 0.230976 0.492851
0.100999 0.280293 0.564385
0.480476 0.281239 0.737667
0.786755 0.280491 0.900603
1 0.304326 1
0 0.495628 0.64152
0 0.556191 0.699947
0.468299 0.574166 0.729091
0.725597 0.566537 0.869307
0.95108 0.568154 0.999207
0 0.733394 0.790478
0 0.777142 0.832212
0.234928 0.795163 0.84863
0.680339 0.779706 0.839078
0.880568 0.764401 0.951293
0 0.930144 0.931762
0 0.954025 0.955596
0 0.964645 0.966186
0.440131 0.938704 0.940246
0.815671 0.909499 0.911055
