luts/1771694145769-Flex02.cube
TITLE "Generated by Resolve"
LUT_3D_SIZE 5
0 0.00891127 0.0713207
0.0977493 0.00857557 0.0623026
0.509865 0.00306706 0.0483558
0.798032 0.038117 0.0673686
1 0.0959182 0.103777
0 0.187396 0.0626383
0.0604257 0.212238 0.0756237
0.538705 0.244541 0.0771038
0.843534 0.298573 0.0958419
1 0.367681 0.126101
0 0.497765 0.071397
0.132555 0.527687 0.0843061
0.519326 0.540261 0.0835126
0.840085 0.58793 0.0941939
1 0.639261 0.122408
0 0.813519 0.115297
0.258854 0.820386 0.130327
0.581689 0.808835 0.131014
0.799161 0.806546 0.140337
1 0.825818 0.156756
0 1 0.195422
0.370336 0.999023 0.19266
0.61912 0.971725 0.184634
0.805722 0.956008 0.185763
0.946502 0.948669 0.19263
0 0 0.181598
0 0.00244144 0.212146
0.446387 0 0.203281
0.750576 0.0208438 0.225162
1 0.076936 0.269261
0 0.188663 0.226825
0.0746929 0.22005 0.252491
0.549111 0.25211 0.261341
0.854032 0.306859 0.28864
1 0.374365 0.325963
0 0.503243 0.27071
0.14406 0.536248 0.284657
0.526238 0.546975 0.288563
0.841535 0.592401 0.307607
1 0.639475 0.338399
0 0.814084 0.336461
0.26566 0.819409 0.348989
0.580926 0.805615 0.349538
0.794171 0.801541 0.358236
0.997772 0.818799 0.37319
0 1 0.425376
0.366125 0.990555 0.414633
0.612741 0.962768 0.40061
0.797024 0.946502 0.396521
0.93669 0.938918 0.399664
0 0 0.341863
0 0 0.407294
0.373587 0 0.415106
0.695338 0.00108339 0.442344
0.956985 0.0542458 0.500465
0 0.100252 0.405982
0 0.114611 0.444511
0.476127 0.233539 0.51133
0.802945 0.282094 0.543694
1 0.348516 0.592233
0 0.501503 0.513619
0.20882 0.532158 0.543664
0.530205 0.550713 0.561608
0.839704 0.593515 0.582269
1 0.637522 0.606348
0 0.806287 0.614801
0.292378 0.81149 0.619257
0.579141 0.801419 0.607462
0.788632 0.795987 0.607736
0.989609 0.812055 0.615518
0.00177005 1 0.677775
0.371664 0.979919 0.657099
0.606867 0.954482 0.633631
0.789303 0.937972 0.623301
0.927733 0.930037 0.620554
0 0 0.528191
0 0 0.596017
0 0 0.649989
0.637537 0 0.65713
0.910796 0.0339971 0.713726
0 0.0442512 0.611719
0 0.0444038 0.648646
0 0.125841 0.723659
0.750851 0.261021 0.765454
1 0.326284 0.813977
0 0.376883 0.678157
0 0.422354 0.720943
0.0805066 0.452979 0.762417
0.785107 0.574731 0.796887
1 0.619379 0.813275
0 0.801648 0.806165
0.370871 0.799832 0.80412
0.609689 0.79353 0.79762
0.787335 0.794675 0.798596
0.985412 0.809216 0.799786
0.0784466 0.985275 0.855192
0.411231 0.965499 0.835248
0.616968 0.946319 0.813123
0.785336 0.933242 0.796933
0.922408 0.924788 0.790677
0 0 0.693233
0 0 0.749203
0 0 0.803906
0.261479 0 0.813901
0.86743 0.0177615 0.873442
0 0 0.767437
0 0 0.803876
0 0.0355688 0.853529
0.400732 0.137774 0.921569
0.979461 0.3075 0.982528
0 0.260548 0.805188
0 0.300313 0.847074
0 0.333043 0.892485
0.459693 0.466957 0.950515
0.968353 0.604425 0.970764
0 0.702937 0.912688
0 0.735592 0.936126
0.320912 0.741588 0.933867
0.550149 0.736904 0.931624
0.940169 0.796323 0.943023
0.163943 0.97438 0.975662
0.459419 0.953216 0.954482
0.654795 0.934997 0.936263
0.802777 0.92607 0.927352
0.919844 0.922286 0.923613
