luts/1771694535954-Rezz05.cube
TITLE "Generated by Resolve"
LUT_3D_SIZE 9
0.00851453 0.002533 0
0.124392 0.00355535 0
0.250584 0.00250248 0
0.406165 0 0
0.564843 0 0
0.688563 0 0
0.785046 0 0
0.862913 0.00695811 0
0.924819 0.0252232 0
0.0238956 0.10399 0
0.138842 0.104433 0
0.256382 0.107668 0
0.412604 0.101427 0
0.573068 0.0952773 0
0.698772 0.0984512 0
0.79884 0.109865 0
0.881682 0.127779 0
0.949416 0.152209 0
0.0352178 0.210575 0.0492561
0.147387 0.215671 0.0407874
0.281178 0.215137 0.0301061
0.425711 0.219196 0
0.587015 0.220066 0
0.717327 0.230137 0
0.821973 0.248295 0
0.908446 0.272496 0
0.976944 0.301534 0
0.0374762 0.335241 0.0995499
0.149996 0.349325 0.0961318
0.292073 0.354467 0.0943618
0.461631 0.354757 0.0798199
0.61033 0.366522 0.028687
0.735607 0.382193 0.000518807
0.838102 0.402823 0
0.920501 0.426596 0
0.983536 0.452476 0.00656138
0.0566567 0.480339 0.169284
0.17052 0.500771 0.169818
0.309651 0.51017 0.170352
0.488701 0.507622 0.161349
0.655634 0.507713 0.142138
0.76907 0.521492 0.112871
0.858701 0.538674 0.0941634
0.931868 0.556634 0.0870985
0.987411 0.575113 0.0891432
0.106569 0.62266 0.25864
0.216464 0.641886 0.256886
0.349859 0.64773 0.251652
0.521798 0.639353 0.233478
0.690364 0.628397 0.216724
0.807767 0.629969 0.198352
0.891234 0.639384 0.178897
0.955734 0.651591 0.165301
1 0.665354 0.161395
0.159258 0.74255 0.3411
0.261006 0.755016 0.331731
0.388281 0.754437 0.31751
0.552895 0.739879 0.291432
0.714992 0.723033 0.269276
0.834089 0.716731 0.254688
0.918883 0.719402 0.239826
0.981537 0.726375 0.22678
1 0.736492 0.220829
0.201633 0.83447 0.405646
0.298405 0.842069 0.390829
0.42385 0.836805 0.369863
0.584787 0.817838 0.338598
0.740505 0.798108 0.312886
0.855558 0.787854 0.29778
0.940688 0.785199 0.284688
1 0.787594 0.272725
1 0.793591 0.265995
0.239948 0.906966 0.459846
0.334249 0.911101 0.440864
0.461616 0.901366 0.413855
0.619913 0.878477 0.378378
0.766842 0.856855 0.350469
0.876478 0.844205 0.333761
0.960266 0.837385 0.320058
1 0.835706 0.307576
1 0.838102 0.299519
0 0.0108034 0
0.104784 0.0112001 0.0162814
0.232715 0.00947585 0
0.392096 0.000732433 0
0.552377 0 0
0.677058 0 0
0.774441 0 0
0.853056 0.0125582 0
0.915541 0.0311131 0
0.0395361 0.103746 0.0585641
0.11722 0.114458 0.0667582
0.244144 0.114443 0.033463
0.401724 0.107881 0
0.562585 0.102083 0
0.688563 0.105608 0
0.78941 0.117861 0
0.872831 0.136416 0
0.940932 0.161196 0
0.0533608 0.207172 0.120211
0.131502 0.224491 0.119615
0.261067 0.226719 0.109697
0.412039 0.229374 0.0560464
0.577142 0.229862 0.00996414
0.708766 0.240177 0
0.814069 0.258518 0
0.900847 0.282811 0
0.96878 0.311086 0.00527962
0.0514992 0.33254 0.176425
0.141711 0.357397 0.178515
0.27042 0.369116 0.174777
0.443976 0.368948 0.162356
0.594659 0.379843 0.111238
0.723232 0.394491 0.0854658
0.826886 0.414237 0.0780652
0.909529 0.437217 0.0811322
0.972229 0.462257 0.0921035
0.0681163 0.478599 0.248646
0.166003 0.507042 0.253468
0.292546 0.524178 0.251362
0.467582 0.522362 0.240772
0.636515 0.520455 0.223423
0.749599 0.533715 0.192798
0.840024 0.549798 0.17351
0.91371 0.566369 0.16611
0.969711 0.584222 0.168276
0.115526 0.620081 0.337179
0.211322 0.644877 0.337972
0.332204 0.659068 0.330159
0.497215 0.652079 0.311391
0.666499 0.639612 0.293431
0.785702 0.639704 0.276478
0.868772 0.648768 0.256046
0.932998 0.660304 0.241352
0.982651 0.673671 0.236896
0.16463 0.737316 0.41677
0.254078 0.754818 0.409842
0.368933 0.762554 0.3935
0.526513 0.750118 0.367834
0.689128 0.732845 0.343572
0.809445 0.725521 0.330037
0.895171 0.727291 0.31574
0.957671 0.734066 0.302327
1 0.743603 0.295338
0.204532 0.827222 0.479683
0.289754 0.839689 0.467109
0.403296 0.843061 0.444785
0.557504 0.826566 0.413855
0.712566 0.806943 0.385779
0.828855 0.796048 0.370932
0.915465 0.792309 0.35877
0.977996 0.794064 0.346975
1 0.799756 0.339818
0.241016 0.898009 0.533578
0.324147 0.907057 0.516686
0.439155 0.90631 0.488411
0.591867 0.886015 0.452964
0.737728 0.864652 0.422309
0.847944 0.851179 0.405066
0.932982 0.843381 0.391897
0.995041 0.841291 0.380392
1 0.843061 0.372045
0 0.0199283 0.0427253
0.0769818 0.0234073 0.0878462
0.20824 0.0175631 0.0865034
0.364996 0.00950637 0.0367132
0.528206 0 0
0.655116 0 0
0.753414 0.00698863 0
0.832532 0.0204623 0
0.89453 0.0391089 0
0.0340734 0.110201 0.102525
0.107958 0.123033 0.114977
0.221759 0.122408 0.138781
0.382376 0.115282 0.0896773
0.546883 0.108705 0.040238
0.674662 0.112459 0.0133669
0.776608 0.1252 0.00526436
0.860685 0.144335 0.0104524
0.928588 0.169406 0.0287938
0.0648661 0.206775 0.169482
0.14815 0.222965 0.183673
0.23798 0.238788 0.196643
0.399634 0.237934 0.153201
0.566186 0.23856 0.110307
0.698283 0.249256 0.0895399
0.804013 0.268254 0.0865034
0.89044 0.292531 0.0953689
0.95761 0.320607 0.114244
0.074342 0.326345 0.239063
0.160815 0.352728 0.257832
0.256321 0.380285 0.264759
0.422965 0.383322 0.252384
0.578347 0.392264 0.203037
0.710445 0.405768 0.180987
0.814588 0.424536 0.175662
0.896712 0.446464 0.180163
0.958389 0.47071 0.193256
0.0914778 0.470573 0.320668
0.179568 0.501442 0.336706
0.283009 0.531807 0.342046
0.44181 0.537423 0.328328
0.614084 0.533425 0.312276
0.727199 0.545953 0.280308
0.819135 0.560372 0.261967
0.89308 0.575158 0.255558
0.949081 0.592203 0.259724
0.135866 0.610315 0.412879
0.219913 0.636637 0.420752
0.321782 0.661707 0.419059
0.470619 0.663737 0.398032
0.638514 0.651316 0.377264
0.76022 0.649516 0.362112
0.842634 0.658091 0.341039
0.906783 0.669169 0.326253
0.956542 0.681971 0.322942
0.181292 0.724544 0.493629
0.258671 0.743786 0.492088
0.355962 0.761334 0.481102
0.499077 0.75935 0.453208
0.657954 0.743099 0.42623
0.780865 0.734737 0.413321
0.867613 0.735271 0.400061
0.929671 0.741741 0.386465
0.974685 0.751232 0.379873
0.218799 0.811582 0.558648
0.292165 0.826337 0.551171
0.388037 0.839384 0.533272
0.528237 0.834562 0.499763
0.678477 0.816205 0.469322
0.796643 0.804501 0.45301
0.885405 0.799405 0.441581
0.948745 0.800626 0.430518
0.992477 0.805905 0.423514
0.254047 0.879286 0.615732
0.324895 0.891005 0.603738
0.420935 0.90045 0.579355
0.559548 0.893172 0.541192
0.701015 0.872969 0.508049
0.813901 0.85864 0.4878
0.900618 0.850019 0.474525
0.963745 0.846876 0.463096
1 0.848341 0.455161
0 0.0289616 0.102525
0.0494392 0.0366522 0.136645
0.172457 0.029221 0.188281
0.33283 0.0173342 0.167758
0.49221 0.00869764 0.118486
0.617044 0.00915541 0.0879072
0.715389 0.0167697 0.0757153
0.794751 0.0304417 0.0777752
0.856687 0.0493782 0.0922103
0.0184939 0.117357 0.157946
0.0914626 0.130556 0.173297
0.183993 0.136339 0.222141
0.349126 0.124331 0.222751
0.510948 0.118456 0.17528
0.640421 0.122789 0.149966
0.743908 0.135439 0.143328
0.829343 0.155245 0.151446
0.897475 0.180697 0.172503
0.0567178 0.210925 0.222004
0.137682 0.228214 0.236957
0.225086 0.248051 0.256657
0.370871 0.248234 0.288304
0.540017 0.248569 0.246723
0.675715 0.258854 0.227298
0.783001 0.277668 0.225956
0.869642 0.301488 0.236683
0.936629 0.329442 0.258152
0.08336 0.325246 0.297398
0.173327 0.34818 0.318654
0.274968 0.375174 0.343832
0.392905 0.398306 0.363287
0.560311 0.402533 0.325032
0.693782 0.415015 0.306203
0.797681 0.433036 0.302373
0.878874 0.454002 0.308324
0.939529 0.477699 0.323201
0.114214 0.464378 0.390066
0.202457 0.488289 0.410254
0.301396 0.518318 0.433539
0.417639 0.547936 0.439124
0.581781 0.546609 0.422049
0.697612 0.557504 0.389761
0.793072 0.569512 0.374762
0.868147 0.582788 0.371054
0.924056 0.598642 0.377539
0.161624 0.599084 0.487938
0.24242 0.618753 0.500389
0.332479 0.64332 0.51194
0.447196 0.668589 0.506294
0.599283 0.663905 0.481758
0.725322 0.659876 0.469154
0.80737 0.66772 0.446723
0.872724 0.677882 0.432837
0.923598 0.689815 0.431785
0.205478 0.708141 0.570489
0.278782 0.722393 0.574533
0.361624 0.739742 0.574487
0.474647 0.760143 0.560647
0.616358 0.75404 0.531701
0.740887 0.744915 0.516243
0.83064 0.743496 0.505135
0.892454 0.749783 0.4916
0.937026 0.759014 0.484901
0.241611 0.791867 0.636591
0.310582 0.802518 0.635157
0.390204 0.815335 0.627253
0.502159 0.832319 0.607446
0.636698 0.825315 0.575494
0.75433 0.813703 0.555184
0.845365 0.807401 0.54432
0.910353 0.807599 0.534737
0.953948 0.812604 0.528084
0.275792 0.857649 0.693812
0.341726 0.865293 0.687907
0.420874 0.874693 0.674037
0.531502 0.888426 0.64921
0.658747 0.880873 0.61503
0.768887 0.867247 0.590845
0.857191 0.857664 0.576379
0.923247 0.85333 0.566491
0.966644 0.853925 0.558984
0 0.0377203 0.162921
0.0310826 0.0463264 0.190906
0.13196 0.0450294 0.25304
0.297917 0.0278019 0.277775
0.459693 0.0164797 0.250248
0.584649 0.0168917 0.224262
0.681712 0.0256352 0.211688
0.760433 0.0399481 0.211536
0.823301 0.0599069 0.223865
0.0018616 0.124743 0.215244
0.0740215 0.137438 0.231647
0.157519 0.148028 0.2701
0.314488 0.136492 0.329397
0.479805 0.127657 0.309468
0.608316 0.132876 0.287755
0.710353 0.146929 0.280446
0.795224 0.167376 0.287007
0.864515 0.19353 0.305592
0.0426642 0.217777 0.276967
0.120684 0.234455 0.292088
0.207477 0.254765 0.314717
0.334936 0.264225 0.381826
0.509606 0.260349 0.383932
0.643 0.27155 0.366995
0.749615 0.290913 0.364385
0.836713 0.31426 0.372732
0.905303 0.34226 0.391455
0.0807507 0.332509 0.354543
0.166369 0.352483 0.372259
0.264683 0.379049 0.396429
0.38085 0.407416 0.423713
0.532204 0.414221 0.46247
0.666514 0.42591 0.444266
0.772702 0.442695 0.43888
0.855451 0.462364 0.442374
0.916762 0.484901 0.453956
0.123644 0.467948 0.450797
0.210742 0.487663 0.46862
0.308766 0.510552 0.489479
0.432547 0.538125 0.514412
0.549661 0.559701 0.531899
0.67483 0.565972 0.507469
0.772168 0.57586 0.494743
0.847898 0.588342 0.491096
0.903929 0.603433 0.495995
0.175769 0.596887 0.549279
0.257893 0.612497 0.562112
0.34609 0.626703 0.572427
0.459846 0.648905 0.588006
0.569162 0.671855 0.589731
0.689464 0.670359 0.576165
0.773358 0.67686 0.553231
0.842924 0.685023 0.541176
0.895979 0.695689 0.540536
0.220706 0.701244 0.630671
0.295247 0.710765 0.63592
0.376394 0.718715 0.637629
0.48159 0.736339 0.643137
0.589258 0.757794 0.636957
0.699413 0.755367 0.618738
0.793698 0.752163 0.610239
0.855314 0.757733 0.595575
0.900923 0.766323 0.587549
0.256626 0.782162 0.694514
0.326848 0.788266 0.695323
0.405112 0.793149 0.691768
0.504753 0.806836 0.688899
0.609995 0.826215 0.677745
0.712428 0.822797 0.656764
0.804089 0.815976 0.644846
0.872251 0.814664 0.637797
0.915892 0.81915 0.630335
0.289708 0.846754 0.748211
0.357275 0.849943 0.745251
0.434638 0.851911 0.737026
0.530907 0.862257 0.727993
0.632197 0.878996 0.713375
0.727977 0.874464 0.689937
0.815106 0.865415 0.673976
0.882521 0.859861 0.665324
0.927794 0.859525 0.659266
0 0.0459907 0.209522
0.0205844 0.0548257 0.235309
0.111299 0.0572061 0.290333
0.271305 0.0397192 0.348211
0.436545 0.0263371 0.337652
0.563134 0.0255894 0.321584
0.661814 0.0341802 0.312184
0.741497 0.048661 0.311376
0.805814 0.0695811 0.322301
0 0.133303 0.261295
0.0634623 0.1449 0.277195
0.145144 0.156252 0.311131
0.286 0.150042 0.388663
0.457984 0.13901 0.396262
0.588602 0.143282 0.386999
0.692668 0.157565 0.383276
0.778424 0.178622 0.389197
0.848295 0.205295 0.405737
0.0350195 0.227588 0.323064
0.111009 0.242649 0.337041
0.196857 0.262135 0.360037
0.313359 0.277974 0.421607
0.489799 0.273732 0.470558
0.625147 0.283818 0.469123
0.73225 0.302617 0.468803
0.818875 0.326375 0.475593
0.886778 0.354406 0.491386
0.078706 0.343297 0.400992
0.161822 0.362371 0.417609
0.255573 0.386297 0.439399
0.370138 0.41474 0.46891
0.510216 0.429358 0.540566
0.647456 0.437644 0.547448
0.751415 0.453819 0.54255
0.832471 0.473411 0.543664
0.893812 0.495338 0.552209
0.127428 0.476997 0.497169
0.213703 0.49633 0.514473
0.306294 0.514519 0.530236
0.425544 0.539559 0.552163
0.543145 0.566735 0.577096
0.654185 0.575158 0.608759
0.751919 0.583551 0.595117
0.829435 0.594965 0.589471
0.886885 0.609277 0.592081
0.182422 0.60206 0.59411
0.263874 0.616022 0.605905
0.349599 0.625925 0.613123
0.461295 0.641154 0.625116
0.580072 0.663539 0.644617
0.665766 0.679255 0.656779
0.755138 0.683238 0.638895
0.827298 0.689921 0.628595
0.881163 0.699855 0.627344
0.227787 0.702373 0.672786
0.302464 0.710048 0.677806
0.383658 0.714733 0.678889
0.486717 0.722316 0.681743
0.598871 0.743343 0.696635
0.678981 0.760632 0.698451
0.766461 0.76022 0.688609
0.830152 0.76495 0.673838
0.878599 0.772107 0.666453
0.263966 0.780728 0.734676
0.334707 0.785092 0.735637
0.413367 0.786221 0.732341
0.510994 0.789288 0.728618
0.615473 0.808911 0.737682
0.694011 0.82504 0.733867
0.773892 0.823697 0.720333
0.844541 0.820874 0.714137
0.888716 0.824704 0.706538
0.296895 0.843503 0.786267
0.364584 0.844648 0.783566
0.442618 0.842924 0.776333
0.536507 0.842802 0.76759
0.634211 0.860395 0.771496
0.71014 0.87454 0.764126
0.78471 0.871611 0.74789
0.852094 0.866011 0.738323
0.899413 0.864485 0.733837
0 0.0542763 0.245869
0.0153353 0.0630961 0.270466
0.101884 0.0668345 0.320089
0.25301 0.051545 0.392813
0.422889 0.0362097 0.39852
0.548653 0.0354009 0.389242
0.648493 0.0436103 0.384787
0.729397 0.0582742 0.386801
0.795239 0.0796979 0.398779
0 0.142031 0.297551
0.058381 0.152987 0.313222
0.139254 0.164385 0.344884
0.269902 0.162325 0.423819
0.445594 0.150454 0.457023
0.575601 0.154818 0.455726
0.681392 0.168978 0.458244
0.76849 0.190051 0.466926
0.839414 0.217258 0.48455
0.0320897 0.237491 0.359686
0.107713 0.252598 0.374166
0.192355 0.270817 0.396521
0.305959 0.288792 0.452873
0.476493 0.288014 0.528572
0.613581 0.297459 0.538705
0.721584 0.314946 0.545007
0.809064 0.338415 0.554849
0.87715 0.36582 0.570184
0.0786145 0.354635 0.438178
0.1617 0.374548 0.455787
0.25182 0.395621 0.475105
0.364981 0.422705 0.504463
0.494865 0.443992 0.578042
0.635248 0.450797 0.614069
0.739376 0.465019 0.61883
0.820645 0.483528 0.621759
0.88098 0.504692 0.629099
0.131151 0.487663 0.53434
0.216358 0.506844 0.551293
0.305837 0.522774 0.564462
0.419348 0.544198 0.582528
0.535698 0.572427 0.610147
0.637278 0.586618 0.663493
0.737545 0.592096 0.670268
0.813382 0.602945 0.665461
0.869551 0.617044 0.666682
0.187167 0.60972 0.629358
0.26746 0.622766 0.640208
0.352148 0.631479 0.646204
0.457755 0.641154 0.652186
0.575021 0.663539 0.671427
0.662058 0.683284 0.689036
0.739666 0.689815 0.711971
0.812711 0.695979 0.702358
0.86746 0.704906 0.69987
0.232136 0.706416 0.705425
0.306477 0.713481 0.710048
0.387091 0.716899 0.710414
0.486122 0.7187 0.708293
0.59968 0.736782 0.723354
0.687953 0.754528 0.73901
0.750408 0.7664 0.747814
0.81593 0.770077 0.735943
0.866575 0.775769 0.729931
0.268299 0.78265 0.76585
0.338704 0.78587 0.766278
0.417411 0.785733 0.762631
0.512276 0.782971 0.755199
0.618631 0.797345 0.765438
0.701869 0.814664 0.778119
0.760281 0.827024 0.779156
0.823758 0.827039 0.771023
0.869444 0.829953 0.764187
0.300969 0.843748 0.816083
0.368475 0.843732 0.81297
0.446479 0.840345 0.805463
0.538582 0.834577 0.794232
0.637537 0.845853 0.800046
0.71516 0.861997 0.808728
0.772061 0.872847 0.805127
0.829068 0.87129 0.793927
0.877913 0.868833 0.789319
0 0.062501 0.274876
0.0135348 0.0713817 0.298802
0.098085 0.0756237 0.344854
0.242939 0.0622263 0.423529
0.414618 0.0458381 0.443565
0.540383 0.0454414 0.439048
0.640162 0.0533455 0.438117
0.722423 0.0685588 0.443412
0.7888 0.0901808 0.456992
0 0.150546 0.326589
0.0572366 0.1617 0.342779
0.137911 0.172717 0.373037
0.263096 0.173327 0.449851
0.437736 0.162402 0.501396
0.56965 0.166827 0.506737
0.675349 0.181094 0.513695
0.763348 0.20238 0.525612
0.835096 0.229679 0.544854
0.0319524 0.247349 0.389258
0.107805 0.262943 0.404669
0.19237 0.280568 0.42681
0.304753 0.299092 0.479973
0.468025 0.302358 0.568246
0.608759 0.31104 0.589822
0.715846 0.328176 0.600671
0.803677 0.351019 0.613565
0.871672 0.377691 0.630014
0.0810101 0.3664 0.469017
0.163989 0.386831 0.487388
0.252674 0.406363 0.505302
0.36434 0.431632 0.533516
0.48893 0.45597 0.602625
0.627237 0.463874 0.660639
0.731334 0.476783 0.671443
0.812787 0.493858 0.678721
0.873106 0.514 0.687297
0.135714 0.498924 0.564874
0.220035 0.517769 0.58143
0.308736 0.533272 0.594217
0.417243 0.550652 0.608087
0.531685 0.578042 0.63595
0.626123 0.596902 0.688548
0.728145 0.601465 0.718807
0.804074 0.610849 0.721508
0.860014 0.623941 0.724117
0.191867 0.618173 0.657862
0.270863 0.630442 0.667781
0.35462 0.638483 0.672892
0.455879 0.644388 0.674708
0.569863 0.665827 0.692699
0.656245 0.687236 0.713191
0.72697 0.698405 0.749447
0.801816 0.702251 0.757839
0.855329 0.710674 0.75642
0.235874 0.711879 0.731517
0.309407 0.718196 0.735348
0.389761 0.721141 0.735225
0.485939 0.719966 0.729976
0.595972 0.735256 0.742046
0.684855 0.754635 0.759258
0.74934 0.7691 0.77203
0.804166 0.775128 0.789197
0.855375 0.780102 0.784237
0.271641 0.786191 0.790494
0.341711 0.788785 0.790417
0.420279 0.788128 0.78645
0.513207 0.782666 0.776654
0.616617 0.792676 0.783352
0.702968 0.809674 0.798337
0.767895 0.822782 0.809812
0.813214 0.831067 0.815381
0.856947 0.83418 0.808927
0.304036 0.845975 0.839689
0.371283 0.845319 0.836225
0.449012 0.841062 0.828214
0.539635 0.832609 0.815076
0.636103 0.83859 0.817365
0.717769 0.85362 0.829648
0.778424 0.865385 0.837903
0.820294 0.872969 0.837446
0.861555 0.873304 0.830961
0 0.0705425 0.297093
0.0148165 0.0795453 0.320729
0.098497 0.0839094 0.364675
0.240085 0.0719615 0.445853
0.412055 0.0554055 0.475776
0.53785 0.0553292 0.474998
0.637644 0.0636454 0.476646
0.720653 0.0793774 0.484627
0.787961 0.101457 0.49984
0 0.158831 0.348974
0.059205 0.170428 0.365805
0.139696 0.180819 0.394949
0.263432 0.183276 0.470771
0.435523 0.17377 0.532891
0.569558 0.178805 0.544533
0.674952 0.193698 0.55433
0.7635 0.215091 0.568536
0.835431 0.24239 0.589288
0.0348211 0.257298 0.41268
0.111131 0.273518 0.428977
0.196002 0.290806 0.451057
0.30837 0.309514 0.502693
0.4663 0.31603 0.595941
0.608286 0.324208 0.627039
0.715419 0.341466 0.640726
0.802594 0.363806 0.655695
0.870329 0.389746 0.673152
0.0856641 0.378241 0.493736
0.168627 0.399039 0.512581
0.257374 0.418128 0.530282
0.367742 0.441489 0.556924
0.489509 0.46685 0.622507
0.622858 0.4766 0.691203
0.728725 0.488487 0.708247
0.808988 0.504616 0.717784
0.868879 0.52343 0.727611
0.141726 0.510323 0.58941
0.225223 0.52874 0.605524
0.313161 0.543526 0.617441
0.419043 0.558251 0.628809
0.531487 0.584405 0.656046
0.622705 0.605066 0.705333
0.722103 0.610773 0.74995
0.798718 0.619379 0.757687
0.854704 0.631312 0.763058
0.197116 0.626932 0.68014
0.275227 0.638392 0.689235
0.35848 0.64593 0.693629
0.45716 0.649561 0.692973
0.56759 0.669184 0.709133
0.65362 0.691249 0.731014
0.72076 0.705699 0.765957
0.795926 0.709133 0.791211
0.849577 0.716777 0.795071
0.24007 0.718059 0.751614
0.312978 0.723888 0.754971
0.393027 0.726284 0.754131
0.48777 0.72372 0.747219
0.593912 0.736522 0.756481
0.681956 0.756512 0.774227
0.746319 0.772625 0.78912
0.795773 0.781735 0.812619
0.848035 0.784924 0.822171
0.275212 0.790784 0.8094
0.344747 0.792767 0.808682
0.423072 0.791562 0.804135
0.515282 0.785367 0.793515
0.615106 0.792081 0.796765
0.701183 0.808942 0.811627
0.766918 0.823011 0.824155
0.814191 0.832486 0.832273
0.848676 0.838209 0.843778
0.306508 0.848905 0.857191
0.373709 0.847913 0.85333
0.45127 0.843091 0.844892
0.541421 0.833753 0.830991
0.634806 0.836286 0.829953
0.716442 0.850233 0.841825
0.77995 0.862409 0.852445
0.82623 0.870146 0.858747
0.856138 0.875257 0.86154
