luts/1771694535954-Rezz05.cube
TITLE "Generated by Resolve"
LUT_3D_SIZE 33
0.00851453 0.002533 0
0.0361791 0.00210575 0
0.0654002 0.00254826 0
0.0948959 0.00329595 0
0.124392 0.00355535 0
0.154345 0.00369268 0
0.185046 0.00363165 0
0.216953 0.00325017 0
0.250584 0.00250248 0
0.286809 0.00154116 0
0.324941 0 0
0.364874 0 0
0.406165 0 0
0.447501 0 0
0.488258 0 0
0.527749 0 0
0.564843 0 0
0.599496 0 0
0.631373 0 0
0.660777 0 0
0.688563 0 0
0.714809 0 0
0.739467 0 0
0.762905 0 0
0.785046 0 0
0.806302 0 0
0.8262 7.62951e-05 0
0.844968 0.00337224 0
0.862913 0.00695811 0
0.879652 0.0109407 0
0.895613 0.0153658 0
0.910719 0.020325 0
0.924819 0.0252232 0
0.0120699 0.0271 0
0.0402686 0.0273289 0
0.0674907 0.0289311 0
0.0962844 0.0293889 0
0.125689 0.0296178 0
0.155612 0.0297246 0
0.186328 0.029633 0
0.218585 0.0295262 0
0.252415 0.0288853 0
0.288334 0.0275425 0
0.326528 0.0256657 0
0.366552 0.0233768 0
0.40798 0.020798 0
0.449699 0.0184024 0
0.49041 0.0160067 0
0.529732 0.0141756 0
0.566842 0.0128023 0
0.60148 0.0119783 0
0.633143 0.0119936 0
0.662669 0.0126497 0
0.69041 0.0135958 0
0.716762 0.0149386 0
0.741756 0.016907 0
0.765103 0.0191653 0
0.787503 0.0217899 0
0.809064 0.0246738 0
0.829099 0.027924 0
0.848249 0.0314794 0
0.866423 0.0352941 0
0.88333 0.0395056 0
0.899977 0.04448 0
0.915282 0.0495155 0
0.929702 0.0547189 0
0.0163424 0.0529641 0
0.0433814 0.0535897 0
0.0732586 0.053193 0
0.0988632 0.0547189 0
0.127092 0.0554513 0
0.156634 0.0557259 0
0.187427 0.0559548 0
0.219471 0.0557412 0
0.253254 0.0550698 0
0.289235 0.0537881 0
0.327535 0.0519722 0
0.367651 0.0497292 0
0.409461 0.0473945 0
0.450996 0.044892 0
0.491997 0.0428168 0
0.531365 0.0409552 0
0.568429 0.0396277 0
0.603159 0.0389868 0
0.635142 0.0392615 0
0.664561 0.0399786 0
0.692576 0.0410773 0
0.719051 0.0425574 0
0.744152 0.0448005 0
0.768078 0.0474861 0
0.790661 0.0502327 0
0.812161 0.053254 0
0.832563 0.0566873 0
0.852049 0.060502 0
0.87068 0.0648356 0
0.888197 0.0695201 0
0.90483 0.0745708 0
0.920455 0.0798505 0
0.935256 0.0855268 0
0.0203098 0.0785077 0
0.0459754 0.079408 0
0.076585 0.0787366 0
0.10576 0.078584 0
0.13135 0.0801556 0
0.159319 0.0814221 0
0.189349 0.0819867 0
0.220966 0.0819104 0
0.25452 0.0813001 0
0.290455 0.0801404 0
0.329091 0.0786603 0
0.369345 0.0765545 0
0.410956 0.0741436 0
0.452598 0.0717327 0
0.493797 0.06981 0
0.533257 0.068101 0
0.570809 0.0672007 0
0.605432 0.0667124 0
0.637461 0.0669261 0
0.667063 0.0678721 0
0.695354 0.0692149 0
0.722225 0.0711681 0
0.747524 0.0737316 0
0.771496 0.0763714 0
0.794446 0.0794385 0
0.81619 0.082887 0
0.836942 0.0866102 0
0.856809 0.0908217 0
0.875837 0.0955825 0
0.893935 0.100832 0
0.91078 0.106172 0
0.926757 0.111788 0
0.941772 0.117815 0
0.0238956 0.10399 0
0.0486763 0.105272 0
0.0783703 0.104952 0
0.109606 0.104341 0
0.138842 0.104433 0
0.164858 0.106004 0
0.192798 0.107439 0
0.223331 0.107881 0
0.256382 0.107668 0
0.292348 0.106966 0
0.330632 0.105501 0
0.370871 0.103609 0
0.412604 0.101427 0
0.454582 0.099443 0
0.495705 0.0974746 0
0.535622 0.0961776 0
0.573068 0.0952773 0
0.607919 0.0950942 0
0.640177 0.0955367 0
0.669978 0.0966812 0
0.698772 0.0984512 0
0.726009 0.100969 0
0.751354 0.103578 0
0.77557 0.106508 0
0.79884 0.109865 0
0.820905 0.113741 0
0.842435 0.118303 0
0.862547 0.122866 0
0.881682 0.127779 0
0.90013 0.13344 0
0.917388 0.139284 0
0.933944 0.145556 0
0.949416 0.152209 0
0.0273136 0.129732 0.0122683
0.0515297 0.131319 0.0087892
0.0805676 0.131456 0.00671397
0.111635 0.130983 0.004654
0.143038 0.130343 0.00314336
0.172519 0.130724 0
0.199344 0.132235 0
0.227771 0.133562 0
0.259831 0.134279 0
0.294911 0.133898 0
0.33283 0.132799 0
0.372915 0.131167 0
0.414847 0.129473 0
0.457084 0.127825 0
0.498405 0.126207 0
0.538109 0.124926 0
0.575723 0.124269 0
0.610819 0.124407 0
0.643412 0.125246 0
0.673899 0.127001 0
0.702724 0.128954 0
0.730083 0.131685 0
0.755856 0.134768 0
0.780514 0.138231 0
0.80415 0.142 0
0.826749 0.146517 0
0.848295 0.151186 0
0.868925 0.156329 0
0.888716 0.162005 0
0.907134 0.167742 0
0.924651 0.173999 0
0.941558 0.180804 0
0.957137 0.187747 0
0.0304723 0.155932 0.0246586
0.0545968 0.158007 0.0214237
0.082887 0.158373 0.0190738
0.113054 0.158175 0.0169223
0.145205 0.157733 0.0154421
0.177035 0.157183 0.0137942
0.207126 0.157687 0.00921645
0.235386 0.159258 0
0.265187 0.160601 0
0.298833 0.161044 0
0.336004 0.160601 0
0.375723 0.159487 0
0.41767 0.158267 0
0.459785 0.156924 0
0.501183 0.155673 0
0.541131 0.154833 0
0.578943 0.154528 0
0.614237 0.154971 0
0.64744 0.156512 0
0.678187 0.158572 0
0.707485 0.161196 0
0.734936 0.16408 0
0.760952 0.167529 0
0.786023 0.17145 0
0.81033 0.17612 0
0.833005 0.180804 0
0.854826 0.185779 0
0.875853 0.191531 0
0.895674 0.197406 0
0.914687 0.203952 0
0.93225 0.210437 0
0.948959 0.217212 0
0.964569 0.22443 0
0.0332341 0.182864 0.0370642
0.057084 0.185077 0.033814
0.0848249 0.185946 0.031281
0.114611 0.186145 0.0296025
0.146471 0.185962 0.0277104
0.17911 0.185534 0.0264744
0.211978 0.18526 0.0247807
0.243183 0.185733 0.0195773
0.273136 0.187137 0.00915541
0.304936 0.188449 0
0.340581 0.188907 0
0.37998 0.189014 0
0.421271 0.188235 0
0.463004 0.187198 0
0.504387 0.186389 0
0.544533 0.186069 0
0.58294 0.186557 0
0.618601 0.187579 0
0.651789 0.189166 0
0.682887 0.191882 0
0.712398 0.194858 0
0.740261 0.198291 0
0.766812 0.202457 0
0.792203 0.206683 0
0.816312 0.211429 0
0.839277 0.216602 0
0.861585 0.222141 0
0.882475 0.228046 0
0.902617 0.234501 0
0.921386 0.241001 0
0.93904 0.247837 0
0.955734 0.254887 0
0.971176 0.262242 0
0.0352178 0.210575 0.0492561
0.0590372 0.213092 0.0462043
0.0863355 0.214527 0.0435798
0.116152 0.215274 0.0424353
0.147387 0.215671 0.0407874
0.180362 0.21532 0.0391546
0.21387 0.214923 0.0379644
0.248096 0.214603 0.0358892
0.281178 0.215137 0.0301061
0.313588 0.216632 0.0189517
0.347753 0.218143 0.00411994
0.385397 0.21912 0
0.425711 0.219196 0
0.467094 0.218997 0
0.508309 0.218769 0
0.548623 0.219135 0
0.587015 0.220066 0
0.622965 0.221592 0
0.65658 0.22385 0
0.687678 0.226841 0
0.717327 0.230137 0
0.745693 0.234318 0
0.772274 0.238727 0
0.797818 0.243305 0
0.821973 0.248295 0
0.84535 0.253971 0
0.867552 0.259724 0
0.888655 0.266194 0
0.908446 0.272496 0
0.927077 0.279103 0
0.944533 0.286076 0
0.961105 0.293339 0
0.976944 0.301534 0
0.036347 0.23949 0.061326
0.0602731 0.242374 0.0585794
0.0872206 0.244297 0.0560006
0.116976 0.245747 0.0551156
0.147829 0.246433 0.0538491
0.180499 0.246693 0.0522164
0.214771 0.246479 0.0510262
0.249928 0.246174 0.0498512
0.286351 0.246036 0.0475929
0.322164 0.24683 0.0413519
0.357092 0.248432 0.0294957
0.393118 0.250187 0.0140841
0.431754 0.251301 0
0.47219 0.252064 0
0.513359 0.253071 0
0.553201 0.25391 0
0.591302 0.255192 0
0.627497 0.257313 0
0.661189 0.260136 0
0.6925 0.263661 0
0.722347 0.267445 0
0.750454 0.271565 0
0.777096 0.276188 0
0.802701 0.281117 0
0.827024 0.286534 0
0.850568 0.292576 0
0.872572 0.298482 0
0.893248 0.304723 0
0.912932 0.311192 0
0.931426 0.317906 0
0.948592 0.32488 0
0.965408 0.332784 0
0.980346 0.340276 0
0.0366522 0.269703 0.0733654
0.0610819 0.273396 0.0713207
0.0880751 0.276051 0.0691844
0.117159 0.277684 0.0678264
0.148028 0.278737 0.0671092
0.180331 0.279667 0.06598
0.214908 0.280125 0.0648051
0.25124 0.280385 0.0641489
0.288701 0.280156 0.0629587
0.327871 0.280064 0.0603342
0.366171 0.280873 0.0534066
0.403113 0.282551 0.041062
0.440604 0.284581 0.02533
0.479576 0.286534 0.0093843
0.519203 0.288106 0
0.558419 0.289784 0
0.596216 0.291691 0
0.632227 0.294316 0
0.665705 0.297597 0
0.69691 0.301457 0
0.72668 0.305486 0
0.754742 0.309865 0
0.781369 0.314611 0
0.807065 0.319997 0
0.831403 0.32575 0
0.85449 0.331518 0
0.876295 0.337407 0
0.896712 0.343618 0
0.916121 0.350042 0
0.934707 0.356924 0
0.951873 0.364324 0
0.967727 0.371389 0
0.982498 0.378637 0
0.0369421 0.301732 0.0860914
0.0616617 0.305806 0.0844282
0.0887465 0.309071 0.0825818
0.117693 0.311437 0.0813306
0.148623 0.312963 0.0809796
0.180774 0.314336 0.0804303
0.215228 0.31577 0.0796674
0.251987 0.316289 0.0788739
0.290349 0.316365 0.0781872
0.330861 0.316213 0.0769513
0.372534 0.31603 0.0737011
0.412772 0.316899 0.0661479
0.451667 0.319005 0.0537575
0.489342 0.321386 0.0385748
0.527245 0.323781 0.0234989
0.565225 0.326238 0.0101625
0.602426 0.329091 0
0.637934 0.332387 0
0.670771 0.335775 0
0.701442 0.339666 0
0.730922 0.343893 0
0.758816 0.348486 0
0.785595 0.353719 0
0.811032 0.359213 0
0.834928 0.364599 0
0.857603 0.370245 0
0.879026 0.37615 0
0.899275 0.382223 0
0.918776 0.388983 0
0.93695 0.395621 0
0.953536 0.402304 0
0.968978 0.40911 0
0.983291 0.416114 0
0.0374762 0.335241 0.0995499
0.0625925 0.339773 0.0981155
0.0897841 0.343587 0.0967575
0.11873 0.3467 0.0959029
0.149996 0.349325 0.0961318
0.18233 0.351156 0.0961929
0.216144 0.352712 0.0956741
0.252613 0.353765 0.0947738
0.292073 0.354467 0.0943618
0.333211 0.354437 0.0935225
0.37673 0.354223 0.0918441
0.420127 0.353918 0.0878767
0.461631 0.354757 0.0798199
0.500526 0.356878 0.0678264
0.537743 0.35967 0.0537423
0.574441 0.362982 0.0403601
0.61033 0.366522 0.028687
0.644572 0.369894 0.0188754
0.6766 0.373709 0.0112306
0.706737 0.377844 0.0053254
0.735607 0.382193 0.000518807
0.763485 0.38732 0
0.789715 0.392432 0
0.814511 0.397528 0
0.838102 0.402823 0
0.860334 0.408362 0
0.881468 0.414282 0
0.901839 0.420417 0
0.920501 0.426596 0
0.938064 0.432776 0
0.95433 0.439124 0
0.969421 0.445792 0.0028687
0.983536 0.452476 0.00656138
0.0392767 0.370367 0.114519
0.0650034 0.375326 0.113664
0.092256 0.379553 0.112657
0.121355 0.38352 0.112291
0.15227 0.386496 0.112337
0.184863 0.3888 0.112947
0.218692 0.390799 0.112978
0.254719 0.39234 0.112337
0.294102 0.393332 0.111559
0.336339 0.393759 0.110887
0.380087 0.393347 0.109483
0.425299 0.392569 0.107149
0.469749 0.392294 0.102434
0.511208 0.393423 0.0943923
0.549859 0.396002 0.0834974
0.58616 0.399451 0.0711833
0.620417 0.402945 0.0591745
0.653223 0.406683 0.0487221
0.684184 0.410727 0.0404059
0.713542 0.415045 0.0339513
0.742199 0.420188 0.0292668
0.768948 0.424842 0.0249943
0.794385 0.429648 0.0217746
0.818555 0.434623 0.0194553
0.841657 0.439704 0.0179446
0.863752 0.445411 0.0173953
0.884459 0.451164 0.0175174
0.904051 0.456672 0.0178836
0.922194 0.462348 0.0187533
0.939116 0.468147 0.0202182
0.955352 0.474342 0.0226444
0.970077 0.480629 0.0252689
0.983795 0.4869 0.0284733
0.0428168 0.406302 0.130968
0.0688792 0.411688 0.130556
0.0966964 0.416876 0.130404
0.125597 0.421042 0.130068
0.156283 0.42443 0.130053
0.188815 0.427085 0.130755
0.222934 0.429587 0.131456
0.259083 0.431891 0.131563
0.297765 0.433005 0.13048
0.339864 0.433112 0.129015
0.384146 0.432654 0.127596
0.429725 0.431861 0.125658
0.476188 0.430869 0.122713
0.520729 0.431464 0.118181
0.561151 0.432715 0.110231
0.598108 0.435142 0.100053
0.632136 0.438468 0.0891127
0.663981 0.442267 0.0788434
0.693828 0.44651 0.070222
0.722606 0.451453 0.0636912
0.749645 0.455894 0.0576333
0.775494 0.460472 0.0526284
0.800214 0.465141 0.0488136
0.823682 0.469947 0.0458381
0.846326 0.475273 0.0440986
0.86775 0.480446 0.0428168
0.887663 0.485527 0.0419165
0.906569 0.490715 0.0416419
0.924514 0.496132 0.042237
0.941176 0.501732 0.0432441
0.956527 0.507347 0.0448463
0.970901 0.512993 0.0468299
0.983932 0.518654 0.0493019
0.0486458 0.443183 0.14934
0.0750439 0.448997 0.149355
0.102724 0.4542 0.149203
0.131716 0.458839 0.149187
0.16231 0.462669 0.149294
0.194644 0.465675 0.149874
0.229053 0.46862 0.15111
0.264729 0.470695 0.15111
0.302831 0.472038 0.150103
0.344457 0.472343 0.148318
0.389029 0.471717 0.14641
0.435142 0.47097 0.144671
0.482246 0.470146 0.142473
0.528237 0.469123 0.138979
0.570687 0.469261 0.133501
0.609201 0.47068 0.125872
0.644053 0.473182 0.116884
0.67602 0.476875 0.107912
0.70547 0.481117 0.0997024
0.732662 0.485359 0.0923476
0.758709 0.489693 0.085832
0.783673 0.494072 0.0801709
0.80766 0.498848 0.0758679
0.830472 0.5037 0.0724498
0.852003 0.508309 0.0696117
0.87245 0.512993 0.0675212
0.892103 0.517891 0.0661479
0.91043 0.522713 0.0652628
0.927626 0.527596 0.0649271
0.943816 0.532753 0.0654765
0.958648 0.53782 0.0663767
0.972702 0.543191 0.0680247
0.985458 0.548257 0.0697795
0.0566567 0.480339 0.169284
0.083238 0.486183 0.169314
0.110933 0.491554 0.169314
0.139818 0.496391 0.169375
0.17052 0.500771 0.169818
0.202899 0.50454 0.170703
0.236606 0.50695 0.171405
0.271916 0.508873 0.171405
0.309651 0.51017 0.170352
0.350744 0.510506 0.168276
0.395682 0.510246 0.166201
0.442039 0.509178 0.16405
0.488701 0.507622 0.161349
0.534874 0.506111 0.158312
0.579049 0.505165 0.154238
0.619135 0.505608 0.148684
0.655634 0.507713 0.142138
0.687892 0.510277 0.134432
0.71696 0.513573 0.126604
0.743572 0.517342 0.119417
0.76907 0.521492 0.112871
0.79324 0.525765 0.107012
0.816312 0.530266 0.102174
0.838117 0.534447 0.0978103
0.858701 0.538674 0.0941634
0.878553 0.543252 0.0915847
0.897169 0.547616 0.0892805
0.914916 0.552056 0.0877546
0.931868 0.556634 0.0870985
0.947341 0.561334 0.0869306
0.96173 0.565759 0.087129
0.974929 0.570397 0.0879683
0.987411 0.575113 0.0891432
0.066804 0.51693 0.190448
0.0933394 0.522957 0.190738
0.121019 0.528481 0.190845
0.149996 0.5337 0.19118
0.180545 0.538323 0.191623
0.212299 0.541711 0.191775
0.245823 0.544121 0.192157
0.281041 0.545892 0.192035
0.31841 0.547021 0.190845
0.359411 0.547784 0.189059
0.403433 0.547021 0.186099
0.449485 0.545373 0.183108
0.496178 0.54342 0.180087
0.542092 0.541558 0.176928
0.587121 0.540215 0.173785
0.628626 0.539773 0.169512
0.665553 0.540322 0.163897
0.698436 0.541955 0.157488
0.728008 0.544442 0.15082
0.754849 0.547906 0.144579
0.779782 0.551293 0.137926
0.803388 0.555169 0.132006
0.825467 0.558923 0.126528
0.846708 0.563073 0.122042
0.866606 0.566979 0.117937
0.885481 0.57084 0.114427
0.903609 0.574929 0.11165
0.920714 0.57911 0.109636
0.936721 0.583124 0.108019
0.951736 0.587213 0.107195
0.965881 0.591592 0.106996
0.978729 0.59585 0.107332
0.990936 0.600244 0.108324
0.0790112 0.552911 0.212757
0.10547 0.558923 0.213031
0.133379 0.564843 0.213535
0.162097 0.570016 0.213733
0.191989 0.574197 0.21355
0.223346 0.577523 0.213367
0.256458 0.579843 0.213306
0.29163 0.581552 0.213169
0.329076 0.582818 0.212146
0.368994 0.582788 0.209476
0.412177 0.58172 0.205783
0.457862 0.579736 0.201938
0.504646 0.577539 0.198596
0.550515 0.575418 0.195346
0.594949 0.573434 0.191943
0.636988 0.571862 0.188067
0.674617 0.571466 0.183383
0.708339 0.572381 0.178241
0.73817 0.573938 0.172351
0.765209 0.576516 0.166674
0.790204 0.579324 0.160586
0.813535 0.582635 0.154955
0.835172 0.585779 0.149294
0.855436 0.589059 0.144106
0.874632 0.592462 0.139559
0.893355 0.596521 0.136217
0.910735 0.600092 0.13283
0.927016 0.603708 0.130083
0.942702 0.607462 0.128115
0.957107 0.611215 0.126741
0.970626 0.615076 0.125902
0.983413 0.619242 0.126116
0.995239 0.623514 0.126848
0.0923934 0.588067 0.235538
0.11928 0.594491 0.23621
0.146502 0.599817 0.236103
0.17467 0.604578 0.235859
0.204166 0.608591 0.235401
0.235035 0.611795 0.234791
0.26807 0.61442 0.234653
0.302922 0.615763 0.234119
0.339574 0.61619 0.232273
0.378927 0.615747 0.22916
0.421454 0.614328 0.224979
0.467018 0.612299 0.220798
0.513588 0.609537 0.216693
0.559075 0.60679 0.212802
0.602838 0.604135 0.20882
0.644846 0.602213 0.205295
0.683207 0.6009 0.201022
0.717144 0.600763 0.196338
0.747539 0.601694 0.191363
0.774731 0.603494 0.186358
0.799603 0.605386 0.180621
0.822614 0.607752 0.175021
0.843992 0.610468 0.169574
0.864256 0.613626 0.164706
0.883238 0.616831 0.16022
0.900923 0.619883 0.155962
0.918074 0.62324 0.152483
0.933959 0.626627 0.149493
0.948989 0.630045 0.147082
0.963302 0.633875 0.145724
0.976577 0.637476 0.144579
0.988632 0.641123 0.144152
0.999863 0.644923 0.144381
0.106569 0.62266 0.25864
0.132403 0.628183 0.258442
0.159289 0.63328 0.258015
0.187091 0.637797 0.25742
0.216464 0.641886 0.256886
0.246983 0.644846 0.255894
0.279362 0.646952 0.254978
0.313573 0.647715 0.253788
0.349859 0.64773 0.251652
0.389044 0.647181 0.248447
0.430808 0.645335 0.243702
0.475685 0.642786 0.238636
0.521798 0.639353 0.233478
0.567056 0.63621 0.229191
0.610529 0.633219 0.224964
0.651743 0.630472 0.220798
0.690364 0.628397 0.216724
0.72488 0.627771 0.212757
0.755215 0.627802 0.20824
0.782589 0.628611 0.203464
0.807767 0.629969 0.198352
0.83093 0.631861 0.193256
0.852415 0.634043 0.188205
0.872312 0.636515 0.183261
0.891234 0.639384 0.178897
0.908736 0.642191 0.174701
0.925261 0.64506 0.170855
0.940932 0.648295 0.167773
0.955734 0.651591 0.165301
0.969512 0.654841 0.163394
0.982391 0.65832 0.162127
0.994278 0.661875 0.161517
1 0.665354 0.161395
0.120485 0.655131 0.28072
0.145876 0.660288 0.280156
0.172305 0.665034 0.279362
0.199878 0.669444 0.278584
0.228779 0.673213 0.277607
0.258793 0.675807 0.276081
0.290394 0.677378 0.274296
0.324361 0.677974 0.272648
0.360281 0.677409 0.269871
0.398825 0.676127 0.265919
0.44033 0.674128 0.260945
0.484398 0.671244 0.255451
0.52987 0.667292 0.249607
0.574487 0.663325 0.244388
0.617655 0.659632 0.239506
0.658763 0.656886 0.235447
0.697002 0.654505 0.231479
0.731517 0.652796 0.227283
0.761975 0.652186 0.223148
0.7897 0.652445 0.218891
0.815045 0.653162 0.214206
0.838407 0.654566 0.209583
0.860197 0.656504 0.205112
0.880156 0.658366 0.200412
0.898619 0.660548 0.195834
0.916167 0.663233 0.191943
0.932555 0.665858 0.188098
0.947967 0.668818 0.185
0.962554 0.671885 0.182406
0.975967 0.6748 0.180224
0.988373 0.677897 0.178653
1 0.681346 0.17792
1 0.684794 0.177783
0.133745 0.685954 0.301732
0.158984 0.691051 0.301122
0.184894 0.695369 0.299855
0.211963 0.699382 0.298619
0.240055 0.702358 0.296712
0.269734 0.704692 0.294789
0.301076 0.70602 0.292699
0.334524 0.705943 0.290211
0.370169 0.70489 0.286931
0.408606 0.703395 0.282704
0.44921 0.700694 0.27689
0.492393 0.697139 0.270405
0.537453 0.692897 0.263996
0.582071 0.688838 0.258625
0.624826 0.685008 0.253727
0.665248 0.681361 0.248814
0.702892 0.678508 0.244587
0.737804 0.676493 0.240803
0.76846 0.675395 0.236988
0.796353 0.675105 0.233051
0.822034 0.675593 0.229099
0.845304 0.676326 0.224689
0.866911 0.677501 0.220233
0.887129 0.679301 0.216083
0.905898 0.681071 0.21178
0.923232 0.683268 0.207874
0.939651 0.685802 0.204288
0.954757 0.688243 0.200977
0.969024 0.690913 0.198199
0.982376 0.693736 0.196078
0.994537 0.696559 0.194354
1 0.699901 0.19353
1 0.702998 0.193057
0.146944 0.715236 0.322103
0.171618 0.719738 0.320851
0.197009 0.723613 0.319219
0.223377 0.726986 0.317266
0.251102 0.729915 0.315129
0.280049 0.731655 0.312413
0.310689 0.732341 0.309377
0.343999 0.732204 0.306569
0.379522 0.730785 0.302922
0.417334 0.728481 0.298009
0.457588 0.725338 0.291844
0.500267 0.721675 0.285023
0.545007 0.71696 0.277867
0.589364 0.712459 0.271839
0.631708 0.708263 0.266484
0.671672 0.704631 0.261677
0.709026 0.701366 0.257099
0.743313 0.69897 0.253391
0.774441 0.69749 0.249836
0.802426 0.696849 0.246326
0.828107 0.69662 0.242374
0.851835 0.697139 0.238529
0.873503 0.697826 0.234302
0.893767 0.699168 0.230381
0.912566 0.700694 0.226368
0.930068 0.702464 0.222568
0.946288 0.704631 0.219181
0.961318 0.706737 0.215839
0.975418 0.709102 0.213016
0.988525 0.711727 0.210849
1 0.714443 0.209216
1 0.717357 0.208057
1 0.720165 0.207355
0.159258 0.74255 0.3411
0.183337 0.746654 0.339452
0.208209 0.750072 0.337224
0.233906 0.75285 0.33463
0.261006 0.755016 0.331731
0.289708 0.756619 0.32871
0.320378 0.757427 0.325673
0.353079 0.756542 0.321889
0.388281 0.754437 0.31751
0.426108 0.751888 0.312261
0.466133 0.748425 0.305699
0.508385 0.744274 0.29839
0.552895 0.739879 0.291432
0.596445 0.734905 0.284733
0.63859 0.73019 0.278798
0.678248 0.726406 0.273869
0.714992 0.723033 0.269276
0.749264 0.72047 0.265415
0.780468 0.718654 0.261997
0.80824 0.717418 0.258457
0.834089 0.716731 0.254688
0.857954 0.716869 0.251148
0.879789 0.71725 0.247272
0.900053 0.718105 0.243427
0.918883 0.719402 0.239826
0.936309 0.720745 0.236042
0.95256 0.722576 0.232853
0.967575 0.72433 0.229618
0.981537 0.726375 0.22678
0.994644 0.728878 0.224735
1 0.731228 0.222858
1 0.733928 0.221668
1 0.736492 0.220829
0.170642 0.767926 0.358694
0.194064 0.771359 0.356344
0.21857 0.774365 0.353674
0.24416 0.777081 0.35111
0.270985 0.779004 0.34789
0.299214 0.780056 0.344244
0.32929 0.780133 0.340276
0.361898 0.779339 0.336263
0.39707 0.776989 0.331594
0.434546 0.773861 0.325811
0.474739 0.770428 0.319341
0.516609 0.765972 0.31165
0.560464 0.760891 0.303685
0.604074 0.755993 0.29691
0.645624 0.751141 0.290791
0.684794 0.746777 0.28542
0.721416 0.743587 0.281056
0.754986 0.740627 0.27686
0.78558 0.738384 0.273304
0.813794 0.737026 0.269993
0.839658 0.735973 0.266346
0.8636 0.735744 0.262974
0.885649 0.735851 0.259419
0.905837 0.736202 0.25565
0.924681 0.737133 0.252186
0.942107 0.738094 0.248524
0.958343 0.739635 0.245441
0.973465 0.741192 0.24239
0.987686 0.74313 0.239887
1 0.745052 0.237507
1 0.747082 0.235416
1 0.749538 0.234211
1 0.751888 0.233326
0.181338 0.791409 0.375097
0.204501 0.794644 0.372625
0.228428 0.797223 0.369482
0.25359 0.799512 0.366293
0.280125 0.801129 0.362707
0.30837 0.802167 0.358938
0.338231 0.801953 0.354528
0.370459 0.800565 0.349859
0.405966 0.798047 0.34493
0.443732 0.794797 0.338964
0.483436 0.790753 0.331777
0.525124 0.786297 0.32401
0.568139 0.781033 0.315862
0.611231 0.775769 0.308614
0.652888 0.770748 0.302235
0.691722 0.766461 0.296834
0.727855 0.762814 0.292058
0.760494 0.759808 0.287739
0.790906 0.75729 0.284153
0.819226 0.755581 0.280949
0.845121 0.754391 0.277638
0.869047 0.75375 0.274327
0.890959 0.753353 0.270741
0.911406 0.753353 0.267079
0.930343 0.753994 0.263783
0.947616 0.754711 0.260349
0.964065 0.755978 0.257328
0.978958 0.757153 0.254185
0.993011 0.758801 0.251637
1 0.760433 0.249348
1 0.762402 0.24741
1 0.764401 0.245975
1 0.766827 0.245274
0.191623 0.813504 0.390677
0.214221 0.816327 0.387701
0.238346 0.81912 0.384802
0.263035 0.820935 0.381064
0.289189 0.822141 0.376974
0.317296 0.822736 0.372717
0.347158 0.822507 0.368124
0.379644 0.820981 0.363119
0.415122 0.81825 0.3579
