luts/1771694535954-Rezz05.cube
TITLE "Generated by Resolve"
LUT_3D_SIZE 5
0.00851453 0.002533 0
0.250584 0.00250248 0
0.564843 0 0
0.785046 0 0
0.924819 0.0252232 0
0.0352178 0.210575 0.0492561
0.281178 0.215137 0.0301061
0.587015 0.220066 0
0.821973 0.248295 0
0.976944 0.301534 0
0.0566567 0.480339 0.169284
0.309651 0.51017 0.170352
0.655634 0.507713 0.142138
0.858701 0.538674 0.0941634
0.987411 0.575113 0.0891432
0.159258 0.74255 0.3411
0.388281 0.754437 0.31751
0.714992 0.723033 0.269276
0.918883 0.719402 0.239826
1 0.736492 0.220829
0.239948 0.906966 0.459846
0.461616 0.901366 0.413855
0.766842 0.856855 0.350469
0.960266 0.837385 0.320058
1 0.838102 0.299519
0 0.0199283 0.0427253
0.20824 0.0175631 0.0865034
0.528206 0 0
0.753414 0.00698863 0
0.89453 0.0391089 0
0.0648661 0.206775 0.169482
0.23798 0.238788 0.196643
0.566186 0.23856 0.110307
0.804013 0.268254 0.0865034
0.95761 0.320607 0.114244
0.0914778 0.470573 0.320668
0.283009 0.531807 0.342046
0.614084 0.533425 0.312276
0.819135 0.560372 0.261967
0.949081 0.592203 0.259724
0.181292 0.724544 0.493629
0.355962 0.761334 0.481102
0.657954 0.743099 0.42623
0.867613 0.735271 0.400061
0.974685 0.751232 0.379873
0.254047 0.879286 0.615732
0.420935 0.90045 0.579355
0.701015 0.872969 0.508049
0.900618 0.850019 0.474525
1 0.848341 0.455161
0 0.0377203 0.162921
0.13196 0.0450294 0.25304
0.459693 0.0164797 0.250248
0.681712 0.0256352 0.211688
0.823301 0.0599069 0.223865
0.0426642 0.217777 0.276967
0.207477 0.254765 0.314717
0.509606 0.260349 0.383932
0.749615 0.290913 0.364385
0.905303 0.34226 0.391455
0.123644 0.467948 0.450797
0.308766 0.510552 0.489479
0.549661 0.559701 0.531899
0.772168 0.57586 0.494743
0.903929 0.603433 0.495995
0.220706 0.701244 0.630671
0.376394 0.718715 0.637629
0.589258 0.757794 0.636957
0.793698 0.752163 0.610239
0.900923 0.766323 0.587549
0.289708 0.846754 0.748211
0.434638 0.851911 0.737026
0.632197 0.878996 0.713375
0.815106 0.865415 0.673976
0.927794 0.859525 0.659266
0 0.0542763 0.245869
0.101884 0.0668345 0.320089
0.422889 0.0362097 0.39852
0.648493 0.0436103 0.384787
0.795239 0.0796979 0.398779
0.0320897 0.237491 0.359686
0.192355 0.270817 0.396521
0.476493 0.288014 0.528572
0.721584 0.314946 0.545007
0.87715 0.36582 0.570184
0.131151 0.487663 0.53434
0.305837 0.522774 0.564462
0.535698 0.572427 0.610147
0.737545 0.592096 0.670268
0.869551 0.617044 0.666682
0.232136 0.706416 0.705425
0.387091 0.716899 0.710414
0.59968 0.736782 0.723354
0.750408 0.7664 0.747814
0.866575 0.775769 0.729931
0.300969 0.843748 0.816083
0.446479 0.840345 0.805463
0.637537 0.845853 0.800046
0.772061 0.872847 0.805127
0.877913 0.868833 0.789319
0 0.0705425 0.297093
0.098497 0.0839094 0.364675
0.412055 0.0554055 0.475776
0.637644 0.0636454 0.476646
0.787961 0.101457 0.49984
0.0348211 0.257298 0.41268
0.196002 0.290806 0.451057
0.4663 0.31603 0.595941
0.715419 0.341466 0.640726
0.870329 0.389746 0.673152
0.141726 0.510323 0.58941
0.313161 0.543526 0.617441
0.531487 0.584405 0.656046
0.722103 0.610773 0.74995
0.854704 0.631312 0.763058
0.24007 0.718059 0.751614
0.393027 0.726284 0.754131
0.593912 0.736522 0.756481
0.746319 0.772625 0.78912
0.848035 0.784924 0.822171
0.306508 0.848905 0.857191
0.45127 0.843091 0.844892
0.634806 0.836286 0.829953
0.77995 0.862409 0.852445
0.856138 0.875257 0.86154
