luts/1771694145769-Flex02.cube
TITLE "Generated by Resolve"
LUT_3D_SIZE 33
0 0.00891127 0.0713207
0 0.00968948 0.0709087
0 0.0112917 0.0711833
0 0.0128786 0.0714122
0 0.0137636 0.0710765
0 0.0137179 0.0699474
0 0.012604 0.0679026
0.0332036 0.0106661 0.0651713
0.0977493 0.00857557 0.0623026
0.162982 0.00688182 0.0597543
0.224491 0.00518807 0.0576028
0.283864 0.00411994 0.0551614
0.340154 0.0028687 0.0529641
0.390188 0.00202945 0.0510872
0.430137 0.00175479 0.0496681
0.470237 0.002121 0.0487831
0.509865 0.00306706 0.0483558
0.548974 0.00477607 0.0485695
0.587335 0.00688182 0.049485
0.624826 0.0103304 0.0511177
0.661799 0.0148165 0.0535897
0.697383 0.0197757 0.0564431
0.731945 0.0253758 0.0594186
0.765438 0.0315404 0.0632334
0.798032 0.038117 0.0673686
0.830076 0.0451514 0.0718547
0.861387 0.0522621 0.0763867
0.892058 0.059266 0.0808118
0.922591 0.066392 0.0853132
0.953307 0.0736553 0.0898756
0.984405 0.0809491 0.0944533
1 0.0884871 0.0991684
1 0.0959182 0.103777
0 0.024918 0.0720836
0 0.0250095 0.0720989
0 0.0267033 0.0723888
0 0.0282139 0.0725261
0 0.0293126 0.072282
0 0.0295415 0.0713207
0 0.0287633 0.0694896
0.0301823 0.0273136 0.0670634
0.0960555 0.0256046 0.0644236
0.162387 0.0243076 0.0621042
0.225452 0.023209 0.0599374
0.286381 0.0224002 0.0579843
0.344137 0.021973 0.0567483
0.394583 0.0221561 0.0555734
0.43566 0.0227359 0.0547341
0.476753 0.0239414 0.0543832
0.517617 0.0258946 0.0546273
0.557916 0.0286107 0.0555123
0.597436 0.0322118 0.057084
0.636072 0.0366674 0.0589303
0.673335 0.0415961 0.0615702
0.709422 0.0471351 0.064683
0.744289 0.0531624 0.0681621
0.777905 0.0596017 0.0719768
0.810651 0.0664683 0.0760662
0.842435 0.0734417 0.0802167
0.873487 0.0805066 0.0844129
0.90425 0.0878004 0.088777
0.934981 0.0952773 0.0932326
0.965896 0.102861 0.0977493
0.997513 0.110735 0.102403
1 0.118349 0.106828
1 0.126085 0.111345
0 0.0418555 0.0730907
0 0.0420539 0.0731212
0 0.0424506 0.0733349
0 0.0442054 0.0735332
0 0.045655 0.0734569
0 0.0463569 0.0727398
0 0.0462654 0.0713054
0.026627 0.0452583 0.0690929
0.0940719 0.0441749 0.0667887
0.162234 0.0436103 0.0648966
0.227008 0.0433509 0.0632334
0.289525 0.0434272 0.0618143
0.349081 0.0441138 0.0608377
0.399069 0.0451057 0.0601205
0.441352 0.0466926 0.0598764
0.483619 0.0489357 0.0601358
0.525551 0.0518349 0.0608988
0.566857 0.0554665 0.0622263
0.607248 0.0599222 0.0641947
0.646097 0.0647898 0.0664683
0.68365 0.0701762 0.0691691
0.719844 0.0760204 0.0721752
0.754635 0.0822156 0.0754559
0.788312 0.0889601 0.0790875
0.82063 0.0957504 0.0827649
0.852262 0.102876 0.0866865
0.883421 0.110323 0.0908217
0.914305 0.117998 0.0950942
0.945296 0.125978 0.0995499
0.976516 0.134066 0.104036
1 0.141985 0.10837
1 0.149813 0.112581
1 0.157855 0.116915
0 0.0596017 0.0733806
0 0.0599985 0.0734722
0 0.0606241 0.0737774
0 0.061326 0.0741436
0 0.0633249 0.0742962
0 0.0648966 0.0740215
0 0.0654459 0.0728771
0.0225986 0.0652781 0.0710918
0.091783 0.0650645 0.0692302
0.161837 0.0654002 0.0677958
0.228855 0.0663005 0.066743
0.292927 0.0673991 0.0658579
0.353246 0.0689403 0.0652781
0.403281 0.0710002 0.0651102
0.446616 0.073579 0.0653239
0.489799 0.0766766 0.065919
0.532845 0.0805829 0.0670939
0.574563 0.0847486 0.0684977
0.615 0.0894636 0.0703136
0.653986 0.0946365 0.0724651
0.691478 0.100175 0.0748913
0.727474 0.106081 0.0775311
0.762295 0.112596 0.0805982
0.795605 0.119371 0.0838941
0.828 0.126558 0.08748
0.859678 0.134081 0.09131
0.890852 0.141878 0.0953078
0.921904 0.150042 0.0995193
0.952987 0.158404 0.103822
0.984085 0.166613 0.108034
1 0.174792 0.112169
1 0.182879 0.116182
1 0.19115 0.120317
0 0.0790265 0.0726177
0 0.0797894 0.0728923
0 0.0808423 0.0733959
0 0.0821088 0.074052
0 0.0831922 0.0745708
0 0.0855573 0.0746166
0 0.0871443 0.073991
0.017258 0.0879988 0.072694
0.0881514 0.088777 0.0712902
0.160678 0.0903334 0.0704204
0.229038 0.0921645 0.0697795
0.294697 0.0943313 0.069398
0.356252 0.0968643 0.069276
0.406409 0.099794 0.0694285
0.450477 0.103105 0.0698405
0.494621 0.107103 0.0706798
0.537667 0.111192 0.0716411
0.579568 0.115663 0.0728771
0.619974 0.120531 0.0743877
0.658763 0.125689 0.0760967
0.696117 0.131334 0.0781567
0.732357 0.137758 0.0807355
0.766964 0.144411 0.0835737
0.800351 0.151553 0.0867628
0.832807 0.159091 0.0902571
0.864561 0.166964 0.0939803
0.896117 0.175433 0.0980697
0.927123 0.183719 0.102083
0.958099 0.192111 0.106172
0.989334 0.200549 0.110246
1 0.208911 0.11426
1 0.217304 0.118227
1 0.225925 0.122347
0 0.100969 0.070634
0 0.102312 0.0711986
0 0.104112 0.0720989
0 0.105989 0.0730907
0 0.107683 0.0739452
0 0.109026 0.0745098
0 0.111772 0.0744335
0.0101625 0.113787 0.0736858
0.0833753 0.115908 0.0728923
0.157412 0.118364 0.0724041
0.227512 0.121187 0.0721904
0.29453 0.124254 0.0721141
0.357092 0.12755 0.0722057
0.40795 0.131334 0.0725567
0.452537 0.135149 0.0729534
0.496574 0.139132 0.0734875
0.539727 0.143343 0.0741741
0.581567 0.147784 0.0749981
0.621927 0.152636 0.0761578
0.661204 0.158358 0.0778821
0.698741 0.164309 0.079881
0.73492 0.170779 0.0823072
0.769711 0.177737 0.0851148
0.803265 0.185168 0.0882887
0.83592 0.192981 0.091783
0.868101 0.201419 0.0956436
0.89955 0.209751 0.0995346
0.930739 0.218219 0.103532
0.961929 0.226764 0.107591
0.993393 0.235294 0.111635
1 0.24387 0.115633
1 0.252506 0.119631
1 0.26099 0.123598
0 0.126329 0.0676738
0 0.128573 0.0687419
0 0.130999 0.0700236
0 0.133547 0.0714122
0 0.135973 0.0727092
0 0.138033 0.0736858
0 0.139712 0.0742809
0.00190738 0.143069 0.0742046
0.0762646 0.145998 0.0737926
0.152117 0.14931 0.0736858
0.223865 0.15288 0.0737469
0.292119 0.156527 0.0738384
0.356008 0.160494 0.0740826
0.407324 0.164355 0.0742657
0.45211 0.1682 0.0744488
0.496223 0.172091 0.0746471
0.539483 0.176211 0.0750286
0.581674 0.180819 0.0757916
0.622797 0.186267 0.0771191
0.662135 0.191943 0.0787518
0.700038 0.198123 0.0808118
0.736538 0.204807 0.0832837
0.771649 0.211978 0.0861677
0.805524 0.219593 0.0894331
0.838743 0.227924 0.0931563
0.870939 0.236164 0.0969406
0.902663 0.244617 0.100908
0.934157 0.253208 0.104982
0.965667 0.261845 0.109071
0.997742 0.270817 0.113298
1 0.279301 0.117235
1 0.287678 0.12108
1 0.296162 0.124971
0 0.155322 0.0646067
0 0.158221 0.0661326
0 0.16144 0.0679484
0 0.164797 0.0698558
0 0.168002 0.0716564
0 0.170932 0.0731518
0 0.173266 0.0741588
0 0.174777 0.0745403
0.0682536 0.178439 0.0745403
0.145602 0.182284 0.0746471
0.218921 0.186267 0.074876
0.288777 0.190478 0.0751354
0.353079 0.194247 0.0751659
0.405249 0.197894 0.0750744
0.450278 0.201602 0.0750439
0.494896 0.205585 0.0752422
0.539025 0.210147 0.0758526
0.581888 0.215015 0.0767681
0.62324 0.22031 0.0780957
0.663096 0.226139 0.0798657
0.701473 0.232486 0.0820478
0.738384 0.239338 0.0846265
0.774121 0.247013 0.0877546
0.808286 0.254826 0.0910964
0.841474 0.262959 0.0946822
0.873884 0.271351 0.0984817
0.905776 0.279911 0.102419
0.937407 0.288579 0.106416
0.969345 0.297658 0.110597
1 0.306294 0.114534
1 0.314778 0.118334
1 0.323171 0.122042
1 0.331609 0.12578
0 0.187396 0.0626383
0 0.191135 0.0647898
0 0.195132 0.067155
0 0.199252 0.0696117
0 0.203296 0.071931
0 0.206531 0.0736858
0 0.209079 0.0748455
0.000671397 0.21088 0.0754101
0.0604257 0.212238 0.0756237
0.139223 0.216373 0.0758984
0.21413 0.220554 0.0762036
0.284215 0.224292 0.0762036
0.34931 0.227893 0.0760662
0.402991 0.231586 0.0760052
0.448661 0.235492 0.0760967
0.494118 0.239872 0.0764782
0.538705 0.244541 0.0771038
0.581979 0.249516 0.0780346
0.623758 0.255009 0.0793774
0.663981 0.261036 0.0811322
0.702678 0.267552 0.0833143
0.740154 0.274891 0.0860304
0.775876 0.282429 0.0890059
0.810208 0.290333 0.0923018
0.843534 0.298573 0.0958419
0.876097 0.307042 0.0995804
0.908125 0.315694 0.103441
0.940169 0.324788 0.107515
0.971908 0.333486 0.111406
1 0.342107 0.11519
1 0.350561 0.118822
1 0.358938 0.122393
1 0.367681 0.126101
0 0.22211 0.0628367
0 0.226459 0.0654307
0 0.231037 0.0682078
0 0.235828 0.0710613
0 0.239948 0.0734569
0 0.243381 0.0753033
0 0.246006 0.076463
0.0101625 0.247822 0.0769513
0.0708629 0.249287 0.0771038
0.132464 0.250751 0.0771954
0.207813 0.254627 0.0771954
0.278828 0.258457 0.0771038
0.345129 0.262318 0.0770275
0.400488 0.266255 0.0770123
0.447044 0.270695 0.0772564
0.49279 0.275044 0.0775616
0.537713 0.279744 0.0781415
0.581476 0.284871 0.079057
0.623682 0.290517 0.0803998
0.664469 0.29688 0.0822309
0.703609 0.303655 0.0844282
0.741054 0.31078 0.0869764
0.776944 0.318379 0.0898909
0.811475 0.326375 0.0931258
0.844953 0.334661 0.0966049
0.877836 0.343481 0.100374
0.910002 0.352209 0.104158
0.941848 0.360937 0.107958
0.973678 0.369635 0.111696
1 0.378195 0.115328
1 0.386481 0.118715
1 0.395224 0.122286
1 0.403494 0.125612
0 0.258991 0.0639811
0 0.264118 0.0669566
0 0.26894 0.0698405
0 0.273579 0.0725872
0 0.277745 0.0749218
0 0.281102 0.0766003
0 0.283543 0.0775006
0.0185855 0.285466 0.0778668
0.0796521 0.286763 0.077821
0.141451 0.288136 0.0778515
0.200519 0.289555 0.0779431
0.272755 0.293614 0.0779278
0.340429 0.297765 0.0779126
0.397833 0.302113 0.0780194
0.444556 0.306371 0.0781415
0.490806 0.310887 0.0784466
0.536202 0.315694 0.078996
0.580407 0.320912 0.079881
0.623194 0.326833 0.0812543
0.664317 0.333242 0.0830243
0.703624 0.339971 0.0851301
0.741314 0.347143 0.087602
0.777401 0.354772 0.0904402
0.812085 0.362799 0.0935836
0.845914 0.371405 0.0970932
0.878737 0.380026 0.100679
0.910918 0.388663 0.104295
0.942794 0.39736 0.107927
0.974655 0.405982 0.111513
1 0.414466 0.114946
1 0.422995 0.118288
1 0.431159 0.121462
1 0.439185 0.124544
0 0.29752 0.0654002
0 0.302373 0.0681926
0 0.307179 0.0709697
0 0.311681 0.0735027
0 0.315724 0.0756542
0 0.319036 0.0771954
0 0.321843 0.078172
0.0259098 0.323583 0.0784314
0.0878309 0.325017 0.0784314
0.15024 0.326558 0.0785229
0.209369 0.328115 0.0786297
0.266148 0.329686 0.078706
0.335317 0.334157 0.0788128
0.394385 0.338399 0.0788128
0.441581 0.342779 0.0789197
0.488319 0.347372 0.0791943
0.534203 0.352285 0.0797284
0.579202 0.357916 0.080705
0.622187 0.363684 0.0819257
0.663478 0.36994 0.0835584
0.70309 0.376699 0.0855879
0.741024 0.383902 0.0879835
0.777447 0.391745 0.0907912
0.812421 0.399954 0.093904
0.846098 0.40824 0.0971695
0.878935 0.416724 0.100572
0.911162 0.425299 0.104036
0.943069 0.433845 0.107485
0.975113 0.442542 0.110979
1 0.450904 0.114244
1 0.458839 0.117174
1 0.466758 0.120119
1 0.474495 0.122911
0 0.335958 0.0660868
0 0.34081 0.0688029
0 0.345708 0.0715648
0 0.350408 0.0741741
0 0.35494 0.0764935
0 0.358343 0.0780499
0 0.360876 0.0788586
0.0333104 0.362707 0.0791028
0.0960403 0.364279 0.0791333
0.158968 0.365957 0.0792706
0.218692 0.367941 0.0795148
0.275441 0.369497 0.0795605
0.329259 0.371008 0.0795758
0.390539 0.375372 0.0795911
0.438209 0.379828 0.0796674
0.485466 0.384527 0.0799268
0.532097 0.389761 0.0804913
0.577173 0.395087 0.0812695
0.620569 0.40087 0.082414
0.662196 0.407126 0.0839399
0.702068 0.41384 0.0858473
0.740353 0.421134 0.0881819
0.776989 0.428946 0.0909133
0.811933 0.436866 0.0938125
0.845701 0.445014 0.09691
0.878553 0.453315 0.10013
0.91078 0.461692 0.10341
0.942855 0.470283 0.106767
0.974777 0.47863 0.109987
1 0.486595 0.112947
1 0.494209 0.115618
1 0.501793 0.118257
1 0.509178 0.120745
0 0.375097 0.066743
0 0.380179 0.0695659
0 0.38526 0.0724041
0 0.390463 0.0751965
0 0.394827 0.0774243
0 0.398322 0.0789502
0 0.400885 0.0797284
0.0409552 0.402762 0.079942
0.104433 0.404425 0.0799878
0.168246 0.406577 0.0802777
0.227436 0.40827 0.0803693
0.284276 0.409873 0.0803998
0.337911 0.411429 0.0803998
0.386648 0.41297 0.0803845
0.434501 0.417502 0.0804303
0.482475 0.422461 0.0807202
0.529229 0.427344 0.0811017
0.574716 0.432593 0.0817578
0.618509 0.438285 0.0827955
0.660471 0.444434 0.0842145
0.700938 0.451408 0.0861524
0.7393 0.458412 0.0882734
0.775906 0.465812 0.0907454
0.810971 0.473564 0.0934768
0.8448 0.481529 0.0964065
0.877775 0.489738 0.0995041
0.91014 0.498085 0.102663
0.941985 0.506142 0.105684
0.973754 0.514046 0.108583
1 0.521706 0.111269
1 0.528939 0.113649
1 0.536324 0.116045
1 0.54345 0.118273
0 0.415335 0.0678111
0 0.420539 0.0706645
0 0.426169 0.0737163
0 0.431128 0.0764172
0 0.435508 0.0785992
0 0.439017 0.0800946
0 0.441596 0.0808423
0.0494545 0.443793 0.0811475
0.113756 0.445548 0.0811933
0.176959 0.447379 0.0813458
0.236255 0.449104 0.0814069
0.293111 0.450721 0.0813916
0.346517 0.452262 0.0813458
0.393194 0.454139 0.0814221
0.430777 0.455665 0.0813764
0.478859 0.460243 0.0814679
0.526055 0.465034 0.0817426
0.571939 0.470146 0.0822766
0.616129 0.475685 0.0831769
0.658701 0.482002 0.0845808
0.699123 0.488411 0.0862135
0.737697 0.495216 0.0881819
0.774472 0.502388 0.0904555
0.809583 0.509865 0.0929885
0.843534 0.517678 0.0957656
0.8766 0.525734 0.0986801
0.908766 0.533547 0.101518
0.94052 0.541253 0.104265
0.972152 0.54876 0.106874
1 0.555993 0.10927
1 0.563043 0.111421
1 0.570047 0.113939
1 0.576791 0.117327
0 0.456367 0.069337
0 0.461875 0.0723278
0 0.467216 0.0752728
0 0.472251 0.0779889
0 0.476631 0.0801556
0 0.48011 0.0816052
0 0.482918 0.0823835
0.0580148 0.484901 0.0825666
0.122911 0.48661 0.0825666
0.185901 0.488426 0.0826734
0.245274 0.490089 0.0826886
0.302022 0.491661 0.0825971
0.355612 0.493523 0.0826276
0.399786 0.494987 0.0824903
0.437537 0.496452 0.0823835
0.474998 0.497993 0.0823224
0.522606 0.502617 0.082475
0.568902 0.50753 0.0828717
0.613779 0.513207 0.0837568
0.656352 0.518929 0.0848402
0.696986 0.525048 0.0862593
0.735775 0.531579 0.0880293
0.772686 0.538476 0.0901045
0.808179 0.546014 0.0925765
0.842039 0.553338 0.0950484
0.874861 0.560769 0.097612
0.90695 0.568185 0.100175
0.938613 0.575509 0.102647
0.96907 0.582773 0.105989
0.998764 0.589944 0.109819
1 0.596429 0.113176
1 0.602823 0.116518
1 0.608972 0.119707
0 0.497765 0.071397
0 0.503166 0.0743572
0 0.508537 0.0773175
0 0.513603 0.0800183
0 0.517983 0.0821546
0 0.521782 0.0836957
0.0030518 0.524208 0.0842756
0.0670787 0.526009 0.0843366
0.132555 0.527687 0.0843061
0.195254 0.529458 0.0843519
0.255039 0.531304 0.0843824
0.311681 0.53286 0.0842603
0.364279 0.534249 0.0840314
0.40647 0.535622 0.0838026
0.444389 0.536995 0.0836042
0.481956 0.538415 0.0834363
0.519326 0.540261 0.0835126
0.566003 0.54493 0.0837415
0.61088 0.54995 0.0842908
0.653773 0.555383 0.0851759
0.694682 0.561181 0.0863966
0.733623 0.567346 0.0879225
0.770962 0.574197 0.0899062
0.806226 0.580987 0.0919814
0.840085 0.58793 0.0941939
0.871565 0.594995 0.098085
0.901961 0.601984 0.101961
0.931624 0.608881 0.105821
0.960952 0.615763 0.109682
0.989914 0.62208 0.113161
1 0.628031 0.116381
1 0.633707 0.119432
1 0.639261 0.122408
0 0.539132 0.0739757
0 0.544579 0.0769513
0 0.549966 0.0799268
0 0.555138 0.0826734
0 0.559655 0.0848554
0 0.562982 0.0861372
0.012314 0.565301 0.0866102
0.0769818 0.566995 0.0865949
0.142885 0.568566 0.0864881
0.205539 0.570443 0.0865492
0.264988 0.572045 0.0864271
0.321141 0.573373 0.0861524
0.373205 0.574609 0.0858015
0.413382 0.575784 0.0854353
0.451408 0.576989 0.0850996
0.489372 0.578561 0.084947
0.526452 0.57995 0.0847639
0.562661 0.581445 0.0847181
0.607874 0.586084 0.0850233
0.651072 0.591119 0.0856947
0.692226 0.596551 0.0866712
0.731426 0.602655 0.088716
0.767651 0.608713 0.0919661
0.80177 0.614984 0.0954299
0.834195 0.621363 0.0990158
0.865232 0.627756 0.102663
0.895369 0.634394 0.106508
0.924498 0.640558 0.110079
0.953124 0.646555 0.113527
0.981491 0.652293 0.116823
1 0.65771 0.119905
1 0.662821 0.122759
1 0.668025 0.125734
0 0.580407 0.0772564
0 0.585824 0.0802472
0 0.591318 0.0832685
0 0.596521 0.0860151
0 0.600671 0.088014
0 0.60383 0.089189
0.0225834 0.605982 0.0895399
0.0878309 0.607538 0.0894179
0.154681 0.609354 0.0894026
0.216358 0.610803 0.0892195
0.275303 0.61207 0.0888991
0.330999 0.613214 0.0884871
0.382391 0.614267 0.088014
0.42089 0.615457 0.0875868
0.459098 0.616556 0.087129
0.496727 0.617578 0.0866865
0.533715 0.618708 0.0863203
0.569848 0.619989 0.0861067
0.604852 0.621454 0.0872816
0.648157 0.626245 0.0895857
0.688746 0.631128 0.0920424
0.726909 0.63624 0.0947585
0.762798 0.641596 0.0977035
0.796551 0.647166 0.100862
0.828565 0.652827 0.104143
0.859403 0.658854 0.107744
0.888914 0.664546 0.111147
0.917601 0.67013 0.114504
0.945693 0.675532 0.117739
0.973495 0.68069 0.120836
1 0.685588 0.123766
1 0.690364 0.126619
1 0.694835 0.129259
0 0.621408 0.0813764
0 0.6271 0.0844892
0 0.632349 0.0873884
0 0.637186 0.0899519
0 0.641199 0.0918593
0 0.64416 0.0928969
0.0341802 0.646189 0.0931563
0.100298 0.647761 0.0929885
0.166491 0.649058 0.0926833
0.227619 0.650309 0.0923629
0.286168 0.651331 0.0918746
0.341207 0.652216 0.0912795
0.390005 0.653178 0.0906996
0.42855 0.654063 0.0900587
0.466682 0.654765 0.0894942
0.504829 0.655299 0.0905623
0.541848 0.655955 0.0917372
0.577554 0.656764 0.0930648
0.612024 0.65803 0.094728
0.644755 0.659358 0.0964981
0.68484 0.663462 0.0986191
0.722606 0.667857 0.100999
0.758129 0.672526 0.103639
0.791562 0.677424 0.106538
0.823438 0.68275 0.109789
0.853651 0.687816 0.112902
0.88275 0.692882 0.116045
0.910994 0.697887 0.119188
0.938628 0.702754 0.122255
0.966064 0.707668 0.125399
0.993225 0.712032 0.128145
1 0.71603 0.130617
1 0.720012 0.133104
0 0.662211 0.0863508
0 0.66743 0.0892348
0 0.672541 0.0920424
0 0.67718 0.0944839
0 0.680995 0.0962539
0 0.683818 0.0971695
0.0468757 0.685771 0.0973373
0.113039 0.686854 0.0968795
0.178607 0.687877 0.0964065
0.239246 0.688869 0.0958877
0.297246 0.689632 0.095201
0.352956 0.690349 0.0953078
0.399512 0.69041 0.0961013
0.438529 0.690425 0.0968643
0.476814 0.690486 0.0976577
0.514138 0.690578 0.0985275
0.550484 0.690929 0.0995956
0.585489 0.691447 0.100816
0.61883 0.692027 0.102129
0.65069 0.692851 0.103655
0.681071 0.693889 0.105379
0.718471 0.697643 0.107469
0.753811 0.701823 0.109987
0.786969 0.706157 0.112657
0.81828 0.710582 0.11545
0.848157 0.715068 0.118334
0.87686 0.71957 0.121263
0.904662 0.72401 0.124178
0.931991 0.728557 0.127245
0.958785 0.732754 0.130037
0.985397 0.736675 0.132647
1 0.740291 0.135058
1 0.743679 0.137285
0 0.701961 0.091722
0 0.707027 0.0944991
0 0.711971 0.0972
0 0.716411 0.0995041
0 0.720302 0.101274
0 0.722744 0.101946
0.0596475 0.724132 0.101762
0.126268 0.724941 0.101106
0.193439 0.725216 0.101732
0.256107 0.725307 0.102647
0.315358 0.725383 0.103548
0.369284 0.725078 0.104173
0.411017 0.724697 0.104738
0.449241 0.724254 0.105272
0.486656 0.723842 0.105852
0.523293 0.723629 0.106584
0.558846 0.723598 0.1075
0.592874 0.723568 0.108446
0.625406 0.723751 0.10956
0.656458 0.724163 0.110887
0.686122 0.724804 0.112428
0.714611 0.725811 0.114275
0.749538 0.72929 0.116457
0.78233 0.732921 0.118791
0.813291 0.736736 0.121309
0.842832 0.740673 0.12398
0.871183 0.744656 0.126711
0.898772 0.748806 0.129656
0.92549 0.752636 0.132342
0.951766 0.756313 0.134936
0.977859 0.759808 0.137407
1 0.763027 0.139696
1 0.76614 0.14197
0 0.740902 0.0975662
0 0.745724 0.100191
0 0.750423 0.102724
0 0.754971 0.105058
0 0.758129 0.106722
0.014374 0.759472 0.108766
0.0816663 0.75967 0.10988
0.151797 0.75935 0.110567
0.216205 0.759121 0.111345
0.277058 0.758907 0.112154
0.333288 0.758267 0.112612
0.384405 0.757488 0.112978
0.422141 0.75668 0.113313
0.459602 0.75584 0.113664
0.49662 0.755276 0.11426
0.53225 0.754543 0.114717
0.566751 0.753964 0.115312
0.599985 0.753567 0.116091
0.631754 0.753399 0.117067
0.662181 0.753536 0.118303
0.691295 0.753933 0.119783
0.718914 0.754376 0.121324
0.745281 0.755047 0.123049
0.777798 0.758114 0.125154
0.808469 0.761379 0.127443
0.837766 0.764889 0.129992
0.865843 0.768429 0.132601
0.892882 0.771878 0.135134
0.919203 0.77525 0.137652
0.945037 0.778485 0.140078
0.970611 0.781537 0.142382
0.996277 0.784527 0.144717
1 0.787121 0.146715
0 0.778851 0.103716
0 0.783337 0.107317
0 0.787091 0.111437
0 0.790112 0.114977
0 0.792004 0.117571
0.0412909 0.792599 0.119112
0.108431 0.792172 0.119829
0.177142 0.791638 0.120485
0.238376 0.790921 0.120989
0.296361 0.790021 0.121355
0.350195 0.788952 0.121599
0.395636 0.787778 0.121752
0.432929 0.786557 0.121889
0.469947 0.785519 0.122225
0.505806 0.78436 0.122454
0.540688 0.783276 0.122744
0.574395 0.78233 0.123171
0.606821 0.781582 0.123766
0.637919 0.781125 0.124651
0.66775 0.780987 0.125826
0.69604 0.780911 0.127031
0.723003 0.781018 0.128405
0.748745 0.781308 0.129946
0.773297 0.781796 0.13167
0.803815 0.784665 0.133867
0.832807 0.78764 0.136187
0.860456 0.790585 0.13846
0.887129 0.793545 0.14078
0.913085 0.79649 0.143114
0.938506 0.799329 0.145388
0.963775 0.802213 0.147799
0.988815 0.804715 0.149828
1 0.806989 0.15169
0 0.813519 0.115297
0 0.817044 0.119341
0 0.820157 0.123049
0 0.822446 0.126085
0.00527962 0.82356 0.128145
0.0675364 0.823423 0.129213
0.135409 0.82269 0.129824
0.199878 0.82153 0.130068
0.258854 0.820386 0.130327
0.314519 0.819059 0.130449
0.365972 0.817578 0.130465
0.406729 0.816037 0.130434
0.443656 0.814633 0.130602
0.479515 0.813031 0.130556
0.51458 0.811505 0.130587
0.548699 0.810101 0.130724
0.581689 0.808835 0.131014
0.613672 0.80798 0.131716
0.643931 0.807126 0.132357
0.672847 0.8065 0.133211
0.700481 0.806104 0.134279
0.726879 0.805905 0.1355
0.752087 0.805936 0.13695
0.776242 0.806226 0.138659
0.799161 0.806546 0.140337
0.827771 0.808957 0.142321
0.855131 0.811475 0.144411
0.881468 0.814008 0.146532
0.907103 0.816617 0.148745
0.932219 0.819181 0.150988
0.956939 0.821576 0.153048
0.981537 0.823789 0.154986
1 0.825818 0.156756
0 0.845548 0.12723
0 0.848493 0.130892
0 0.850996 0.134203
0 0.852613 0.136797
0.0309453 0.853162 0.138552
0.0936751 0.852415 0.139223
0.160006 0.850965 0.139315
0.220996 0.84947 0.139391
0.277958 0.847929 0.139437
0.331411 0.846204 0.13933
0.380987 0.844541 0.139345
0.417563 0.842634 0.139132
0.453391 0.840696 0.138918
0.488548 0.838788 0.138735
0.522866 0.836942 0.138613
0.556207 0.835203 0.138598
0.588754 0.833829 0.138949
0.619715 0.832471 0.139284
0.649302 0.831342 0.139803
0.677562 0.830427 0.140505
0.704555 0.829709 0.141375
0.730388 0.829236 0.142489
0.755199 0.829068 0.143923
0.778683 0.828931 0.145312
0.801099 0.828946 0.146822
0.822644 0.829068 0.14844
0.849714 0.831174 0.150301
0.875853 0.833417 0.152331
0.901213 0.835691 0.154452
0.925887 0.837842 0.15639
0.95021 0.839918 0.158282
0.97438 0.841886 0.160113
0.998596 0.843687 0.161822
0 0.875486 0.138659
0 0.877943 0.142016
0 0.879835 0.144915
0 0.880888 0.147173
0.0553445 0.880674 0.148394
0.118212 0.879316 0.148638
0.182345 0.87744 0.148486
0.24062 0.875608 0.148379
0.295521 0.873686 0.148211
0.347326 0.871778 0.148135
0.391791 0.869612 0.147799
0.427359 0.867353 0.147402
0.46244 0.865095 0.147005
0.496895 0.862882 0.146654
0.53051 0.860761 0.14641
0.56347 0.858915 0.146487
0.594965 0.857069 0.146456
0.625193 0.855421 0.146624
0.654139 0.854032 0.147021
0.681788 0.852842 0.147585
0.708446 0.852033 0.148562
0.733654 0.85124 0.149447
0.757733 0.850629 0.1505
0.780728 0.850233 0.151751
0.802716 0.850004 0.153124
0.823865 0.849912 0.15462
0.844404 0.850019 0.156374
0.870207 0.851835 0.158114
0.895186 0.853712 0.15993
0.91957 0.855573 0.161746
0.943542 0.857389 0.163516
0.967361 0.859144 0.16527
0.991211 0.860807 0.167025
0 0.903517 0.149538
0 0.905501 0.152605
0 0.907027 0.155367
0.0211337 0.907256 0.157015
0.0784009 0.906325 0.157702
0.14139 0.904463 0.157641
0.20264 0.902251 0.157305
0.259083 0.900221 0.157183
0.312169 0.898009 0.156893
