luts/1771694145769-Flex02.cube
TITLE "Generated by Resolve"
LUT_3D_SIZE 9
0 0.00891127 0.0713207
0 0.0137636 0.0710765
0.0977493 0.00857557 0.0623026
0.340154 0.0028687 0.0529641
0.509865 0.00306706 0.0483558
0.661799 0.0148165 0.0535897
0.798032 0.038117 0.0673686
0.922591 0.066392 0.0853132
1 0.0959182 0.103777
0 0.0790265 0.0726177
0 0.0831922 0.0745708
0.0881514 0.088777 0.0712902
0.356252 0.0968643 0.069276
0.537667 0.111192 0.0716411
0.696117 0.131334 0.0781567
0.832807 0.159091 0.0902571
0.958099 0.192111 0.106172
1 0.225925 0.122347
0 0.187396 0.0626383
0 0.203296 0.071931
0.0604257 0.212238 0.0756237
0.34931 0.227893 0.0760662
0.538705 0.244541 0.0771038
0.702678 0.267552 0.0833143
0.843534 0.298573 0.0958419
0.971908 0.333486 0.111406
1 0.367681 0.126101
0 0.335958 0.0660868
0 0.35494 0.0764935
0.0960403 0.364279 0.0791333
0.329259 0.371008 0.0795758
0.532097 0.389761 0.0804913
0.702068 0.41384 0.0858473
0.845701 0.445014 0.09691
0.974777 0.47863 0.109987
1 0.509178 0.120745
0 0.497765 0.071397
0 0.517983 0.0821546
0.132555 0.527687 0.0843061
0.364279 0.534249 0.0840314
0.519326 0.540261 0.0835126
0.694682 0.561181 0.0863966
0.840085 0.58793 0.0941939
0.960952 0.615763 0.109682
1 0.639261 0.122408
0 0.662211 0.0863508
0 0.680995 0.0962539
0.178607 0.687877 0.0964065
0.399512 0.69041 0.0961013
0.550484 0.690929 0.0995956
0.681071 0.693889 0.105379
0.81828 0.710582 0.11545
0.931991 0.728557 0.127245
1 0.743679 0.137285
0 0.813519 0.115297
0.00527962 0.82356 0.128145
0.258854 0.820386 0.130327
0.443656 0.814633 0.130602
0.581689 0.808835 0.131014
0.700481 0.806104 0.134279
0.799161 0.806546 0.140337
0.907103 0.816617 0.148745
1 0.825818 0.156756
0 0.929885 0.159976
0.100252 0.930343 0.166537
0.326726 0.920668 0.164981
0.47866 0.909636 0.162417
0.605447 0.899413 0.160555
0.714229 0.892485 0.161563
0.805173 0.888838 0.165301
0.882994 0.887221 0.17055
0.976394 0.892531 0.176608
0 1 0.195422
0.172641 1 0.196674
0.370336 0.999023 0.19266
0.501259 0.984588 0.187991
0.61912 0.971725 0.184634
0.720394 0.962234 0.183963
0.805722 0.956008 0.185763
0.879164 0.951873 0.188907
0.946502 0.948669 0.19263
0 0 0.116503
0 0.00939956 0.128298
0.0435187 0.0065919 0.123156
0.295445 0.000335698 0.114717
0.479957 0 0.110857
0.63563 0.00880446 0.116182
0.776165 0.030808 0.131273
0.90277 0.0585336 0.150851
1 0.0877699 0.171237
0 0.0774243 0.131167
0 0.0846876 0.137636
0.095491 0.0916915 0.137224
0.364843 0.101274 0.138201
0.545022 0.116121 0.142779
0.703182 0.136233 0.150973
0.839979 0.164401 0.165209
0.96556 0.197589 0.183062
1 0.231083 0.200793
0 0.190219 0.133928
0 0.208301 0.143313
0.0700236 0.217533 0.149035
0.357427 0.232898 0.15111
0.545388 0.249775 0.154147
0.709484 0.273014 0.162249
0.850202 0.304112 0.176593
0.978592 0.338842 0.193698
1 0.372259 0.20943
0 0.340658 0.143801
0 0.360327 0.153918
0.105043 0.369909 0.15845
0.337194 0.376577 0.160632
0.537926 0.39498 0.162966
0.708049 0.419211 0.169924
0.851255 0.450095 0.182269
0.980056 0.483116 0.196292
1 0.512886 0.207599
0 0.503197 0.154726
0 0.52398 0.165438
0.140856 0.533394 0.168963
0.370886 0.53962 0.16994
0.524056 0.5449 0.170275
0.699351 0.565606 0.174121
0.842329 0.591684 0.185351
0.961517 0.618204 0.203098
1 0.640497 0.217868
0 0.667369 0.174197
0 0.68629 0.183795
0.184527 0.692607 0.184726
0.404471 0.69366 0.188602
0.553491 0.693095 0.194308
0.682597 0.695338 0.202472
0.818082 0.710948 0.214359
0.930266 0.727733 0.227268
1 0.742153 0.238392
0 0.815656 0.209781
0.0127565 0.825055 0.22388
0.263767 0.820874 0.228016
0.445396 0.814328 0.230106
0.581994 0.807889 0.231937
0.699474 0.804578 0.236225
0.797086 0.804456 0.242847
0.903914 0.813779 0.251209
1 0.822538 0.259358
0 0.928862 0.261128
0.103044 0.928649 0.268269
0.327367 0.918349 0.267552
0.477897 0.906813 0.265339
0.603647 0.896269 0.2636
0.711498 0.889052 0.264485
0.801709 0.885115 0.267903
0.879011 0.883253 0.272679
0.971801 0.888289 0.278126
0 1 0.30071
0.171862 1 0.301076
0.368566 0.994995 0.29662
0.498955 0.980346 0.291203
0.616083 0.967376 0.287083
0.716686 0.957748 0.285496
0.80145 0.951339 0.286259
0.874632 0.947158 0.288609
0.94168 0.943877 0.291417
0 0 0.181598
0 0 0.206699
0 0.00244144 0.212146
0.243336 0 0.205753
0.446387 0 0.203281
0.605661 0.000885023 0.209125
0.750576 0.0208438 0.225162
0.879637 0.0479133 0.246143
1 0.076936 0.269261
0 0.0514839 0.204547
0 0.0533303 0.215488
0.0323644 0.0851759 0.233768
0.314687 0.0938277 0.236439
0.511101 0.107591 0.242496
0.674891 0.126162 0.251789
0.816327 0.15285 0.267643
0.943664 0.185382 0.287938
1 0.218647 0.308354
0 0.188663 0.226825
0 0.207691 0.242252
0.0746929 0.22005 0.252491
0.361837 0.235248 0.256336
0.549111 0.25211 0.261341
0.713466 0.275731 0.271885
0.854032 0.306859 0.28864
0.982422 0.341344 0.308003
1 0.374365 0.325963
0 0.339361 0.251835
0 0.361196 0.264439
0.109178 0.372824 0.268315
0.341192 0.37937 0.272282
0.541192 0.39762 0.276249
0.711177 0.421744 0.285069
0.853941 0.452277 0.299275
0.982254 0.484443 0.31487
1 0.513558 0.327855
0 0.503243 0.27071
0 0.525887 0.281712
0.14406 0.536248 0.284657
0.373663 0.542107 0.286992
0.526238 0.546975 0.288563
0.70106 0.567071 0.293614
0.841535 0.592401 0.307607
0.959319 0.6177 0.324178
1 0.639475 0.338399
0 0.667597 0.295598
0 0.687739 0.305028
0.186023 0.694255 0.305669
0.406226 0.693797 0.310643
0.554192 0.692912 0.315236
0.681971 0.694667 0.322072
0.816098 0.70956 0.332738
0.92726 0.725673 0.344747
1 0.739483 0.355169
0 0.814084 0.336461
0.0191958 0.823529 0.347646
0.26566 0.819409 0.348989
0.445167 0.812222 0.349035
0.580926 0.805615 0.349538
0.697368 0.801984 0.352544
0.794171 0.801541 0.358236
0.90016 0.810407 0.365835
0.997772 0.818799 0.37319
0 0.92549 0.38674
0.106249 0.925231 0.390661
0.326635 0.915099 0.38674
0.476234 0.903197 0.382208
0.601205 0.892531 0.378882
0.708278 0.885145 0.378378
0.797757 0.880919 0.380392
0.874754 0.879011 0.384512
0.96701 0.883818 0.389212
0 1 0.425376
0.17203 1 0.422187
0.366125 0.990555 0.414633
0.496361 0.975799 0.406867
0.612741 0.962768 0.40061
0.712764 0.953079 0.397284
0.797024 0.946502 0.396521
0.869947 0.942275 0.397864
0.93669 0.938918 0.399664
0 0 0.258854
0 0 0.286488
0 0 0.310353
0.187274 0 0.304997
0.411521 0 0.303258
0.574166 0 0.309514
0.723552 0.0106661 0.32694
0.855619 0.0369573 0.351263
0.980987 0.0655375 0.378073
0 0.0271916 0.28603
0 0.0273136 0.301686
0 0.0489815 0.330465
0.259236 0.0860609 0.343801
0.475257 0.0987259 0.351766
0.644846 0.116045 0.363317
0.791409 0.141115 0.381521
0.92108 0.172808 0.406531
1 0.205951 0.432227
0 0.138567 0.308293
0 0.153231 0.322377
0 0.168933 0.344854
0.308476 0.226764 0.37293
0.513069 0.242588 0.379431
0.683391 0.264607 0.391943
0.828824 0.294331 0.411963
0.958694 0.328237 0.435782
1 0.361349 0.458351
0 0.338582 0.355764
0 0.358709 0.374441
0.143343 0.370932 0.386069
0.344808 0.381918 0.396933
0.544228 0.400046 0.403174
0.714 0.423957 0.414954
0.856306 0.454124 0.432776
0.984192 0.485512 0.451652
1 0.513878 0.467353
0 0.50132 0.393881
0 0.523384 0.411673
0.161242 0.536095 0.417731
0.375753 0.544076 0.419028
0.528084 0.548699 0.422309
0.702358 0.568185 0.429297
0.840421 0.592798 0.44538
0.957061 0.617258 0.461799
1 0.638239 0.475273
0 0.665888 0.432593
0 0.685939 0.445609
0.197833 0.69337 0.447318
0.407874 0.693797 0.448447
0.554635 0.6925 0.451499
0.681178 0.693797 0.457008
0.81387 0.707866 0.466377
0.924117 0.723461 0.477546
1 0.736706 0.486656
0 0.810636 0.480995
0.0366217 0.819623 0.490166
0.271199 0.816785 0.48777
0.445121 0.810162 0.484062
0.579751 0.803235 0.482414
0.695171 0.799268 0.483513
0.790982 0.798352 0.487266
0.896391 0.806989 0.493629
0.993347 0.815091 0.499428
0 0.920699 0.527092
0.1178 0.920104 0.527443
0.327993 0.911009 0.519814
0.474662 0.899626 0.51223
0.598718 0.888792 0.506767
0.705043 0.88127 0.504311
0.794003 0.876905 0.504601
0.870588 0.874861 0.507042
0.962356 0.879499 0.509926
0 1 0.557885
0.178378 0.998474 0.551492
0.365148 0.98558 0.540551
0.493767 0.971344 0.530327
0.609461 0.958267 0.522362
0.708934 0.948531 0.517388
0.792828 0.941894 0.515053
0.865431 0.937591 0.514809
0.931884 0.934142 0.515068
0 0 0.341863
0 0 0.372168
0 0 0.407294
0 0 0.425772
0.373587 0 0.415106
0.54136 0 0.422553
0.695338 0.00108339 0.442344
0.830716 0.0258183 0.469978
0.956985 0.0542458 0.500465
0 0.000350958 0.372747
0 0.000320439 0.395102
0 0.0197147 0.429572
0 0.0464332 0.460014
0.43859 0.0902724 0.47599
0.613291 0.106264 0.489219
0.765408 0.129641 0.508797
0.897856 0.160021 0.53434
1 0.193454 0.562066
0 0.100252 0.405982
0 0.108034 0.420401
0 0.114611 0.444511
0.00410468 0.173281 0.495369
0.476127 0.233539 0.51133
0.652064 0.253895 0.523796
0.802945 0.282094 0.543694
0.93492 0.31516 0.568048
1 0.348516 0.592233
0 0.278264 0.449378
0 0.299641 0.471351
0 0.321187 0.493507
0.0827039 0.331518 0.512596
0.506035 0.39057 0.539208
0.682277 0.412741 0.5505
0.830014 0.441535 0.568139
0.959503 0.472648 0.587961
1 0.501244 0.605035
0 0.501503 0.513619
0 0.520897 0.532708
0.20882 0.532158 0.543664
0.397223 0.541512 0.552697
0.530205 0.550713 0.561608
0.703105 0.569802 0.569345
0.839704 0.593515 0.582269
0.955261 0.617258 0.595804
1 0.637522 0.606348
0 0.663813 0.564431
0.00404364 0.681239 0.580163
0.237095 0.68806 0.585901
0.418219 0.691569 0.586847
0.555474 0.692485 0.585184
0.680858 0.693416 0.588067
0.812238 0.706767 0.594583
0.921599 0.721843 0.603174
1 0.734554 0.609689
0 0.806287 0.614801
0.0749218 0.813169 0.621988
0.292378 0.81149 0.619257
0.449592 0.807279 0.613123
0.579141 0.801419 0.607462
0.693553 0.797192 0.606195
0.788632 0.795987 0.607736
0.893294 0.804242 0.611811
0.989609 0.812055 0.615518
0 0.915007 0.654032
0.144961 0.913268 0.65211
0.33962 0.905547 0.643366
0.476204 0.895872 0.632944
0.596948 0.885756 0.624262
0.702403 0.878019 0.619715
0.790936 0.873594 0.618296
0.867124 0.871412 0.618982
0.958419 0.875898 0.620203
0.00177005 1 0.677775
0.195453 0.991547 0.669398
0.371664 0.979919 0.657099
0.493614 0.96701 0.644205
0.606867 0.954482 0.633631
0.705608 0.944579 0.626871
0.789303 0.937972 0.623301
0.861631 0.933593 0.621683
0.927733 0.930037 0.620554
0 0 0.43473
0 0 0.467781
0 0 0.505531
0 0 0.535317
0.114565 0 0.53727
0.50782 0 0.537606
0.666499 0 0.556329
0.80589 0.0154574 0.583581
0.933455 0.0435798 0.614496
0 0 0.470985
0 0 0.495598
0 0 0.530404
0 0.0135348 0.563226
0.180529 0.0424353 0.583734
0.580835 0.0975052 0.60763
0.738811 0.119188 0.626535
0.87509 0.148455 0.651911
1 0.18172 0.680293
0 0.0704051 0.513146
0 0.0734417 0.527825
0 0.0742504 0.550225
0 0.117418 0.591302
0.244785 0.177493 0.629404
0.620188 0.244358 0.644282
0.776822 0.270741 0.662867
0.912016 0.303273 0.687205
1 0.33666 0.71191
0 0.221042 0.539086
0 0.241794 0.561852
0 0.262043 0.585733
0 0.276829 0.615167
0.284886 0.333165 0.6542
0.650141 0.402914 0.671992
0.803708 0.429847 0.688228
0.935943 0.460883 0.708339
1 0.490547 0.725139
0 0.436988 0.601068
0 0.460777 0.623789
0 0.482307 0.64387
0.16936 0.494621 0.654826
0.354635 0.502632 0.669123
0.669779 0.56083 0.689906
0.811963 0.583169 0.699001
0.929473 0.607019 0.710201
1 0.627756 0.718914
0 0.6645 0.672297
0.0521096 0.678813 0.68629
0.284413 0.683528 0.690791
0.447761 0.686503 0.693538
0.57322 0.689403 0.696239
0.681682 0.694194 0.700832
0.811826 0.70692 0.704875
0.920241 0.721386 0.71107
1 0.733593 0.715373
0 0.802838 0.721889
0.131395 0.806195 0.726238
0.333562 0.804257 0.724697
0.470649 0.801266 0.721172
0.586511 0.798581 0.716228
0.693049 0.796216 0.711528
0.787457 0.794797 0.711254
0.891371 0.80267 0.71342
0.98703 0.810162 0.715373
0 0.909163 0.757137
0.188724 0.905379 0.753689
0.366873 0.898451 0.74612
0.488212 0.890486 0.736522
0.599649 0.882734 0.726497
0.700923 0.875944 0.719066
0.788983 0.871412 0.716243
0.864759 0.869062 0.71548
0.955505 0.873304 0.715297
0.0341497 0.992462 0.776761
0.22591 0.983764 0.76762
0.387991 0.973251 0.755917
0.500648 0.961929 0.742901
0.607477 0.95108 0.730602
0.703548 0.941817 0.721691
0.786816 0.935103 0.71693
0.858824 0.930617 0.714229
0.924605 0.92694 0.712154
0 0 0.528191
0 0 0.559976
0 0 0.596017
0 0 0.627955
0 0 0.649989
0.316396 0 0.638636
0.637537 0 0.65713
0.78143 0.00627146 0.683238
0.910796 0.0339971 0.713726
0 0 0.566064
0 0 0.5906
0 0 0.621866
0 0 0.654932
0 0.0113527 0.68043
0.391638 0.0449989 0.697932
0.711772 0.110063 0.728664
0.852766 0.138216 0.753414
0.982513 0.17116 0.781857
0 0.0442512 0.611719
0 0.0457008 0.627619
0 0.0444038 0.648646
0 0.0712596 0.676204
0 0.125841 0.723659
0.43772 0.183978 0.744091
0.750851 0.261021 0.765454
0.890013 0.292714 0.788998
1 0.326284 0.813977
0 0.169818 0.624949
0 0.185321 0.643671
0 0.201907 0.666728
0 0.21384 0.695613
0 0.28275 0.746166
0.465751 0.340337 0.770809
0.777981 0.420081 0.790677
0.913558 0.450462 0.810208
1 0.481376 0.825101
0 0.376883 0.678157
0 0.399588 0.699413
0 0.422354 0.720943
0 0.444495 0.743435
0.0805066 0.452979 0.762417
0.492241 0.506279 0.784955
0.785107 0.574731 0.796887
0.905226 0.598169 0.805844
1 0.619379 0.813275
0 0.60325 0.743206
0 0.626047 0.763439
0.0312352 0.64181 0.775082
0.262867 0.649027 0.778073
0.429572 0.654429 0.779522
0.542992 0.656916 0.78439
0.78555 0.699199 0.796963
0.896345 0.713329 0.801266
0.997772 0.725994 0.804562
0 0.801648 0.806165
0.179232 0.802518 0.806912
0.370871 0.799832 0.80412
0.497414 0.796231 0.800397
0.609689 0.79353 0.79762
0.70573 0.79295 0.796948
0.787335 0.794675 0.798596
0.890517 0.802167 0.799298
0.985412 0.809216 0.799786
0.030808 0.904128 0.837629
0.23537 0.898344 0.832425
0.399054 0.891005 0.825422
0.513054 0.883345 0.8177
0.616251 0.87718 0.810697
0.706035 0.873198 0.804517
0.788083 0.870268 0.799405
0.863432 0.867765 0.797604
0.953582 0.871702 0.796323
0.0784466 0.985275 0.855192
0.266468 0.975738 0.845838
0.411231 0.965499 0.835248
0.518288 0.955291 0.823972
0.616968 0.946319 0.813123
0.705257 0.939147 0.803616
0.785336 0.933242 0.796933
0.856977 0.928618 0.793469
0.922408 0.924788 0.790677
0 0 0.615106
0 0 0.644343
0 0 0.67715
0 0 0.708324
0 0 0.733181
0.0484321 0 0.739422
0.467735 0 0.730388
0.757229 0 0.76878
0.88893 0.0254978 0.798474
0 0 0.652598
0 0 0.675898
0 0 0.703944
0 0 0.73492
0 0 0.759075
0.0969253 0.00610361 0.774792
0.541268 0.0524758 0.800183
0.830625 0.129259 0.840131
0.962295 0.161669 0.868482
0 0.0162814 0.694636
0 0.0183566 0.712169
0 0.0176242 0.733166
0 0.0395056 0.756466
0 0.0726024 0.7897
0.182788 0.13193 0.828977
0.589242 0.194018 0.844984
0.868498 0.283268 0.876341
1 0.316732 0.901488
0 0.129152 0.712261
0 0.137499 0.724941
0 0.146746 0.742275
0 0.153689 0.76672
0 0.224033 0.81471
0.223728 0.286351 0.853422
0.61828 0.351507 0.871824
0.891737 0.441093 0.898253
1 0.473472 0.910719
0 0.318975 0.745968
0 0.340078 0.766125
0 0.360876 0.786847
0 0.380453 0.809262
0 0.396841 0.835248
0.287572 0.459464 0.862974
0.63473 0.517067 0.876829
0.88191 0.590372 0.888273
0.991073 0.611795 0.894728
0 0.543664 0.803616
0 0.567666 0.821591
0 0.59176 0.838621
0.00321965 0.610269 0.850599
0.224887 0.61854 0.854154
0.387533 0.620676 0.860441
0.648203 0.655924 0.872343
0.873289 0.706172 0.879622
0.974395 0.718944 0.881987
0 0.75288 0.863386
0 0.766842 0.874815
0.15581 0.769818 0.875242
0.350362 0.769039 0.8719
0.480003 0.76701 0.867292
0.590326 0.765789 0.863722
0.678767 0.764904 0.865492
0.867613 0.795483 0.874052
0.962417 0.80267 0.873823
0.070985 0.900938 0.903502
0.272892 0.894179 0.896696
0.423255 0.88629 0.888762
0.53611 0.878401 0.880827
0.636835 0.872129 0.87454
0.723552 0.868528 0.870909
0.797696 0.867155 0.869505
0.862791 0.86714 0.869474
0.952453 0.870878 0.867414
0.125399 0.978973 0.919036
0.306889 0.968841 0.909316
0.438056 0.958206 0.89897
0.542947 0.948089 0.888945
0.63679 0.939788 0.8804
0.718166 0.934157 0.873869
0.789059 0.930602 0.868238
0.855726 0.927214 0.862852
0.920943 0.923354 0.859602
0 0 0.693233
0 0 0.719905
0 0 0.749203
0 0 0.778454
0 0 0.803906
0 0 0.824842
0.261479 0 0.813901
0.601526 0 0.820371
0.86743 0.0177615 0.873442
0 0 0.729686
0 0 0.751415
0 0 0.776272
0 0 0.80444
0 0 0.831678
0 0 0.849836
0.328191 0.00570687 0.861204
0.680644 0.0644236 0.896681
0.942275 0.152819 0.946715
0 0 0.767437
0 0 0.784329
0 0 0.803876
0 0.0139315 0.828763
0 0.0355688 0.853529
0 0.0817884 0.893629
0.400732 0.137774 0.921569
0.728557 0.209857 0.943633
0.979461 0.3075 0.982528
0 0.0977035 0.796857
0 0.101366 0.807019
0 0.104402 0.820325
0 0.10544 0.839719
0 0.161593 0.872847
0 0.234012 0.924865
0.42768 0.292668 0.94931
0.754223 0.369665 0.968978
0.987747 0.46569 0.990097
0 0.260548 0.805188
0 0.281025 0.82594
0 0.300313 0.847074
0 0.316991 0.86949
0 0.333043 0.892485
0.00444038 0.412039 0.932982
0.459693 0.466957 0.950515
0.756191 0.531746 0.960876
0.968353 0.604425 0.970764
0 0.48368 0.857984
0 0.509575 0.874495
0 0.5346 0.890639
0 0.558328 0.906722
0 0.57705 0.920974
0.150378 0.581125 0.929824
0.497429 0.619318 0.941161
0.754803 0.660426 0.949798
0.95198 0.712276 0.954559
0 0.702937 0.912688
0 0.719676 0.924788
0 0.735592 0.936126
0.126711 0.740993 0.937133
0.320912 0.741588 0.933867
0.452659 0.740612 0.930449
0.550149 0.736904 0.931624
0.756802 0.760388 0.939742
0.940169 0.796323 0.943023
0 0.866255 0.959747
0.0482643 0.869978 0.961944
0.250309 0.86479 0.955215
0.406836 0.858167 0.947036
0.518364 0.851164 0.93843
0.619058 0.845792 0.93135
0.704982 0.842893 0.926894
0.772793 0.840467 0.927382
0.93051 0.864561 0.933761
0.163943 0.97438 0.975662
0.337896 0.96408 0.965347
0.459419 0.953216 0.954482
0.562829 0.943053 0.94432
0.654795 0.934997 0.936263
0.734249 0.929473 0.930755
0.802777 0.92607 0.927352
0.863462 0.923873 0.925185
0.919844 0.922286 0.923613
