luts/1771694551960-Skrrt03.cube
TITLE "Generated by Resolve"
LUT_3D_SIZE 5
0 0 0.152026
0.373571 0.0299992 0.167437
0.780987 0.0916457 0.182284
1 0.15349 0.197528
1 0.217044 0.214847
0 0.198505 0.16817
0.203967 0.213458 0.165286
0.592279 0.281544 0.179965
0.976959 0.352941 0.199207
1 0.426749 0.219623
0 0.451362 0.192309
0.0574197 0.48098 0.199115
0.505638 0.505638 0.200168
0.876997 0.582376 0.220905
1 0.656519 0.244587
0 0.730343 0.238575
0 0.760143 0.246448
0.397162 0.780591 0.244785
0.792523 0.792523 0.239597
1 0.850523 0.251179
0 0.978851 0.276188
0 0.992035 0.275517
0.265049 0.998322 0.267277
0.645136 1 0.256413
1 1 0.247639
0 0 0.280613
0.216464 0 0.278492
0.640726 0.0251011 0.295598
1 0.0875257 0.313909
1 0.152041 0.335912
0 0.20119 0.26688
0.208042 0.217227 0.27451
0.642145 0.287327 0.296513
1 0.360632 0.322896
1 0.434821 0.356268
0 0.457649 0.298268
0.0846265 0.487495 0.314122
0.514397 0.514397 0.318074
0.890257 0.590753 0.345785
1 0.663752 0.381109
0 0.736873 0.358144
0 0.764996 0.37496
0.408072 0.784604 0.375418
0.795483 0.795483 0.366018
1 0.852155 0.383734
0 0.979797 0.418891
0 0.991302 0.422049
0.278279 0.997345 0.410864
0.647837 1 0.391211
1 1 0.375845
0 0 0.49807
0.0509041 0 0.494148
0.485298 0 0.485298
0.887388 0.0137026 0.514641
1 0.0792401 0.548424
0 0.205005 0.405585
0.0453651 0.216541 0.489403
0.490455 0.217655 0.490455
0.905821 0.294301 0.533089
1 0.37232 0.580957
0 0.464958 0.464958
0.108858 0.49453 0.49453
0.521752 0.521752 0.521752
0.94197 0.59794 0.569223
1 0.6701 0.615015
0 0.74313 0.555444
0.0156863 0.768322 0.579721
0.426184 0.785214 0.591348
0.796613 0.796613 0.582284
1 0.851774 0.604074
0 0.979553 0.617731
0 0.989364 0.62504
0.298116 0.994141 0.622278
0.652384 0.99881 0.608042
1 1 0.59176
0 0 0.754101
0 0 0.750103
0.344945 0 0.741466
0.736126 0 0.736126
1 0.00860609 0.770993
0 0.210483 0.643229
0 0.216861 0.748348
0.355367 0.219745 0.751034
0.759426 0.22887 0.759426
1 0.309102 0.808072
0 0.473533 0.659831
0.0061799 0.503716 0.689967
0.390799 0.525795 0.784451
0.795407 0.536736 0.795407
1 0.607263 0.839567
0 0.75053 0.75053
0.0305943 0.773739 0.773739
0.441917 0.787625 0.787625
0.797498 0.797498 0.797498
1 0.852018 0.825666
0 0.980713 0.808759
0 0.989075 0.816846
0.317143 0.992172 0.819074
0.666087 0.995773 0.817761
1 1 0.805249
0 0 0.990433
0 0 0.986328
0.203937 0 0.978424
0.612512 0 0.974029
0.977523 0 0.977523
0 0.214649 0.901411
0 0.219059 0.987884
0.220203 0.223789 0.992279
0.640467 0.234318 1
1 0.251987 1
0 0.483848 0.841138
0 0.515679 0.902632
0.260929 0.531472 1
0.675898 0.541222 1
1 0.550896 1
0 0.758862 0.929992
0 0.780346 0.951415
0.35639 0.792462 0.963485
0.672175 0.796155 1
1 0.790799 1
0 0.983413 0.983413
0 0.990921 0.990921
0.32549 0.993225 0.993225
0.678523 0.995972 0.995972
1 1 1
