luts/1771694559124-Slay08.cube
TITLE "Generated by Resolve"
LUT_3D_SIZE 9
0.0558328 0.085481 0.118746
0.0606546 0.0904707 0.124727
0.0694285 0.0991989 0.135332
0.0803998 0.109895 0.148638
0.0931411 0.122118 0.163897
0.107256 0.135698 0.180621
0.122667 0.150469 0.198169
0.138933 0.166445 0.215854
0.156237 0.183612 0.232975
0.0848402 0.114183 0.154009
0.0980697 0.126925 0.169848
0.112795 0.140917 0.186892
0.128481 0.156146 0.204623
0.145083 0.172549 0.222217
0.162737 0.190112 0.239094
0.181338 0.208576 0.254963
0.200839 0.227573 0.271992
0.220859 0.246403 0.291341
0.134401 0.161975 0.211048
0.151446 0.17882 0.228367
0.169436 0.196735 0.245121
0.188373 0.215442 0.2607
0.208072 0.234485 0.279072
0.228275 0.25359 0.298329
0.249058 0.275883 0.317906
0.271916 0.299062 0.338766
0.297581 0.323278 0.361807
0.195483 0.22237 0.266911
0.215351 0.24126 0.286107
0.235843 0.261357 0.305394
0.256962 0.28423 0.325292
0.281163 0.307713 0.346853
0.307134 0.332555 0.370916
0.33518 0.359579 0.398596
0.366217 0.390036 0.424521
0.399191 0.421607 0.449989
0.265248 0.292683 0.332921
0.290425 0.316564 0.355306
0.317098 0.342077 0.381689
0.345983 0.370184 0.408148
0.378363 0.40145 0.433799
0.411963 0.433249 0.45922
0.450538 0.465644 0.484596
0.489616 0.498726 0.51046
0.529397 0.532433 0.536934
0.357259 0.381399 0.417624
0.390234 0.41297 0.443061
0.426001 0.444968 0.468376
0.464714 0.477607 0.493935
0.504005 0.510918 0.520058
0.543969 0.544884 0.546746
0.584588 0.579507 0.573999
0.625742 0.614755 0.601846
0.667582 0.650599 0.630396
0.47895 0.489662 0.50338
0.518532 0.523201 0.529702
0.558679 0.557427 0.556573
0.599512 0.592279 0.584024
0.640787 0.627771 0.612161
0.682857 0.663844 0.64097
0.725338 0.700587 0.670481
0.768185 0.737942 0.70074
0.811246 0.775967 0.731838
0.614481 0.605127 0.594186
0.656107 0.640803 0.622583
0.698299 0.67715 0.651621
0.740871 0.714122 0.681407
0.783795 0.75172 0.711971
0.827131 0.789914 0.743313
0.870802 0.828733 0.775158
0.915496 0.867964 0.807431
0.96051 0.907805 0.84004
0.756588 0.727703 0.692485
0.799542 0.76556 0.723278
0.842954 0.803983 0.754879
0.886976 0.842954 0.786892
0.931746 0.882429 0.819272
0.977035 0.922438 0.852003
1 0.962905 0.885206
1 1 0.919356
1 1 0.953429
0.0565652 0.086305 0.119799
0.0633707 0.0931563 0.127947
0.0729686 0.102632 0.139605
0.0845808 0.113878 0.153643
0.097734 0.126604 0.169436
0.112383 0.140581 0.186481
0.128099 0.155749 0.204196
0.144732 0.172122 0.22179
0.16231 0.189685 0.238682
0.089189 0.118349 0.159213
0.103014 0.131518 0.17554
0.118029 0.145953 0.192874
0.13402 0.161578 0.21062
0.150973 0.178393 0.22797
0.169009 0.196277 0.244709
0.187884 0.214984 0.260319
0.207538 0.234028 0.278614
0.227832 0.253071 0.297856
0.140108 0.167544 0.21706
0.157412 0.184817 0.234089
0.175723 0.203037 0.250401
0.19498 0.221912 0.266468
0.214817 0.240818 0.285649
0.235355 0.260807 0.304936
0.256397 0.28368 0.324788
0.280522 0.307134 0.346303
0.306538 0.331899 0.370291
0.202182 0.22887 0.27332
0.222248 0.2477 0.292638
0.242908 0.269093 0.312016
0.264698 0.292103 0.332418
0.28983 0.315953 0.354742
0.316426 0.341421 0.380957
0.345296 0.369436 0.407507
0.377478 0.400702 0.433143
0.410971 0.432486 0.45861
0.27364 0.300649 0.340261
0.29926 0.325002 0.363485
0.326665 0.351263 0.390768
0.356466 0.38056 0.416983
0.389456 0.412177 0.442451
0.42501 0.44419 0.467765
0.463691 0.476814 0.493309
0.502983 0.510109 0.519402
0.542916 0.544076 0.54609
0.368399 0.392157 0.426246
0.401511 0.423758 0.451713
0.439017 0.455985 0.476997
0.477989 0.488853 0.502739
0.51751 0.522377 0.529076
0.557641 0.556588 0.555932
0.598428 0.591424 0.583352
0.639918 0.626841 0.611505
0.681834 0.662959 0.640253
0.492256 0.500999 0.512291
0.532067 0.534752 0.538781
0.572457 0.569192 0.565835
0.613443 0.604257 0.593515
0.65507 0.639933 0.621881
0.697261 0.676249 0.650904
0.739849 0.713207 0.680659
0.782712 0.750805 0.711223
0.826078 0.788968 0.742565
0.628504 0.617182 0.603784
0.670283 0.653101 0.632349
0.712749 0.689616 0.661631
0.755474 0.726802 0.691707
0.798566 0.764599 0.72253
0.842008 0.803006 0.754086
0.886046 0.841962 0.786084
0.930648 0.881453 0.818448
0.975875 0.921462 0.851194
0.771069 0.740505 0.702846
0.814252 0.778531 0.733944
0.857816 0.817166 0.765682
0.902113 0.856306 0.797864
0.94699 0.895979 0.83032
0.992569 0.936141 0.863233
1 0.976791 0.896605
1 1 0.930846
1 1 0.965072
0.0584878 0.0882277 0.122072
0.0663615 0.0961471 0.131609
0.0766766 0.106279 0.144121
0.0888533 0.118059 0.158816
0.102525 0.131212 0.175143
0.117601 0.145602 0.192462
0.133639 0.161181 0.210178
0.150607 0.177966 0.227573
0.168551 0.19585 0.244327
0.0936294 0.122698 0.164584
0.107942 0.136294 0.181353
0.123339 0.151125 0.198947
0.139635 0.167147 0.216617
0.15697 0.184375 0.233692
0.17528 0.202579 0.250034
0.194491 0.221439 0.266026
0.214343 0.24036 0.285145
0.234836 0.260273 0.304448
0.145846 0.173281 0.22295
0.163531 0.19089 0.239826
0.182162 0.2094 0.255634
0.201694 0.228412 0.272847
0.221714 0.247242 0.292165
0.242374 0.268544 0.311528
0.264088 0.291539 0.331884
0.289219 0.315358 0.354131
0.315724 0.34078 0.380255
0.208896 0.235294 0.279927
0.229145 0.25449 0.299184
0.249958 0.27689 0.318746
0.27303 0.300069 0.339727
0.298711 0.324361 0.36289
0.325933 0.350607 0.390127
0.355734 0.379751 0.416358
0.388693 0.411414 0.441825
0.424125 0.443381 0.467155
0.282261 0.308751 0.34786
0.308385 0.333639 0.372076
0.336446 0.360815 0.399741
0.367559 0.391394 0.42562
0.400641 0.422995 0.451087
0.438132 0.455177 0.476371
0.476997 0.488045 0.502098
0.516548 0.521553 0.528405
0.556741 0.555718 0.555261
0.379889 0.402808 0.434897
0.413642 0.434638 0.460304
0.452277 0.467033 0.48571
0.491371 0.50016 0.51165
0.53109 0.533913 0.53814
0.571496 0.568338 0.565164
0.612467 0.603387 0.592828
0.654078 0.639033 0.621195
0.696208 0.675349 0.650187
0.505669 0.512398 0.521218
0.545785 0.546365 0.54789
0.586328 0.581033 0.575174
0.627482 0.616312 0.603082
0.669337 0.652186 0.631647
0.711681 0.688731 0.660914
0.754421 0.725887 0.690959
0.79733 0.763714 0.721767
0.840757 0.802106 0.753338
0.64271 0.629282 0.613413
0.684657 0.665431 0.642206
0.727184 0.70219 0.671763
0.770138 0.739544 0.702098
0.813107 0.777615 0.733181
0.856703 0.816236 0.764874
0.901091 0.855314 0.797055
0.945953 0.894972 0.829587
0.991455 0.935134 0.86247
0.785672 0.753368 0.713298
0.829023 0.791577 0.744671
0.872709 0.830427 0.776532
0.917388 0.869688 0.80882
0.962341 0.909575 0.841489
1 0.949859 0.87454
1 0.991196 0.908476
1 1 0.942412
1 1 0.976822
0.0608072 0.0906081 0.12488
0.0696574 0.0993668 0.135561
0.0806134 0.110124 0.148913
0.0933852 0.122362 0.164202
0.107561 0.135958 0.180941
0.122988 0.150744 0.198505
0.139254 0.166735 0.216205
0.156558 0.183948 0.23328
0.174884 0.202121 0.249653
0.0983902 0.127169 0.170153
0.113054 0.141207 0.187213
0.128756 0.156435 0.204959
0.145464 0.172854 0.222522
0.163134 0.190433 0.239414
0.18172 0.208927 0.255238
0.201205 0.227939 0.272358
0.22121 0.246769 0.291676
0.241886 0.267979 0.311055
0.151766 0.179156 0.228687
0.169802 0.197086 0.245411
0.188708 0.215808 0.261006
0.208438 0.234836 0.279438
0.228733 0.253956 0.298695
0.2495 0.27631 0.318288
0.272374 0.299504 0.339178
0.298054 0.323751 0.362295
0.325185 0.34995 0.389517
0.215747 0.241627 0.286473
0.23624 0.261784 0.305745
0.257328 0.284688 0.325689
0.281651 0.308156 0.34728
0.307668 0.333028 0.371405
0.335668 0.360128 0.3991
0.366796 0.390616 0.42501
0.399817 0.422202 0.450477
0.437217 0.454383 0.475776
0.29099 0.317006 0.355764
0.317586 0.34258 0.382223
0.346578 0.370733 0.408652
0.378912 0.402075 0.434256
0.412711 0.433845 0.459693
0.451255 0.46627 0.485084
0.490364 0.499352 0.510979
0.530053 0.533104 0.537469
0.570428 0.567514 0.564508
0.390875 0.41355 0.443549
0.426688 0.445579 0.468849
0.465446 0.478233 0.494408
0.504723 0.511559 0.520562
0.544732 0.545541 0.547234
0.585367 0.580163 0.574487
0.626566 0.615412 0.602365
0.668315 0.651301 0.630945
0.710597 0.687846 0.660197
0.519173 0.523873 0.530205
0.559472 0.558068 0.557107
0.600259 0.592935 0.584558
0.641627 0.628412 0.612726
0.683696 0.664515 0.641505
0.726116 0.701289 0.671031
0.769009 0.738643 0.70135
0.812177 0.776638 0.732403
0.85568 0.815259 0.764126
0.65684 0.641505 0.623117
0.699123 0.677821 0.652186
0.74165 0.714824 0.681971
0.784649 0.752422 0.712551
0.827832 0.790677 0.743908
0.871702 0.82945 0.775753
0.916152 0.868757 0.808057
0.961303 0.908568 0.840681
1 0.948867 0.873732
0.800381 0.766278 0.723873
0.843778 0.804715 0.755444
0.887846 0.843687 0.787503
0.932555 0.883192 0.819898
0.977951 0.923171 0.852628
1 0.963684 0.885847
1 1 0.919982
1 1 0.953994
1 1 0.988632
0.0635538 0.0933089 0.128161
0.0731518 0.102831 0.139834
0.0847944 0.114122 0.153918
0.0980087 0.126848 0.169741
0.112718 0.140841 0.186801
0.12842 0.156039 0.204532
0.144991 0.172457 0.22211
0.162631 0.190021 0.239002
0.181292 0.208469 0.254871
0.103197 0.131807 0.17583
0.118303 0.146242 0.19321
0.134356 0.161868 0.210956
0.151385 0.178698 0.22829
0.169314 0.196643 0.245029
0.188266 0.215335 0.260609
0.207935 0.234379 0.278965
0.228214 0.253452 0.298238
0.248951 0.275761 0.3178
0.157778 0.185138 0.234409
0.176104 0.203387 0.25069
0.195315 0.222263 0.266789
0.215167 0.241184 0.285985
0.235721 0.261234 0.305287
0.256794 0.284108 0.325185
0.280964 0.307591 0.346731
0.307088 0.332372 0.370764
0.334966 0.359426 0.398444
0.22266 0.248066 0.293004
0.243259 0.269551 0.312398
0.265095 0.292546 0.332815
0.290379 0.316396 0.355169
0.316976 0.341924 0.381506
0.345815 0.370016 0.408011
0.378149 0.401282 0.433646
0.411704 0.433082 0.459068
0.45034 0.465461 0.484443
0.299855 0.32546 0.363943
0.327138 0.351797 0.391257
0.357107 0.381186 0.417472
0.390097 0.412772 0.442924
0.425711 0.4448 0.468238
0.464454 0.47744 0.493797
0.503731 0.51075 0.519921
0.543755 0.544701 0.546593
0.584344 0.579309 0.5738
0.40209 0.424384 0.452171
0.439811 0.45658 0.477501
0.478676 0.489494 0.503243
0.518227 0.523018 0.529549
0.55848 0.557229 0.556435
0.599222 0.592081 0.583902
0.64062 0.627543 0.612009
0.682643 0.66363 0.640803
0.725093 0.700374 0.670298
0.532815 0.535409 0.539284
0.573251 0.569848 0.566339
0.614206 0.604929 0.594018
0.655909 0.640589 0.622415
0.69807 0.676936 0.651438
0.740612 0.713909 0.681224
0.783581 0.751507 0.711818
0.826795 0.789731 0.74313
0.870695 0.828458 0.77499
0.671153 0.653773 0.632883
0.713558 0.690303 0.662211
0.756268 0.72752 0.692287
0.799374 0.765316 0.723125
0.84268 0.803784 0.754696
0.886778 0.842725 0.786679
0.931456 0.882216 0.819089
0.976791 0.92221 0.85182
1 0.962692 0.885039
0.815229 0.779217 0.734569
0.858763 0.817868 0.766278
0.902953 0.857038 0.798444
0.947845 0.896727 0.83093
0.993545 0.936858 0.863905
1 0.977569 0.897231
1 1 0.931517
1 1 0.965743
1 1 1
0.0665293 0.0963149 0.131807
0.0769055 0.106493 0.144396
0.0891585 0.118273 0.159121
0.102861 0.131472 0.175448
0.117906 0.145876 0.192798
0.133959 0.161486 0.210513
0.150912 0.178302 0.227893
0.168902 0.196185 0.244633
0.187793 0.214878 0.260227
0.108217 0.136568 0.181643
0.123644 0.151415 0.199283
0.139986 0.167452 0.216968
0.157305 0.18471 0.233997
0.175662 0.202914 0.250309
0.194873 0.22179 0.266346
0.214725 0.240711 0.285542
0.235248 0.26067 0.304799
0.256245 0.283558 0.324666
0.163912 0.191226 0.240146
0.182483 0.209766 0.255909
0.202045 0.228763 0.273228
0.222141 0.247593 0.292531
0.242725 0.268986 0.31191
0.264561 0.291981 0.33228
0.289693 0.315816 0.354589
0.316304 0.341268 0.380804
0.345144 0.369268 0.40737
0.229587 0.254856 0.29955
0.250416 0.277302 0.319142
0.273487 0.300526 0.340139
0.299184 0.324849 0.363348
0.326482 0.35111 0.390616
0.35639 0.380362 0.416831
0.389303 0.411994 0.442313
0.424811 0.443992 0.467628
0.463554 0.476616 0.493156
0.308934 0.334127 0.372595
0.33698 0.361364 0.400229
0.368215 0.391974 0.426108
0.401251 0.42359 0.451545
0.438804 0.455802 0.476875
0.477714 0.488685 0.502571
0.517174 0.522225 0.528923
0.557504 0.556374 0.555779
0.59826 0.591211 0.5832
0.41442 0.435233 0.460761
0.452888 0.467689 0.486183
0.492058 0.500801 0.512123
0.531807 0.534569 0.538613
0.572259 0.568994 0.565667
0.613306 0.604028 0.593332
0.654826 0.639719 0.621714
0.697047 0.676036 0.650721
0.739635 0.712978 0.680491
0.546487 0.547036 0.548409
0.587121 0.581674 0.575692
0.628305 0.616968 0.603616
0.670222 0.652842 0.632181
0.71252 0.689403 0.661494
0.755215 0.726604 0.691539
0.798245 0.764401 0.722362
0.841733 0.802792 0.753918
0.88574 0.841749 0.785916
0.68542 0.666133 0.642771
0.727916 0.702907 0.672312
0.77084 0.740291 0.702647
0.813977 0.778332 0.733761
0.85771 0.816907 0.765515
0.901884 0.856077 0.797665
0.946807 0.89572 0.830182
0.992264 0.935912 0.863066
1 0.976562 0.896406
0.829801 0.792325 0.745266
0.873701 0.831113 0.777188
0.918212 0.870436 0.809415
0.963363 0.910277 0.8421
1 0.950607 0.875151
1 0.991989 0.909117
1 1 0.943053
1 1 0.977493
1 1 1
0.06981 0.0995651 0.13579
0.0808881 0.110323 0.149172
0.0935683 0.122637 0.164492
0.107851 0.136217 0.181262
0.123278 0.151034 0.19884
0.139605 0.167056 0.216526
0.156863 0.184283 0.233616
0.175158 0.202487 0.249928
0.194415 0.221332 0.265934
0.113344 0.141482 0.187549
0.129091 0.156741 0.205295
0.145754 0.173175 0.222858
0.163455 0.190784 0.239734
0.182101 0.209277 0.255528
0.201572 0.228305 0.272709
0.221668 0.24712 0.292042
0.242237 0.268421 0.311421
0.263951 0.291417 0.331762
0.170123 0.197436 0.245716
0.189044 0.216175 0.261326
0.208789 0.235187 0.27982
0.229129 0.254337 0.299077
0.249851 0.276753 0.318639
0.272816 0.299962 0.33959
0.298512 0.324239 0.362737
0.325765 0.350454 0.38999
0.355581 0.379568 0.41622
0.236591 0.262211 0.306127
0.257771 0.2851 0.326085
0.282048 0.308629 0.347707
0.308293 0.333486 0.371923
0.336248 0.360662 0.399588
0.367422 0.391196 0.425483
0.400381 0.422827 0.450935
0.437919 0.454994 0.476249
0.476799 0.487846 0.501945
0.318151 0.343084 0.382788
0.347173 0.371298 0.40914
0.379675 0.402625 0.43476
0.413413 0.434455 0.460166
0.451972 0.46688 0.485542
0.491127 0.499977 0.511482
0.530846 0.53373 0.537957
0.571298 0.568124 0.565026
0.612222 0.603189 0.59266
0.427497 0.446174 0.469337
0.466133 0.478859 0.494911
0.505455 0.5122 0.521065
0.54548 0.546181 0.547768
0.586145 0.580819 0.57499
0.627283 0.616098 0.602899
0.669093 0.651987 0.631464
0.711391 0.688533 0.660746
0.754208 0.725658 0.690806
0.560204 0.55874 0.55761
0.600977 0.593622 0.585061
0.642435 0.629084 0.613245
0.684443 0.665217 0.642039
0.726986 0.701961 0.671611
0.769772 0.739376 0.7019
0.81294 0.777386 0.732998
0.856504 0.815991 0.764736
0.900862 0.855085 0.796872
0.699825 0.678553 0.652735
0.742504 0.715511 0.682567
0.785504 0.753124 0.71313
0.828641 0.791394 0.744533
0.872602 0.830152 0.776379
0.917159 0.869459 0.808667
0.962158 0.909331 0.841276
1 0.94963 0.874342
1 0.990967 0.908293
0.844541 0.805463 0.756054
0.88867 0.844419 0.788098
0.933364 0.88394 0.820493
0.978759 0.923949 0.853239
1 0.964477 0.886473
1 1 0.920623
1 1 0.954726
1 1 0.989288
1 1 1
0.0733654 0.103029 0.140093
0.0850233 0.114351 0.154208
0.0982528 0.127108 0.170062
0.112947 0.141131 0.187121
0.128679 0.156359 0.204868
0.145388 0.172763 0.222431
0.162997 0.190356 0.239322
0.181613 0.208835 0.255161
0.201053 0.227848 0.272251
0.118608 0.146517 0.193545
0.134661 0.162173 0.211292
0.151675 0.179034 0.228611
0.169665 0.196979 0.245335
0.188602 0.215702 0.260914
0.208331 0.234714 0.279332
0.22855 0.253864 0.298589
0.249378 0.276173 0.318166
0.272236 0.299367 0.339055
0.17641 0.203754 0.25098
0.195682 0.222629 0.267124
0.215641 0.241505 0.286366
0.236088 0.261662 0.305653
0.257221 0.28455 0.325567
0.281529 0.308019 0.347158
0.307591 0.33286 0.371267
0.335576 0.359945 0.398947
0.366613 0.390448 0.424857
0.243656 0.269978 0.312764
0.265507 0.293004 0.333211
0.290822 0.316869 0.355612
0.317479 0.342428 0.382071
0.346426 0.370565 0.408499
0.378805 0.401862 0.434134
0.412421 0.433692 0.459541
0.450965 0.466102 0.484932
0.490135 0.499168 0.510811
0.327672 0.352316 0.39176
0.357733 0.381826 0.417929
0.390707 0.413367 0.443412
0.426505 0.445396 0.468727
0.465248 0.478035 0.49427
0.504479 0.511376 0.520409
0.544488 0.545342 0.547082
0.585107 0.57998 0.574334
0.626337 0.615213 0.602197
0.440558 0.457191 0.477974
0.479484 0.490089 0.503716
0.51899 0.523659 0.530053
0.559197 0.557885 0.556939
0.600031 0.592737 0.58439
0.641382 0.628229 0.612543
0.683436 0.664317 0.641367
0.725902 0.701076 0.670878
0.768765 0.73843 0.701183
0.573999 0.570504 0.566888
0.615091 0.605554 0.594568
0.656626 0.641291 0.622965
0.698924 0.677607 0.651987
0.741527 0.71458 0.681819
0.784375 0.752224 0.712383
0.827756 0.790402 0.743725
0.87158 0.829175 0.775616
0.915969 0.868513 0.807858
0.71429 0.691035 0.66276
0.757031 0.728237 0.692836
0.800122 0.766049 0.723751
0.843549 0.804486 0.755291
0.887663 0.843442 0.78732
0.932311 0.882963 0.819699
0.977539 0.922988 0.85243
1 0.96347 0.885634
1 1 0.919768
0.859541 0.818616 0.766903
0.903761 0.857801 0.799039
0.948653 0.897505 0.831525
0.994354 0.937636 0.864469
1 0.978302 0.897887
1 1 0.932128
1 1 0.966354
1 1 1
1 1 1
0.0771344 0.106691 0.144656
0.0893873 0.118517 0.159426
0.103151 0.131716 0.175753
0.118227 0.146151 0.193133
0.134279 0.161776 0.210864
0.151247 0.178622 0.228199
0.169223 0.196551 0.244938
0.188144 0.215244 0.260533
0.207813 0.234287 0.278874
0.123949 0.151705 0.199603
0.140276 0.167773 0.217288
0.157717 0.185016 0.234318
0.176043 0.203265 0.250614
0.195254 0.222141 0.266682
0.215152 0.241047 0.285878
0.235599 0.261112 0.305165
0.256657 0.283986 0.325063
0.280858 0.307439 0.346609
0.182879 0.210101 0.256214
0.202411 0.229129 0.273579
0.222553 0.247944 0.292897
0.243168 0.269398 0.312276
0.264942 0.292424 0.332677
0.290211 0.316274 0.355032
0.316793 0.341772 0.381338
0.345693 0.369833 0.407858
0.378027 0.401083 0.433509
0.250858 0.277729 0.319524
0.274006 0.300954 0.340536
0.299672 0.325322 0.363806
0.32694 0.351659 0.391119
0.356909 0.381003 0.417319
0.389868 0.412604 0.442786
0.425574 0.444602 0.468086
0.464286 0.477226 0.493645
0.503532 0.510552 0.519753
0.337545 0.361898 0.400732
0.368811 0.392569 0.426596
0.401862 0.424201 0.452018
0.439567 0.456413 0.477333
0.478538 0.489281 0.50309
0.518013 0.522835 0.529412
0.558221 0.557031 0.556268
0.599069 0.591867 0.583734
0.640467 0.627314 0.611872
0.453666 0.468299 0.486656
0.492775 0.501427 0.512627
0.532555 0.53521 0.539132
0.573037 0.56965 0.566186
0.614008 0.60473 0.593866
0.655634 0.640391 0.622248
0.697856 0.676722 0.651301
0.740383 0.713695 0.681041
0.783352 0.751278 0.711604
0.587976 0.58233 0.576181
0.629099 0.617624 0.60412
0.670893 0.653559 0.632731
0.713375 0.690089 0.662043
0.755993 0.727306 0.692088
0.799146 0.765087 0.722957
0.842542 0.803525 0.754513
0.886534 0.842496 0.786511
0.931273 0.881971 0.818891
0.728893 0.703563 0.672908
0.771634 0.741009 0.703227
0.814801 0.779049 0.734371
0.858488 0.817655 0.766094
0.9028 0.856794 0.798306
0.947601 0.896498 0.830747
0.993133 0.936675 0.863691
1 0.97734 0.897047
1 1 0.931289
0.87454 0.831846 0.777798
0.919051 0.871183 0.810056
0.964172 0.91104 0.842725
1 0.951385 0.875792
1 0.992721 0.909758
1 1 0.943694
1 1 0.978119
1 1 1
1 1 1
