luts/1771694514910-Gessy01.cube
TITLE "Generated by Resolve"
LUT_3D_SIZE 33
0 0.00891127 0.0713207
0 0.00793469 0.0705119
0 0.00784314 0.0704356
0 0.00730907 0.0699779
0 0.00518807 0.0681773
0 0.00177005 0.0649424
0.0714885 0 0.0608682
0.150164 0 0.0573129
0.22443 0 0.0534066
0.294636 0 0.0496376
0.358953 0 0.0459144
0.409873 0 0.0424659
0.45481 0 0.0394141
0.498863 0 0.0369116
0.541741 0 0.0350805
0.583062 0 0.0340581
0.622553 0 0.0336309
0.660456 0 0.0339513
0.696864 0 0.0349737
0.731853 0 0.0367132
0.765927 0 0.0393072
0.798825 0 0.0421607
0.831037 0 0.0454108
0.862806 0 0.0489357
0.894362 0 0.0526436
0.926101 0 0.0565957
0.958038 0 0.0600443
0.990509 0.000183108 0.0636149
1 0.00451667 0.0672618
1 0.00822461 0.0707866
1 0.0123598 0.0742504
1 0.0167849 0.0779583
1 0.0210422 0.0815442
0 0.0129244 0.0862745
0 0.0298314 0.0707256
0 0.0298161 0.0707103
0 0.0292515 0.0702373
0 0.027451 0.0687266
0 0.024033 0.0658579
0.0598917 0.0195468 0.0621042
0.139864 0.0153353 0.0585641
0.215656 0.0111696 0.0554665
0.286931 0.0071107 0.0520638
0.352926 0.00384527 0.0489204
0.406287 0.000488289 0.0461128
0.452293 0 0.0437629
0.497749 0 0.0421149
0.541741 0 0.04094
0.584161 0 0.0404974
0.624933 0 0.0408179
0.664118 0 0.0418402
0.701808 0 0.0436103
0.738079 0.00047303 0.0460975
0.772717 0.00384527 0.0489357
0.806271 0.00720226 0.0521553
0.838956 0.0113832 0.0556497
0.871031 0.0157778 0.0589456
0.902861 0.0204318 0.0628519
0.934508 0.0250401 0.0667124
0.966049 0.0293278 0.0703136
0.99794 0.0333867 0.0737163
1 0.0374609 0.0771344
1 0.0416419 0.0806439
1 0.0461128 0.0843977
1 0.0504311 0.0880293
1 0.0546883 0.0915999
0 0.0176699 0.102861
0 0.0344091 0.0861372
0 0.0520485 0.0704967
0 0.0518502 0.0703441
0 0.05066 0.069337
0 0.0479591 0.0670787
0.0498817 0.0442969 0.0639963
0.130663 0.040528 0.0608377
0.208347 0.0371405 0.0579995
0.281346 0.0339361 0.0557259
0.349111 0.0310521 0.0532998
0.404471 0.0285954 0.0512398
0.451865 0.0269017 0.0498207
0.498222 0.0256352 0.0487526
0.54345 0.0251164 0.0483101
0.587121 0.025391 0.0485542
0.629038 0.0264897 0.049485
0.669306 0.0283665 0.0510719
0.708003 0.0310826 0.0533303
0.744747 0.0341497 0.0559091
0.779889 0.037705 0.0585031
0.813748 0.0416114 0.061799
0.846586 0.0457465 0.0652628
0.878889 0.0502785 0.0690623
0.910323 0.0544747 0.0725872
0.941604 0.0587015 0.0761425
0.973037 0.0629282 0.0796979
1 0.0670939 0.0832074
1 0.0713664 0.0867933
1 0.0757916 0.0905013
1 0.0800488 0.0940871
1 0.0843366 0.0977035
1 0.0886397 0.10132
0 0.0220951 0.121294
0 0.038941 0.10248
0 0.0567025 0.0856336
0 0.0764019 0.0695506
0 0.076051 0.0692607
0 0.0745556 0.0679789
0.0390326 0.0716869 0.0655833
0.121477 0.0687419 0.0631266
0.201297 0.0662852 0.0610666
0.276097 0.0640116 0.0591897
0.34609 0.0623026 0.057969
0.403326 0.0607919 0.0568704
0.451469 0.0597543 0.0560159
0.498894 0.059266 0.0556191
0.545129 0.0593881 0.0557412
0.589731 0.0601663 0.0563973
0.632761 0.0619059 0.057847
0.673564 0.0639353 0.0591592
0.712505 0.0664988 0.061326
0.749599 0.0695201 0.0638895
0.784894 0.0728923 0.066743
0.818784 0.0765698 0.0698405
0.851713 0.0806439 0.0732586
0.883726 0.0847181 0.0766918
0.915282 0.0889296 0.0802625
0.94667 0.0932326 0.0838941
0.978149 0.0975357 0.0875257
1 0.1019 0.0912032
1 0.106233 0.0948501
1 0.110506 0.0984817
1 0.114794 0.102098
1 0.119051 0.105715
1 0.123339 0.109346
0 0.0261845 0.142397
0 0.0432898 0.120699
0 0.061326 0.10161
0 0.0819257 0.0846418
0 0.10515 0.068101
0 0.104616 0.0676738
0.026215 0.102831 0.0662089
0.110231 0.100786 0.0645151
0.192508 0.0992752 0.0632792
0.269673 0.0982376 0.0623636
0.341146 0.0972 0.0615091
0.400549 0.0964065 0.0608835
0.44947 0.0959487 0.0605325
0.497581 0.0958877 0.0605173
0.544457 0.0962844 0.0608835
0.589929 0.0975052 0.0618601
0.633051 0.0989242 0.0630961
0.674144 0.100801 0.0647135
0.713207 0.103059 0.0666514
0.750347 0.105715 0.068925
0.785794 0.108888 0.0716259
0.82005 0.112703 0.074815
0.853025 0.116548 0.0780957
0.885237 0.120638 0.0815747
0.916945 0.124895 0.0852064
0.948425 0.129229 0.0889143
0.980179 0.133913 0.0928206
1 0.13817 0.0964523
1 0.14229 0.0999771
1 0.146548 0.103624
1 0.150805 0.107271
1 0.155169 0.110979
1 0.159594 0.114717
0 0.0299687 0.166445
0 0.0474098 0.141604
0 0.06598 0.11957
0 0.0873121 0.100481
0 0.111696 0.0832074
0 0.138582 0.0661784
0.0111086 0.137972 0.0657054
0.0965133 0.136858 0.0648051
0.181689 0.136461 0.0644083
0.26009 0.135836 0.0639353
0.33312 0.135286 0.0635233
0.395239 0.134874 0.0632334
0.444541 0.134646 0.0630961
0.493248 0.13492 0.0632944
0.540413 0.135271 0.0636301
0.585763 0.135927 0.0642557
0.628962 0.13698 0.0652018
0.670192 0.138552 0.0665751
0.709529 0.140642 0.0684062
0.74728 0.143603 0.0708629
0.783078 0.146715 0.0735637
0.817426 0.150256 0.0766003
0.85066 0.154101 0.0799268
0.883055 0.15819 0.0834363
0.9149 0.162448 0.0870985
0.946654 0.167102 0.0910048
0.97818 0.171435 0.0947433
1 0.175692 0.0984207
1 0.179767 0.101946
1 0.183963 0.105592
1 0.188251 0.10927
1 0.19266 0.113024
1 0.196796 0.116625
0 0.0335546 0.192844
0 0.0514382 0.165621
0 0.0703746 0.140124
0 0.0925154 0.118044
0 0.11812 0.0990158
0 0.146426 0.0816205
0 0.17644 0.0649729
0.0820935 0.176089 0.0646677
0.168383 0.175799 0.0644846
0.248096 0.175494 0.0643015
0.322393 0.175113 0.0640574
0.38793 0.174716 0.063798
0.437263 0.174609 0.0636759
0.48571 0.174411 0.0635538
0.532815 0.17438 0.0636149
0.578347 0.174807 0.0640574
0.621958 0.175784 0.0649729
0.6636 0.177325 0.0663462
0.703593 0.179751 0.0683452
0.741497 0.182345 0.070634
0.77763 0.185412 0.0733043
0.812268 0.188891 0.0763409
0.845716 0.192691 0.0796521
0.878294 0.19675 0.0831617
0.910414 0.201312 0.0869917
0.942 0.205585 0.0907149
0.97351 0.209873 0.0944381
1 0.214084 0.0981155
1 0.218082 0.101625
1 0.222553 0.105394
1 0.226642 0.10898
1 0.230686 0.112551
1 0.234714 0.116075
0 0.0370947 0.220203
0 0.0551003 0.191653
0 0.0746624 0.163592
0 0.0975204 0.138231
0 0.124331 0.116533
0 0.154192 0.0978256
0 0.18529 0.0809491
0.0679789 0.215991 0.0648203
0.154894 0.215732 0.064683
0.235554 0.215427 0.0644846
0.310582 0.214878 0.0641031
0.378759 0.214511 0.0637522
0.428733 0.213931 0.0633402
0.477256 0.213581 0.0631418
0.524681 0.213565 0.0632181
0.570596 0.213977 0.0636606
0.614801 0.215167 0.0646677
0.656901 0.216754 0.0660716
0.697017 0.218769 0.0678569
0.735271 0.221286 0.0700847
0.77174 0.224277 0.0727245
0.806607 0.227695 0.0757
0.840436 0.231754 0.079118
0.873137 0.235752 0.0825971
0.905135 0.239902 0.0862135
0.936721 0.244144 0.0898909
0.968154 0.248371 0.0935683
1 0.252522 0.0972
1 0.256886 0.100893
1 0.260838 0.104356
1 0.264836 0.107866
1 0.268772 0.11133
1 0.272663 0.114748
0 0.040528 0.246647
0 0.0587015 0.218555
0 0.0787823 0.189273
0 0.102388 0.161288
0 0.130541 0.136782
0 0.161654 0.11577
0 0.193729 0.097612
0.0434272 0.224826 0.0810712
0.141131 0.255131 0.0648814
0.222736 0.254734 0.0645762
0.298848 0.254292 0.0642252
0.368017 0.253666 0.063798
0.420645 0.253132 0.063447
0.469383 0.252796 0.0632639
0.517082 0.252766 0.0633402
0.563531 0.253346 0.0638743
0.608026 0.254353 0.0647746
0.650416 0.255772 0.0660868
0.690883 0.257694 0.0678111
0.729442 0.260105 0.0699626
0.766232 0.263005 0.0725109
0.801511 0.266621 0.0755779
0.835355 0.270314 0.0787823
0.868132 0.274189 0.0821698
0.90016 0.278218 0.0857099
0.931731 0.282353 0.0893111
0.963119 0.286503 0.0929427
0.994751 0.290913 0.0966812
1 0.29482 0.10013
1 0.298604 0.103471
1 0.302449 0.106874
1 0.306249 0.110231
1 0.310307 0.113695
0 0.043946 0.274174
0 0.0623484 0.244678
0 0.0829023 0.215824
0 0.107271 0.186725
0 0.136202 0.159655
0 0.168536 0.136141
0 0.20174 0.115969
0.0187686 0.233417 0.0980392
0.116258 0.263798 0.0808576
0.209293 0.294347 0.0644236
0.286183 0.293782 0.0640726
0.356725 0.293202 0.0636912
0.412253 0.292683 0.0633707
0.461189 0.292348 0.0632029
0.509407 0.292607 0.0634012
0.555962 0.292897 0.0637827
0.600702 0.29366 0.0645609
0.643458 0.294957 0.0657816
0.68423 0.296757 0.0674296
0.723262 0.299245 0.0695811
0.760388 0.302113 0.0720836
0.795697 0.305287 0.0748913
0.829664 0.308782 0.0779889
0.862531 0.312535 0.0812848
0.894606 0.316442 0.0847181
0.926299 0.320699 0.088365
0.957595 0.324773 0.0919203
0.988891 0.32871 0.0954147
1 0.332509 0.0987716
1 0.33611 0.101991
1 0.339773 0.105257
1 0.343709 0.108644
1 0.34725 0.111818
0 0.0473335 0.302113
0 0.0662089 0.271962
0 0.0872358 0.241794
0 0.11194 0.212848
0 0.141588 0.18471
0 0.17496 0.159213
0 0.209247 0.136812
0 0.242008 0.116884
0.090959 0.272419 0.0976883
0.185916 0.302876 0.0803082
0.273167 0.333501 0.063859
0.345006 0.332937 0.063508
0.403769 0.332494 0.0632334
0.453025 0.332326 0.0631418
0.501167 0.332174 0.0631571
0.547967 0.332372 0.0634623
0.593042 0.332982 0.0641337
0.636088 0.334127 0.0652476
0.677287 0.335943 0.0668498
0.716564 0.338216 0.068864
0.753857 0.340795 0.0711833
0.78938 0.343771 0.0738537
0.823468 0.347097 0.0768139
0.856413 0.350668 0.0799725
0.88864 0.354681 0.0834211
0.920165 0.358602 0.0868544
0.951324 0.362448 0.0902571
0.982422 0.366217 0.0936141
1 0.369863 0.0968643
1 0.373281 0.0999466
1 0.377081 0.103227
1 0.380468 0.106279
1 0.38378 0.109285
0 0.0508431 0.330694
0 0.0698711 0.299458
0 0.0914473 0.268269
0 0.116823 0.238407
0 0.146868 0.210666
0 0.181003 0.184466
0 0.216464 0.160555
0 0.249805 0.137957
0.0649577 0.280598 0.116136
0.161685 0.311162 0.0968948
0.250706 0.341939 0.0796979
0.333043 0.372808 0.0633555
0.3953 0.372473 0.0631266
0.444434 0.372 0.0628824
0.492714 0.37174 0.0628367
0.539742 0.371786 0.063035
0.585092 0.372259 0.0635996
0.628687 0.373541 0.0647135
0.670008 0.374975 0.0660868
0.709422 0.376883 0.0678721
0.74696 0.379248 0.0700236
0.782681 0.38204 0.0725414
0.816968 0.385336 0.0754253
0.850065 0.388891 0.0785077
0.882124 0.392447 0.0816663
0.913542 0.396109 0.0849165
0.944579 0.399786 0.0881971
0.975479 0.403388 0.0914015
1 0.407065 0.0946212
1 0.410361 0.0975662
1 0.413642 0.100526
1 0.416815 0.10341
1 0.419883 0.106233
0 0.0541848 0.359823
0 0.0735485 0.32726
0 0.0956588 0.295354
0 0.121721 0.264408
0 0.152468 0.236316
0 0.18706 0.210895
0 0.222827 0.186221
0 0.256992 0.161608
0.0383764 0.28838 0.137057
0.135973 0.319142 0.115099
0.227939 0.350454 0.0963455
0.312291 0.381323 0.0792248
0.386908 0.412238 0.062974
0.435798 0.411658 0.0626688
0.484169 0.411261 0.0625162
0.531411 0.411185 0.062623
0.577203 0.411719 0.0631418
0.620813 0.412467 0.0639506
0.662409 0.413703 0.0651713
0.702022 0.415366 0.0667582
0.739757 0.417487 0.0687266
0.775753 0.420172 0.071107
0.810162 0.42327 0.0738231
0.843198 0.426413 0.0766461
0.875227 0.429725 0.0796216
0.906554 0.433127 0.0826886
0.937423 0.436576 0.0857862
0.968231 0.440162 0.0889448
0.999084 0.443534 0.0919356
1 0.446555 0.0947127
1 0.449454 0.0973983
1 0.452354 0.100084
1 0.455177 0.102708
0 0.0575113 0.390372
0 0.0772259 0.355764
0 0.0998703 0.322698
0 0.126802 0.291447
0 0.157778 0.262043
0 0.192676 0.236469
0 0.228794 0.212711
0 0.26363 0.18732
0.0114443 0.295689 0.160632
0.109468 0.327077 0.135973
0.20383 0.358343 0.114412
0.290303 0.389395 0.0956283
0.368536 0.420279 0.078645
0.427161 0.45095 0.0625467
0.475654 0.450446 0.0623026
0.523217 0.450416 0.0623636
0.568978 0.450446 0.0625925
0.612818 0.450919 0.0631876
0.654627 0.451881 0.06421
0.694469 0.4533 0.0655985
0.732616 0.455482 0.0675059
0.768658 0.45771 0.0695964
0.803037 0.460334 0.0719921
0.836088 0.463218 0.0746166
0.868086 0.46627 0.0773938
0.899367 0.469535 0.0803235
0.930175 0.472908 0.083299
0.960632 0.47602 0.0861524
0.991119 0.479011 0.0889143
1 0.481804 0.0915084
1 0.484413 0.0939651
1 0.487175 0.0964981
1 0.489799 0.0989242
0 0.0608225 0.421927
0 0.0809033 0.385336
0 0.104326 0.350881
0 0.13164 0.318517
0 0.163012 0.288823
0 0.198108 0.262287
0 0.234501 0.238483
0 0.270069 0.214054
0 0.302846 0.186633
0.0817121 0.33431 0.159319
0.178729 0.365805 0.134844
0.267247 0.397147 0.113497
0.348211 0.428107 0.0948959
0.412451 0.459007 0.0782635
0.467414 0.48925 0.0623484
0.514809 0.488731 0.0621042
0.560739 0.488518 0.06215
0.604791 0.488716 0.0625315
0.646815 0.489403 0.0633097
0.687053 0.490806 0.0646067
0.725124 0.492348 0.0661173
0.761334 0.494301 0.0679789
0.795773 0.496605 0.0701305
0.828824 0.499153 0.0724956
0.860822 0.502007 0.0750896
0.892042 0.505089 0.0778363
0.922576 0.507988 0.0805066
0.952789 0.510811 0.0831311
0.98294 0.513527 0.0856641
1 0.516045 0.0880598
1 0.518486 0.0903182
1 0.520912 0.092607
1 0.523079 0.0947127
0 0.0642405 0.45304
0 0.0847791 0.416632
0 0.108537 0.379721
0 0.1364 0.34609
0 0.168246 0.315862
0 0.203342 0.289082
0 0.240177 0.264698
0 0.275914 0.239887
0 0.309285 0.213291
0.0533761 0.341161 0.184955
0.151995 0.372793 0.157824
0.243 0.40444 0.133654
0.327062 0.435904 0.112718
0.397162 0.466484 0.0943313
0.452445 0.49659 0.07776
0.506523 0.526284 0.0620584
0.552575 0.525795 0.0618753
0.596826 0.525704 0.0620279
0.639246 0.52636 0.0626993
0.679408 0.527138 0.0635843
0.717617 0.528344 0.0648203
0.753948 0.529946 0.066392
0.788479 0.531914 0.0682689
0.821714 0.534463 0.0705425
0.853574 0.536873 0.0728161
0.88452 0.539406 0.0751965
0.914855 0.542 0.0776074
0.944808 0.544533 0.0800031
0.974685 0.547021 0.0823377
1 0.549447 0.0845808
1 0.551385 0.0865034
1 0.553384 0.0884718
1 0.555245 0.0903334
0 0.0676585 0.483421
0 0.0884718 0.447074
0 0.112734 0.410178
0 0.141085 0.374533
0 0.173342 0.34345
0 0.208759 0.316426
0 0.245411 0.291493
0 0.281346 0.265873
0 0.315343 0.239322
0.0248112 0.347692 0.211627
0.123949 0.379599 0.183261
0.218036 0.411582 0.156558
0.304204 0.442924 0.132586
0.381323 0.47361 0.111727
0.437156 0.50367 0.0936294
0.491676 0.533165 0.0773327
0.544823 0.562448 0.0620127
0.589212 0.562036 0.0618906
0.631556 0.562051 0.0621347
0.671855 0.562493 0.0627298
0.710185 0.563333 0.0636759
0.746624 0.564553 0.0649424
0.781399 0.566445 0.0666667
0.814435 0.568338 0.0684977
0.84622 0.570428 0.0704967
0.877028 0.57261 0.0725719
0.907118 0.574838 0.0747082
0.936828 0.577096 0.0768444
0.966461 0.579446 0.0790112
0.996078 0.581384 0.0809186
1 0.583017 0.0825818
1 0.58468 0.0842908
1 0.586252 0.0859083
0 0.0710002 0.512825
0 0.0921645 0.476814
0 0.116899 0.440238
0 0.145815 0.404715
0 0.178576 0.372152
0 0.213626 0.343984
0 0.250294 0.318318
0 0.286412 0.292439
0 0.32105 0.265431
0 0.354116 0.237995
0.0946822 0.385992 0.209781
0.191516 0.417975 0.181552
0.279988 0.4495 0.154925
0.360265 0.480308 0.131228
0.421408 0.510399 0.110704
0.476677 0.540032 0.0930953
0.530159 0.568826 0.0771038
0.581567 0.597009 0.0619211
0.624033 0.596628 0.0618296
0.664469 0.596704 0.0621195
0.702922 0.597177 0.0627451
0.739635 0.598306 0.0638437
0.774273 0.599496 0.0650797
0.807248 0.600992 0.0665751
0.838941 0.602701 0.0682536
0.869612 0.604547 0.0700542
0.899672 0.606714 0.0720378
0.929076 0.608606 0.0738842
0.958282 0.610407 0.0756695
0.987533 0.612085 0.077348
1 0.613535 0.0788434
1 0.614847 0.0802319
1 0.616327 0.0817121
0 0.0743572 0.541253
0 0.0958267 0.50573
0 0.121111 0.469734
0 0.150484 0.434852
0 0.183368 0.402182
0 0.218448 0.372503
0 0.254902 0.345602
0 0.291112 0.319051
0 0.32665 0.292409
0 0.360143 0.264286
0.065095 0.392081 0.23595
0.163821 0.423941 0.207675
0.254459 0.455589 0.179568
0.337972 0.486732 0.153307
0.405493 0.517006 0.130022
0.461006 0.546349 0.109865
0.515068 0.574929 0.0924697
0.567178 0.602792 0.0768139
0.616754 0.63006 0.0618753
0.657465 0.629923 0.0619211
0.69601 0.63003 0.0622263
0.732586 0.630472 0.0628214
0.767285 0.631266 0.0637064
0.800259 0.63238 0.0648814
0.831876 0.633707 0.0662242
0.862577 0.635462 0.0678569
0.892302 0.637049 0.0694285
0.921477 0.638636 0.0710002
0.950378 0.640146 0.0725414
0.979263 0.641535 0.0739605
1 0.642741 0.0752422
1 0.643946 0.076463
1 0.644953 0.0775921
0 0.0777447 0.568658
0 0.0997177 0.533928
0 0.125338 0.498512
0 0.154879 0.464225
0 0.187976 0.432319
0 0.223102 0.402579
0 0.259403 0.37377
0 0.295781 0.346365
0 0.331456 0.319097
0 0.365652 0.291157
0.0354162 0.398001 0.262013
0.134463 0.429633 0.233646
0.22797 0.461418 0.20557
0.314092 0.492592 0.17763
0.388922 0.522866 0.151507
0.4448 0.552239 0.128557
0.499458 0.580713 0.108858
0.5523 0.608347 0.0918898
0.602869 0.635447 0.0766613
0.650431 0.661738 0.0618448
0.689021 0.661372 0.0617533
0.725658 0.661387 0.0619821
0.760433 0.661784 0.0625315
0.793439 0.662516 0.0633707
0.825193 0.663752 0.0645609
0.855604 0.664881 0.0657359
0.885161 0.666133 0.0670024
0.914122 0.667414 0.0683146
0.942748 0.668666 0.0695964
0.97145 0.670008 0.0709087
1 0.670924 0.072221
1 0.671611 0.0730144
1 0.672343 0.0738689
0 0.0812695 0.594995
0 0.103395 0.560845
0 0.129335 0.526238
0 0.159152 0.492836
0 0.192401 0.461799
0 0.227619 0.432715
0 0.263783 0.403586
0 0.299855 0.374121
0 0.335821 0.34609
0 0.370642 0.317968
0.00576791 0.403555 0.288914
0.104494 0.435477 0.259556
0.200519 0.466941 0.231525
0.288655 0.497917 0.203189
0.368475 0.528222 0.17528
0.428031 0.557656 0.149523
0.483467 0.586252 0.127153
0.537148 0.61387 0.108049
0.588357 0.640482 0.0914473
0.636667 0.666316 0.0762951
0.682094 0.691493 0.0614633
0.718837 0.691112 0.0613565
0.753826 0.691264 0.0616465
0.786923 0.691676 0.0621805
0.818479 0.692317 0.0628977
0.848829 0.693126 0.0637827
0.878233 0.694041 0.0648814
0.906981 0.694987 0.066041
0.93547 0.696162 0.067155
0.963729 0.697047 0.0680858
0.992096 0.697765 0.0688792
1 0.698161 0.0694285
1 0.698634 0.0700236
0 0.0846265 0.619959
0 0.107027 0.586587
0 0.133272 0.552987
0 0.163317 0.520607
0 0.196933 0.490867
0 0.232059 0.462303
0 0.267887 0.433249
0 0.303655 0.403342
0 0.339818 0.373754
0 0.375219 0.345113
0 0.409003 0.31606
0.0737163 0.440772 0.286259
0.172091 0.472099 0.256825
0.262058 0.502968 0.228901
0.344793 0.533165 0.200473
0.410803 0.562707 0.172824
0.46685 0.591348 0.147646
0.521157 0.618784 0.125719
0.57322 0.645197 0.107012
0.6224 0.67071 0.0907149
0.66862 0.695506 0.0757
0.7122 0.719814 0.0609598
0.747219 0.719493 0.060853
0.780316 0.719432 0.0612802
0.811856 0.719692 0.0616465
0.842161 0.720165 0.0621958
0.871473 0.72079 0.0628519
0.900221 0.721691 0.0637217
0.928344 0.722362 0.0644388
0.956268 0.722972 0.0651102
0.984268 0.723445 0.0656748
1 0.72372 0.0660868
1 0.72401 0.0664836
0 0.087953 0.643793
0 0.110613 0.6112
0 0.137072 0.578607
0 0.16759 0.547677
0 0.200977 0.518791
0 0.236072 0.490913
0 0.271748 0.462257
0 0.307179 0.432441
0 0.34345 0.402792
0 0.379522 0.373037
0 0.413687 0.343252
0.0426032 0.445747 0.313008
0.141878 0.476905 0.283131
0.234424 0.507744 0.25388
0.320104 0.538079 0.226215
0.393164 0.567376 0.197742
0.44947 0.595819 0.170275
0.504494 0.623224 0.14548
0.557427 0.649561 0.124071
0.60766 0.674968 0.105867
0.654871 0.69958 0.0899367
0.699062 0.723339 0.0750286
0.740566 0.746502 0.0603494
0.773831 0.74609 0.0601358
0.805402 0.746014 0.0601816
0.835737 0.746258 0.060502
0.865034 0.746639 0.0609293
0.893462 0.747051 0.061387
0.921386 0.747463 0.0618601
0.94905 0.747814 0.0622873
0.976699 0.748043 0.062623
1 0.748241 0.0629129
1 0.748135 0.062974
0 0.091249 0.666499
0 0.114321 0.634852
0 0.141054 0.603326
0 0.17142 0.573373
0 0.204791 0.545693
0 0.239872 0.518624
0 0.275395 0.490532
0 0.310826 0.46125
0 0.346929 0.431891
0 0.383047 0.401968
0 0.417853 0.370993
0.0115358 0.450385 0.340108
0.110109 0.481453 0.309529
0.206134 0.512459 0.28014
0.293736 0.542443 0.250919
0.372915 0.571572 0.222995
0.431586 0.599878 0.194553
0.48716 0.627222 0.167422
0.540993 0.653574 0.143191
0.592309 0.678935 0.122393
0.640375 0.703182 0.10457
0.685405 0.72665 0.0888228
0.727657 0.749432 0.0740063
0.76733 0.771664 0.0590982
0.799069 0.771344 0.0589151
0.829419 0.771252 0.0589151
0.858549 0.771221 0.0589914
0.886854 0.771313 0.0591592
0.91458 0.771466 0.0593729
0.942 0.771588 0.0595712
0.969467 0.771786 0.0598306
0.996994 0.771618 0.0598001
1 0.771206 0.0595712
0 0.0946212 0.688258
0 0.117784 0.657298
0 0.14464 0.626749
0 0.175097 0.597986
0 0.208408 0.571481
0 0.243397 0.545296
0 0.279072 0.518166
0 0.314 0.489113
0 0.349859 0.46006
0 0.386114 0.430701
0 0.421454 0.399924
0 0.454597 0.367819
0.078294 0.48603 0.336538
0.17644 0.516579 0.306157
0.266072 0.546487 0.276539
0.348287 0.575479 0.24744
0.41323 0.603601 0.219455
0.469505 0.631067 0.191348
0.523949 0.657252 0.164508
0.576043 0.682338 0.140703
0.625177 0.706462 0.120317
0.671183 0.729717 0.102968
0.714336 0.752285 0.0875257
0.754864 0.774289 0.0728618
0.792737 0.795605 0.057969
0.823026 0.795102 0.0577401
0.852155 0.794797 0.0575418
0.880354 0.794614 0.0574502
0.907973 0.794553 0.0574655
0.935225 0.794507 0.0574807
0.962264 0.794308 0.0573892
0.989441 0.793957 0.0571603
1 0.793317 0.0567178
0 0.0978103 0.708904
0 0.12108 0.67866
0 0.148058 0.649104
0 0.178576 0.621515
0 0.212055 0.596307
0 0.247028 0.57116
0 0.282185 0.544518
0 0.31696 0.516167
0 0.352514 0.48748
0 0.388785 0.458701
0 0.424796 0.429023
0 0.458534 0.396963
0.0456855 0.489998 0.363943
0.145022 0.520363 0.332433
0.237201 0.550225 0.302251
0.322179 0.579126 0.272602
0.394751 0.607279 0.243931
0.451041 0.634287 0.215808
0.506081 0.660365 0.187549
0.55903 0.685374 0.161059
0.609232 0.709377 0.137835
0.656321 0.732525 0.118105
0.700526 0.754986 0.10132
0.741741 0.776562 0.0860609
0.780316 0.797528 0.0712902
0.816541 0.818021 0.0561532
0.84567 0.817395 0.0556649
0.873869 0.816999 0.0553597
0.901396 0.816724 0.0551461
0.928359 0.816327 0.0548714
0.955139 0.8159 0.054551
0.98201 0.815381 0.0541543
1 0.814694 0.0536202
0 0.100877 0.728542
0 0.124269 0.699077
0 0.151308 0.670451
0 0.181994 0.644099
0 0.215305 0.619867
0 0.250095 0.595575
0 0.285054 0.569818
0 0.319661 0.54226
0 0.354879 0.514076
0 0.391302 0.486091
0 0.427359 0.457023
0 0.461662 0.42594
0.013077 0.493553 0.392508
0.111635 0.523812 0.359274
0.207126 0.553597 0.32813
0.294957 0.582696 0.298207
0.373861 0.610483 0.268574
0.43212 0.637247 0.239841
0.487572 0.663111 0.211475
0.541283 0.688014 0.183307
0.592737 0.712139 0.157504
0.640864 0.735119 0.134936
0.685924 0.757259 0.115785
0.728054 0.778622 0.0993057
0.767437 0.799329 0.0842298
0.804273 0.819516 0.0692912
0.839155 0.839323 0.0538186
0.867277 0.83856 0.0532082
0.894636 0.837934 0.0526894
0.921477 0.837354 0.0522011
0.948058 0.836744 0.0517128
0.974685 0.836088 0.0511788
1 0.835355 0.0505684
0 0.103792 0.747219
0 0.127306 0.718517
0 0.154635 0.691005
0 0.185107 0.665599
0 0.218204 0.642237
0 0.252872 0.618845
0 0.287648 0.593973
0 0.322301 0.567498
0 0.357366 0.540108
