luts/1771694559124-Slay08.cube
TITLE "Generated by Resolve"
LUT_3D_SIZE 33
0.0558328 0.085481 0.118746
0.056199 0.0858778 0.11931
0.0574197 0.0871443 0.12079
0.0589151 0.0887007 0.122621
0.0606546 0.0904707 0.124727
0.0626535 0.0924086 0.127062
0.064744 0.0945449 0.129625
0.0670481 0.096788 0.132387
0.0694285 0.0991989 0.135332
0.0719768 0.101717 0.13846
0.0746929 0.104326 0.141711
0.0774853 0.107057 0.145113
0.0803998 0.109895 0.148638
0.0834363 0.112825 0.152285
0.0865492 0.115846 0.156054
0.0898146 0.118929 0.159945
0.0931411 0.122118 0.163897
0.0965133 0.125414 0.167941
0.100008 0.128756 0.172091
0.103639 0.132174 0.176318
0.107256 0.135698 0.180621
0.11104 0.139269 0.184924
0.114855 0.142931 0.189288
0.11873 0.146654 0.193729
0.122667 0.150469 0.198169
0.126665 0.154345 0.202609
0.130663 0.158312 0.20705
0.134798 0.162325 0.211444
0.138933 0.166445 0.215854
0.143175 0.170611 0.220233
0.147463 0.174868 0.224521
0.151858 0.179187 0.228748
0.156237 0.183612 0.232975
0.0595407 0.0893111 0.123354
0.0613718 0.0911574 0.125521
0.0634012 0.0931563 0.127962
0.0655375 0.0953384 0.130617
0.0679179 0.0976425 0.13344
0.0703441 0.100084 0.136461
0.0729839 0.102632 0.13962
0.0756847 0.105303 0.142947
0.0785687 0.108064 0.14638
0.0814984 0.110948 0.149966
0.0845808 0.113893 0.153658
0.0877394 0.116945 0.157458
0.0909743 0.120089 0.161349
0.0943465 0.123308 0.165362
0.0977493 0.126619 0.169436
0.10132 0.129992 0.173617
0.104967 0.13344 0.177874
0.108644 0.13698 0.182162
0.112398 0.140597 0.186496
0.116258 0.144274 0.190906
0.12015 0.148028 0.195346
0.124117 0.151858 0.199786
0.128099 0.155779 0.204211
0.132158 0.159762 0.208621
0.136248 0.163821 0.213062
0.140505 0.167926 0.217487
0.144701 0.172152 0.221805
0.149035 0.17644 0.226062
0.153414 0.180789 0.230289
0.157855 0.185214 0.234485
0.162325 0.1897 0.238712
0.166873 0.194232 0.242893
0.171496 0.198825 0.246906
0.0663462 0.0961776 0.13164
0.0687419 0.0985275 0.134539
0.0712902 0.100999 0.137591
0.0739452 0.103609 0.140795
0.0766766 0.10631 0.144167
0.0796216 0.109102 0.147662
0.0826276 0.112001 0.151308
0.0856641 0.115007 0.155047
0.0888685 0.11809 0.158877
0.0921798 0.121263 0.162783
0.0955978 0.124498 0.166812
0.0990768 0.12784 0.170932
0.102571 0.131258 0.175174
0.106264 0.134737 0.179431
0.109972 0.138293 0.183734
0.113771 0.141924 0.188083
0.117647 0.145647 0.192493
0.121599 0.149416 0.196948
0.125536 0.153277 0.201404
0.12958 0.157214 0.205829
0.133669 0.161227 0.210224
0.137835 0.165301 0.214649
0.142 0.169467 0.219043
0.146258 0.173709 0.223377
0.150652 0.178012 0.227604
0.155016 0.182391 0.2318
0.159442 0.186847 0.236042
0.164004 0.191333 0.240253
0.168536 0.195911 0.244388
0.173205 0.200504 0.248325
0.17789 0.205173 0.252155
0.182635 0.209857 0.256016
0.187503 0.214572 0.259953
0.0749371 0.10457 0.142031
0.0777447 0.107317 0.145418
0.080705 0.11014 0.148959
0.0837262 0.113085 0.152621
0.0868849 0.116106 0.15642
0.0901198 0.119219 0.160296
0.093431 0.122423 0.164279
0.0968185 0.125719 0.168322
0.100359 0.129061 0.172473
0.103929 0.132509 0.176715
0.107622 0.136004 0.181018
0.111421 0.13959 0.185306
0.115221 0.143267 0.1897
0.119097 0.147005 0.194125
0.123033 0.15082 0.198581
0.127016 0.154696 0.203006
0.13106 0.158663 0.207431
0.135134 0.162707 0.211856
0.139345 0.166796 0.216281
0.143542 0.170993 0.22063
0.147906 0.17525 0.224918
0.152285 0.179583 0.229129
0.156664 0.183993 0.233356
0.161074 0.188479 0.237583
0.165637 0.192996 0.241764
0.17023 0.197574 0.245823
0.174929 0.202197 0.249714
0.179599 0.206882 0.253559
0.184405 0.211566 0.257435
0.189197 0.216312 0.261418
0.194125 0.221042 0.26566
0.199039 0.225818 0.270253
0.203952 0.230625 0.275105
0.0848402 0.114183 0.154009
0.088014 0.117235 0.157809
0.0912947 0.120378 0.161715
0.0946212 0.123613 0.165728
0.0980697 0.126925 0.169848
0.10164 0.130312 0.174029
0.105287 0.133761 0.178271
0.10898 0.137316 0.182559
0.112795 0.140917 0.186892
0.116655 0.14461 0.191318
0.1205 0.148379 0.195758
0.124468 0.152224 0.200198
0.128481 0.156146 0.204623
0.132586 0.160113 0.209018
0.13666 0.164187 0.213443
0.140841 0.168322 0.217884
0.145083 0.172549 0.222217
0.149447 0.176822 0.226459
0.153826 0.181201 0.230671
0.158251 0.185626 0.234882
0.162737 0.190112 0.239094
0.167285 0.194675 0.243259
0.171893 0.199268 0.247257
0.176684 0.203876 0.251118
0.181338 0.208576 0.254963
0.186191 0.213275 0.258885
0.190951 0.218036 0.262959
0.19588 0.222782 0.267292
0.200839 0.227573 0.271992
0.205798 0.232334 0.27686
0.210788 0.237018 0.281712
0.215808 0.241672 0.286534
0.220859 0.246403 0.291341
0.0959335 0.124804 0.167208
0.099382 0.128145 0.171313
0.102983 0.131548 0.175555
0.106584 0.135058 0.179843
0.110384 0.138613 0.184146
0.114137 0.142275 0.188495
0.118029 0.145983 0.19292
0.12192 0.149783 0.19736
0.125963 0.153628 0.201831
0.129946 0.15758 0.20621
0.134005 0.161608 0.210636
0.13814 0.165698 0.215061
0.142428 0.169848 0.219455
0.14667 0.17409 0.223774
0.151019 0.178408 0.228
0.155428 0.182803 0.232197
0.159854 0.187259 0.236408
0.16437 0.19176 0.24062
0.168994 0.196323 0.244739
0.173587 0.200946 0.248676
0.178332 0.2056 0.252522
0.183078 0.2103 0.256367
0.187915 0.215015 0.260334
0.192752 0.21976 0.264485
0.197635 0.224537 0.268956
0.202625 0.229328 0.273777
0.207614 0.234043 0.278645
0.212543 0.238727 0.283467
0.217639 0.243381 0.288273
0.22266 0.248173 0.29308
0.227863 0.253101 0.297887
0.233005 0.258335 0.302739
0.238148 0.263935 0.307591
0.107988 0.136339 0.181384
0.111757 0.139925 0.185733
0.115557 0.143603 0.190097
0.119448 0.147356 0.194537
0.123384 0.151171 0.198993
0.127382 0.155062 0.203418
0.131426 0.159045 0.207843
0.135531 0.163073 0.212253
0.139727 0.167193 0.216678
0.143969 0.171374 0.221027
0.148318 0.175647 0.225299
0.152697 0.17998 0.229526
0.157092 0.184405 0.233753
0.161501 0.188891 0.237964
0.166049 0.193423 0.24213
0.170657 0.198001 0.246204
0.175387 0.202609 0.250065
0.180056 0.207309 0.253895
0.184817 0.212009 0.257786
0.189624 0.216754 0.261814
0.194537 0.2215 0.266072
0.199527 0.226246 0.27068
0.20441 0.231067 0.275532
0.20943 0.235737 0.280415
0.214374 0.240421 0.285222
0.219501 0.245106 0.290028
0.224567 0.249943 0.29482
0.229786 0.254963 0.299641
0.234867 0.260334 0.304509
0.240055 0.266011 0.309361
0.245228 0.271733 0.31426
0.250431 0.27747 0.31928
0.255894 0.283192 0.324346
0.120867 0.14873 0.19617
0.124819 0.152575 0.200626
0.128862 0.156497 0.20502
0.132952 0.160494 0.209445
0.137057 0.164569 0.213855
0.141283 0.168704 0.218265
0.14548 0.172946 0.222599
0.149844 0.177234 0.226841
0.154208 0.181613 0.231067
0.158694 0.186023 0.235279
0.163149 0.190539 0.239475
0.167681 0.195087 0.243656
0.172351 0.19968 0.247623
0.177096 0.204318 0.251469
0.181811 0.209003 0.255314
0.186618 0.213718 0.259236
0.191424 0.218479 0.26334
0.196368 0.223224 0.267704
0.201297 0.228016 0.27245
0.206226 0.232776 0.277302
0.211215 0.237446 0.282155
0.216236 0.242115 0.286976
0.221317 0.246845 0.291783
0.226398 0.251759 0.29659
0.231586 0.256886 0.301411
0.236774 0.262379 0.306264
0.241978 0.26807 0.311147
0.24715 0.273808 0.316075
0.252476 0.27953 0.321111
0.257923 0.285283 0.326238
0.263584 0.291081 0.331456
0.269642 0.29691 0.336797
0.275929 0.302815 0.342275
0.134401 0.161975 0.211048
0.138582 0.166064 0.215473
0.142809 0.17023 0.219852
0.147097 0.174487 0.224155
0.151446 0.17882 0.228367
0.15584 0.183215 0.232609
0.160281 0.187671 0.23682
0.164797 0.192187 0.241016
0.169436 0.196735 0.245121
0.174044 0.201373 0.249027
0.178759 0.206027 0.252872
0.183581 0.210712 0.256718
0.188373 0.215442 0.2607
0.19324 0.220188 0.264881
0.198123 0.224964 0.269383
0.203052 0.229786 0.27422
0.208072 0.234485 0.279072
0.213077 0.239139 0.283894
0.218082 0.243824 0.288731
0.223163 0.2486 0.293523
0.228275 0.25359 0.298329
0.233494 0.258839 0.303181
0.238651 0.264454 0.308034
0.243839 0.270176 0.312932
0.249058 0.275883 0.317906
0.254414 0.281621 0.322972
0.259953 0.287388 0.328115
0.265782 0.293187 0.333394
0.271916 0.299062 0.338766
0.278248 0.304982 0.344289
0.284642 0.310994 0.349966
0.291005 0.317098 0.35581
0.297581 0.323278 0.361807
0.14873 0.176043 0.225696
0.153048 0.180407 0.229908
0.157519 0.184802 0.234134
0.161929 0.189303 0.238361
0.166506 0.193835 0.242527
0.171099 0.198428 0.246555
0.175784 0.203052 0.250416
0.180529 0.207721 0.254261
0.185306 0.212436 0.258167
0.190112 0.217182 0.262211
0.19501 0.221927 0.266499
0.199954 0.226703 0.271107
0.204959 0.231479 0.27599
0.209873 0.236179 0.280858
0.214847 0.240848 0.285664
0.219944 0.245548 0.290455
0.225086 0.250385 0.295262
0.230182 0.255467 0.300099
0.23537 0.260838 0.304936
0.240497 0.266545 0.309819
0.245777 0.272236 0.314733
0.251011 0.277974 0.319722
0.256397 0.283726 0.324819
0.262043 0.289494 0.330022
0.267964 0.295323 0.335332
0.27425 0.301198 0.34078
0.280537 0.307164 0.346334
0.286961 0.313207 0.352071
0.293416 0.319326 0.358007
0.29987 0.325597 0.36405
0.306569 0.33193 0.370336
0.313313 0.33846 0.377584
0.320287 0.345083 0.384863
0.163607 0.190936 0.239887
0.168154 0.195499 0.244038
0.172778 0.200107 0.24799
0.177493 0.204761 0.25182
0.182254 0.20943 0.255665
0.187091 0.214145 0.259617
0.191928 0.218891 0.263737
0.19675 0.223682 0.268132
0.201724 0.228458 0.272908
0.206683 0.233204 0.27776
0.211688 0.237873 0.282597
0.216724 0.242542 0.287419
0.221851 0.247272 0.29221
0.226902 0.252201 0.297017
0.232059 0.257389 0.301854
0.237247 0.262898 0.306722
0.242451 0.268605 0.311604
0.247669 0.274327 0.316533
0.25301 0.280049 0.321599
0.258381 0.285832 0.326696
0.264179 0.2916 0.33196
0.270237 0.297459 0.337301
0.2766 0.303349 0.342779
0.282902 0.309331 0.348424
0.289281 0.315419 0.354208
0.295796 0.321584 0.360174
0.302373 0.327871 0.366323
0.309071 0.334279 0.372763
0.315862 0.340841 0.380331
0.32282 0.347555 0.387274
0.32987 0.354452 0.393805
0.337163 0.361532 0.400381
0.34464 0.368811 0.406943
0.179141 0.206485 0.253223
0.183993 0.211154 0.257084
0.18883 0.215869 0.261082
0.193713 0.220615 0.265293
0.198596 0.225406 0.26981
0.203571 0.230198 0.274662
0.208484 0.234928 0.27953
0.21355 0.239567 0.284352
0.21854 0.244266 0.289158
0.223651 0.249058 0.293965
0.228824 0.254047 0.298787
0.233982 0.259342 0.303639
0.239185 0.264958 0.308492
0.244373 0.27068 0.31339
0.249607 0.276402 0.318364
0.254902 0.282155 0.323445
0.260471 0.287922 0.328603
0.266316 0.293736 0.333883
0.272526 0.299596 0.339269
0.278843 0.305531 0.344793
0.285237 0.311543 0.3505
0.291676 0.317647 0.356359
0.298177 0.323857 0.362387
0.304723 0.330205 0.368582
0.311513 0.33666 0.375494
0.318273 0.343297 0.382986
0.325307 0.350057 0.389609
0.332479 0.357015 0.396216
0.339773 0.364172 0.402777
0.347372 0.371511 0.409323
0.355093 0.37911 0.415839
0.363256 0.387274 0.422232
0.371481 0.394995 0.42858
0.195483 0.22237 0.266911
0.200381 0.227161 0.271565
0.205356 0.231922 0.276432
0.21033 0.236606 0.281285
0.215351 0.24126 0.286107
0.220432 0.245975 0.290913
0.225528 0.250843 0.29572
0.23064 0.255955 0.300542
0.235843 0.261357 0.305394
0.241001 0.267063 0.310262
0.246281 0.272755 0.31519
0.25153 0.278492 0.320165
0.256962 0.28423 0.325292
0.262516 0.290044 0.330526
0.268528 0.295857 0.335821
0.2748 0.301747 0.341268
0.281163 0.307713 0.346853
0.287602 0.313741 0.352621
0.294026 0.31989 0.358541
0.300557 0.326162 0.364614
0.307134 0.332555 0.370916
0.314015 0.33904 0.378302
0.320867 0.345724 0.385473
0.327977 0.352544 0.391989
0.33518 0.359579 0.398596
0.342611 0.366796 0.405158
0.350179 0.374243 0.411719
0.358053 0.382116 0.418189
0.366217 0.390036 0.424521
0.374502 0.397864 0.430884
0.383032 0.405737 0.437247
0.390951 0.413657 0.443626
0.399191 0.421607 0.449989
0.212207 0.2383 0.283055
0.217151 0.242985 0.287846
0.222263 0.24773 0.292653
0.227344 0.252689 0.297459
0.232563 0.257862 0.302296
0.23769 0.263432 0.307149
0.242893 0.269139 0.312047
0.248142 0.274846 0.317006
0.253513 0.280568 0.322042
0.25893 0.286351 0.327184
0.264668 0.292149 0.332448
0.270771 0.298009 0.337789
0.277104 0.303914 0.343282
0.283406 0.309926 0.348943
0.28986 0.315999 0.354757
0.296407 0.322164 0.360723
0.302922 0.328466 0.366888
0.309667 0.33489 0.373434
0.316457 0.341466 0.381003
0.32343 0.348196 0.387854
0.330556 0.355093 0.3944
0.337835 0.362188 0.400992
0.345342 0.369482 0.407538
0.353017 0.377005 0.414054
0.360952 0.385153 0.420493
0.369253 0.392859 0.426856
0.377584 0.400732 0.433204
0.385977 0.408621 0.439567
0.393942 0.416541 0.44593
0.402228 0.424521 0.452293
0.411032 0.432532 0.45864
0.420737 0.440543 0.464912
0.430289 0.448631 0.471229
0.229282 0.25452 0.299214
0.23444 0.259846 0.304067
0.239551 0.265522 0.308934
0.244831 0.271214 0.313848
0.250111 0.276921 0.318822
0.25539 0.282689 0.323903
0.261036 0.288441 0.329091
0.26685 0.29427 0.334371
0.273121 0.30013 0.339788
0.279377 0.306096 0.345327
0.285817 0.312108 0.351034
0.292226 0.318227 0.356924
0.298802 0.324437 0.362951
0.305348 0.3308 0.369162
0.312139 0.337255 0.376211
0.319066 0.343877 0.383627
0.326009 0.350683 0.390188
0.333242 0.357641 0.396811
0.340475 0.364843 0.403403
0.348074 0.372213 0.409918
0.355825 0.379843 0.416419
0.363928 0.387991 0.422812
0.372213 0.395727 0.429191
0.380697 0.403586 0.435538
0.388785 0.411505 0.441917
0.396994 0.419425 0.448234
0.405386 0.42742 0.454597
0.414511 0.435462 0.460929
0.424262 0.443473 0.467231
0.433799 0.451575 0.473548
0.443488 0.459693 0.479912
0.453193 0.467872 0.48632
0.462898 0.476097 0.492744
0.246738 0.273289 0.315648
0.252049 0.279011 0.320653
0.257465 0.284764 0.32578
0.263111 0.290562 0.331014
0.269139 0.296376 0.336339
0.27541 0.302296 0.341802
0.281773 0.308263 0.347372
0.28809 0.314336 0.35314
0.294575 0.320485 0.359091
0.301183 0.326726 0.365194
0.307851 0.33312 0.371542
0.314626 0.339651 0.379004
0.321538 0.346334 0.386099
0.328618 0.353201 0.392615
0.335866 0.360235 0.399207
0.343221 0.367498 0.405783
0.350896 0.374945 0.412314
0.358709 0.382925 0.418769
0.366934 0.390753 0.425101
0.375296 0.398581 0.431479
0.38381 0.406455 0.437858
0.391699 0.414389 0.444221
0.400015 0.422339 0.450584
0.408499 0.43035 0.456901
0.418128 0.438361 0.463188
0.427726 0.446418 0.46952
0.437324 0.45452 0.475868
0.446967 0.462684 0.482261
0.456687 0.470863 0.488655
0.466484 0.479088 0.495094
0.476249 0.487358 0.501579
0.48603 0.495689 0.508095
0.495964 0.504021 0.514656
0.265248 0.292683 0.332921
0.271366 0.298543 0.338308
0.277729 0.304463 0.343801
0.284108 0.310445 0.349462
0.290425 0.316564 0.355306
0.296986 0.322744 0.361288
0.303563 0.329046 0.367453
0.310262 0.335485 0.374136
0.317098 0.342077 0.381689
0.324071 0.348821 0.388449
0.331182 0.355749 0.39501
0.338521 0.36286 0.401602
0.345983 0.370184 0.408148
0.353658 0.377737 0.414664
0.361685 0.385901 0.421088
0.369894 0.393606 0.427451
0.378363 0.40145 0.433799
0.386709 0.409339 0.440146
0.39472 0.417273 0.446525
0.403082 0.425238 0.452873
0.411963 0.433249 0.45922
0.421592 0.441291 0.465522
0.431159 0.449378 0.471809
0.440833 0.457496 0.478172
0.450538 0.465644 0.484596
0.460227 0.473854 0.491005
0.469963 0.482109 0.49749
0.47985 0.490379 0.50396
0.489616 0.498726 0.51046
0.499474 0.507103 0.517037
0.509377 0.515511 0.523674
0.51931 0.523964 0.530312
0.529397 0.532433 0.536934
0.286412 0.312673 0.351583
0.292821 0.318791 0.357473
0.299428 0.325002 0.363531
0.30605 0.331365 0.369772
0.312734 0.337881 0.376913
0.319677 0.344503 0.384283
0.326696 0.351308 0.390814
0.333852 0.358312 0.397406
0.341238 0.365484 0.403998
0.34873 0.372915 0.410544
0.356542 0.380606 0.417029
0.364752 0.388663 0.423392
0.372992 0.39646 0.42974
0.381552 0.404318 0.436103
0.389502 0.412222 0.442496
0.397665 0.420188 0.448829
0.406134 0.428168 0.455177
0.415442 0.436194 0.461494
0.425055 0.444236 0.467796
0.43473 0.452308 0.474159
0.444358 0.460456 0.480537
0.454032 0.468635 0.486931
0.463844 0.476844 0.49337
0.473579 0.485115 0.499809
0.48336 0.493416 0.50634
0.493202 0.501762 0.512901
0.503059 0.510155 0.519432
0.512993 0.518578 0.52604
0.522942 0.527047 0.532708
0.533028 0.535546 0.539406
0.543084 0.544091 0.54612
0.553094 0.552712 0.55288
0.563317 0.561318 0.55964
0.308431 0.33373 0.372168
0.315206 0.340276 0.37969
0.322148 0.346975 0.386694
0.329274 0.353841 0.39321
0.336507 0.360906 0.399802
0.343954 0.36817 0.406363
0.351598 0.375647 0.412909
0.359487 0.383688 0.419348
0.367712 0.39147 0.425696
0.376059 0.399329 0.432044
0.384512 0.407202 0.438437
0.392477 0.415106 0.4448
0.400671 0.423102 0.451164
0.409369 0.431083 0.457496
0.419043 0.439094 0.463767
0.428595 0.447166 0.4701
0.438224 0.455268 0.476463
0.447929 0.463416 0.482856
0.457603 0.471626 0.489281
0.467338 0.479866 0.495689
0.477104 0.488151 0.50219
0.486931 0.496468 0.508721
0.49688 0.504784 0.515297
0.506676 0.513222 0.521859
0.51664 0.521645 0.528496
0.526619 0.530129 0.535134
0.53666 0.538659 0.541817
0.546731 0.547219 0.548577
0.556893 0.55581 0.555367
0.567025 0.564462 0.562142
0.577157 0.573159 0.568994
0.587366 0.581888 0.575845
0.597604 0.590646 0.582773
0.331868 0.35639 0.395636
0.339178 0.363531 0.402182
0.3467 0.370855 0.408759
0.354406 0.378439 0.415259
0.362448 0.386618 0.421683
0.370687 0.394324 0.428016
0.379171 0.402167 0.434394
0.387411 0.410071 0.440742
0.395407 0.418021 0.447105
0.40383 0.425986 0.453452
0.412848 0.433997 0.459785
0.422446 0.442054 0.466087
0.43209 0.450111 0.472419
0.441733 0.458244 0.478782
0.451423 0.466392 0.485191
0.461143 0.474617 0.4916
0.470863 0.482872 0.49807
0.480659 0.491173 0.50457
0.490608 0.499458 0.511101
0.500465 0.507851 0.517662
0.510277 0.516289 0.524269
0.520226 0.524742 0.530892
0.53019 0.533257 0.537575
0.540322 0.541772 0.544305
0.550378 0.550362 0.551019
0.560571 0.558968 0.557809
0.570687 0.567636 0.56463
0.580865 0.576333 0.571481
0.591089 0.585077 0.578378
0.601358 0.593851 0.58529
0.611658 0.60267 0.592264
0.622003 0.611521 0.599268
0.632349 0.620417 0.606348
0.357259 0.381399 0.417624
0.365423 0.38938 0.423972
0.373816 0.397162 0.43032
0.382269 0.405051 0.436713
0.390234 0.41297 0.443061
0.39852 0.420905 0.449424
0.406973 0.428901 0.455772
0.416449 0.436912 0.462074
0.426001 0.444968 0.468376
0.435584 0.453071 0.474723
0.445258 0.461204 0.481132
0.454963 0.469383 0.487495
0.464714 0.477607 0.493935
0.474525 0.485863 0.500435
0.48423 0.494209 0.506935
0.494087 0.502541 0.513481
0.504005 0.510918 0.520058
0.513954 0.519356 0.526665
0.523949 0.52781 0.533303
0.533883 0.536355 0.540017
0.543969 0.544884 0.546746
0.554116 0.553475 0.553506
0.564279 0.562097 0.560281
0.574426 0.570779 0.567102
0.584588 0.579507 0.573999
0.594781 0.588281 0.580896
0.605127 0.597055 0.587839
0.615412 0.605875 0.594827
0.625742 0.614755 0.601846
0.636103 0.623667 0.608927
0.646555 0.632609 0.616037
0.656992 0.641611 0.623194
0.667582 0.650599 0.630396
0.385321 0.407919 0.439017
0.393179 0.415854 0.445365
0.401511 0.423819 0.451759
0.410224 0.431815 0.458076
0.419837 0.439857 0.464363
0.429496 0.447913 0.470665
0.439063 0.456031 0.477028
0.448737 0.464195 0.483436
0.458473 0.472389 0.489876
0.468223 0.480629 0.496315
0.47808 0.488884 0.502785
0.487785 0.497246 0.5093
0.497688 0.505592 0.515877
0.507622 0.513985 0.522469
0.517525 0.522438 0.529107
0.527565 0.530922 0.535744
0.537591 0.539452 0.542443
0.547692 0.548012 0.549203
0.557809 0.556619 0.555962
0.567895 0.565286 0.562768
0.578119 0.573953 0.569604
0.588266 0.582712 0.576486
0.598581 0.591455 0.583398
0.608896 0.600259 0.590372
0.61912 0.609125 0.597375
0.629557 0.617975 0.604425
0.639979 0.626902 0.611505
0.650324 0.635889 0.618601
0.660777 0.644892 0.625803
0.671321 0.653941 0.633005
0.681849 0.66302 0.640269
0.692515 0.672114 0.647593
0.703182 0.681254 0.654948
0.413718 0.434745 0.460365
0.423346 0.442786 0.466682
0.433005 0.450858 0.47303
0.442603 0.459007 0.479347
0.452308 0.46717 0.485771
0.462043 0.475364 0.492195
0.471794 0.483635 0.498665
0.481666 0.491905 0.50518
0.491463 0.500252 0.511711
0.501274 0.508644 0.518257
0.511223 0.517052 0.52488
0.521172 0.525521 0.531518
0.531228 0.534005 0.538201
0.541268 0.54255 0.544915
0.551339 0.551141 0.551629
0.56144 0.559777 0.558419
0.571618 0.568429 0.565255
0.581765 0.577157 0.572122
0.592004 0.585885 0.579004
0.602274 0.594675 0.585962
0.612604 0.603479 0.592889
0.622995 0.612329 0.599908
0.63328 0.621241 0.606989
0.643702 0.630167 0.614099
0.654231 0.639124 0.621271
0.664622 0.648173 0.628428
0.67512 0.657252 0.635645
0.68574 0.666316 0.642939
0.69633 0.675471 0.650248
0.70692 0.684642 0.657649
0.717617 0.693828 0.66508
0.728313 0.703075 0.672526
0.738933 0.712398 0.680018
0.446174 0.461952 0.481697
0.455787 0.470161 0.488075
0.465583 0.47837 0.494514
0.475334 0.486656 0.501015
0.485176 0.494957 0.507546
0.495003 0.503319 0.514092
0.504875 0.511711 0.520684
0.514839 0.520134 0.52726
0.524788 0.528618 0.533928
0.534859 0.537118 0.540642
0.544915 0.545678 0.547387
0.554986 0.554284 0.554131
0.565179 0.562905 0.560922
0.575265 0.571618 0.567742
0.585504 0.580331 0.574609
0.595712 0.58909 0.581506
0.606012 0.597879 0.588495
0.616327 0.606714 0.595483
0.626734 0.615564 0.602502
0.637064 0.624491 0.609552
0.647547 0.633417 0.616693
0.657908 0.642451 0.62385
0.668498 0.651453 0.631052
0.679026 0.660533 0.638331
0.68954 0.669657 0.645594
0.700145 0.678813 0.652934
0.710887 0.687968 0.660319
0.721462 0.697215 0.667765
0.732204 0.706462 0.675258
0.742794 0.715801 0.682795
0.753628 0.725109 0.690333
0.764294 0.734524 0.697948
0.77496 0.743969 0.705638
0.47895 0.489662 0.50338
0.488762 0.497993 0.509926
0.498604 0.506371 0.516487
0.508583 0.514748 0.523079
0.518532 0.523201 0.529702
0.528511 0.531685 0.536385
0.538521 0.54023 0.543053
0.548516 0.548821 0.549828
0.558679 0.557427 0.556573
0.568887 0.566064 0.563409
0.579004 0.574777 0.570245
0.589258 0.58349 0.577127
0.599512 0.592279 0.584024
0.609735 0.601099 0.591012
0.620066 0.609949 0.598032
0.630442 0.618814 0.605081
0.640787 0.627771 0.612161
0.651316 0.636713 0.619257
0.66183 0.645701 0.626444
0.672297 0.654765 0.633692
0.682857 0.663844 0.64097
0.693462 0.672969 0.64828
0.704097 0.682124 0.655634
0.714733 0.691325 0.66302
0.725338 0.700587 0.670481
0.736034 0.70985 0.677989
0.746715 0.719188 0.685512
0.757443 0.728542 0.693126
0.768185 0.737942 0.70074
0.778881 0.747402 0.708415
0.789731 0.756863 0.716197
0.800488 0.766384 0.723964
0.811246 0.775967 0.731838
0.512108 0.517845 0.52546
0.522118 0.526299 0.532143
0.532128 0.534798 0.538827
0.542168 0.543359 0.545525
0.55227 0.551934 0.55227
0.562356 0.560571 0.559091
0.572549 0.569238 0.565881
0.582666 0.577966 0.572732
0.592996 0.586679 0.579644
0.60322 0.595483 0.586618
0.613519 0.604303 0.593561
0.62385 0.613169 0.60058
0.634302 0.622049 0.607614
0.644572 0.631037 0.61474
0.655116 0.639979 0.621912
0.665675 0.648981 0.629114
0.676295 0.658015 0.636332
0.686824 0.66714 0.64361
0.697276 0.67631 0.65095
0.707927 0.685481 0.658351
0.718578 0.694697 0.665751
0.729229 0.70396 0.673228
0.739925 0.713252 0.680705
0.750546 0.722622 0.688273
0.761334 0.731975 0.695872
0.772107 0.741375 0.703563
0.782818 0.750851 0.711238
0.793606 0.760342 0.71902
0.804486 0.769848 0.726833
0.815213 0.779446 0.734661
0.826108 0.789029 0.74258
0.837018 0.798672 0.750561
0.847868 0.808362 0.75848
0.545937 0.546456 0.548012
0.555932 0.555077 0.554757
0.566049 0.563729 0.561563
0.576318 0.572381 0.568383
0.586511 0.581109 0.575235
0.596719 0.589883 0.582147
0.606958 0.598688 0.589105
0.617243 0.607538 0.596109
0.627634 0.616403 0.603159
0.638102 0.625299 0.610208
0.648432 0.634272 0.61735
0.658946 0.643259 0.624521
0.669444 0.652293 0.631724
0.680034 0.661357 0.639002
0.690593 0.670481 0.646265
0.701228 0.679622 0.65362
0.711803 0.688838 0.661006
0.722438 0.69807 0.668452
0.73312 0.707332 0.675944
0.743816 0.716655 0.683482
0.754559 0.725994 0.69102
0.765301 0.735378 0.698695
0.775952 0.744839 0.706325
0.78677 0.754284 0.714092
0.797513 0.763806 0.721843
0.808408 0.773327 0.729717
0.819135 0.78294 0.73756
0.829999 0.792569 0.745434
0.841047 0.802167 0.753399
0.851896 0.811887 0.761349
0.862943 0.821576 0.76939
0.873838 0.831373 0.77734
0.884962 0.841138 0.785397
0.580026 0.575555 0.570871
0.590188 0.584314 0.577768
0.600412 0.593103 0.584665
0.610788 0.601877 0.591653
