luts/1771694097459-Drip04.cube
TITLE "Generated by Resolve"
LUT_3D_SIZE 33
0 0.0401923 0.0554665
0 0.0388647 0.0350652
0.0112306 0.0411688 0.0202792
0.0544289 0.0415808 0.00688182
0.102159 0.0405737 0
0.150378 0.0392615 0
0.19704 0.0379187 0
0.242115 0.0365759 0
0.284993 0.0351873 0
0.321752 0.0340734 0
0.354574 0.0332341 0
0.387488 0.0323949 0
0.420447 0.0315862 0
0.453498 0.0307622 0
0.486625 0.029984 0
0.519829 0.029221 0
0.553079 0.0284733 0
0.586389 0.0277409 0
0.619791 0.027039 0
0.653284 0.0263676 0
0.686809 0.0257115 0
0.720409 0.0250858 0
0.754101 0.0244907 0
0.787884 0.0239567 0
0.821729 0.0234379 0
0.855619 0.0229343 0
0.889891 0.0226749 0
0.924025 0.0222934 0
0.958221 0.0219425 0
0.993576 0.0215457 0
1 0.0213016 0
1 0.0211185 0
1 0.0209812 0
0 0.0655528 0.0594797
0 0.0576333 0.0481422
0.0031281 0.0613565 0.0423743
0.0411383 0.0631113 0.0284581
0.087129 0.0630045 0.0138247
0.137194 0.0617075 0
0.185428 0.0599069 0
0.232059 0.0583047 0
0.276387 0.0568399 0
0.315831 0.0556039 0
0.348913 0.0546578 0
0.38204 0.0537728 0
0.415213 0.0529335 0
0.448386 0.0521096 0
0.481651 0.0513466 0
0.514977 0.0506142 0
0.548363 0.0499275 0
0.581781 0.0492561 0
0.61529 0.0486152 0
0.648875 0.0480354 0
0.682567 0.0475013 0
0.716289 0.0469825 0
0.750103 0.0464942 0
0.784024 0.046067 0
0.818036 0.045716 0
0.85211 0.0453651 0
0.886244 0.0450599 0
0.920684 0.0449531 0
0.9552 0.0448768 0
0.990799 0.0447089 0
1 0.0446021 0
1 0.0445716 0
1 0.0446174 0
0 0.0918898 0.0627146
0 0.0880293 0.0580301
0.0100862 0.0794995 0.0451667
0.040238 0.0832532 0.0472419
0.0825513 0.0839857 0.0326848
0.127382 0.0840162 0.0189059
0.170764 0.0835279 0.00669871
0.214588 0.0825208 0
0.258167 0.0811017 0
0.300786 0.0796216 0
0.335637 0.0783856 0
0.369635 0.0774243 0
0.403601 0.0763867 0
0.437583 0.0754101 0
0.47155 0.0744945 0
0.505608 0.0737316 0
0.53962 0.0730144 0
0.573617 0.0723278 0
0.607523 0.0717021 0
0.64155 0.0711528 0
0.675654 0.0706798 0
0.709819 0.0702525 0
0.743999 0.0698558 0
0.778271 0.0695201 0
0.812634 0.0692912 0
0.84712 0.0691081 0
0.881621 0.0689708 0
0.916197 0.068864 0
0.951049 0.0689403 0
0.98706 0.0690013 0
1 0.0690776 0
1 0.0691691 0
1 0.0693065 0
0 0.118318 0.0658122
0 0.115312 0.0633707
0 0.110384 0.0465553
0.0538338 0.100038 0.0413672
0.0847334 0.103929 0.049012
0.127352 0.104646 0.0363622
0.170352 0.104585 0.0224765
0.212406 0.104265 0.0102846
0.252979 0.103761 0
0.291951 0.102998 0
0.326116 0.102342 0
0.357733 0.101717 0
0.390234 0.101015 0
0.423468 0.100267 0
0.457221 0.0994583 0
0.491356 0.0986496 0
0.525872 0.0979782 0
0.56054 0.0973526 0
0.5953 0.0967727 0
0.630045 0.0961776 0
0.664851 0.0956893 0
0.699733 0.0953078 0
0.734661 0.0950027 0
0.769574 0.0947127 0
0.804517 0.0944991 0
0.839551 0.0943923 0
0.874632 0.0943465 0
0.909682 0.0943313 0
0.944686 0.094377 0
0.981247 0.0946365 0
1 0.0947738 0
1 0.0949722 0
1 0.0951705 0
0 0.144854 0.068864
0 0.141909 0.0665599
0 0.137606 0.0603189
0 0.133471 0.039353
0.103471 0.120165 0.0374304
0.135576 0.124132 0.0467842
0.171847 0.125795 0.0403143
0.213657 0.125765 0.0264134
0.2542 0.125582 0.01355
0.29308 0.125307 0.00259403
0.326207 0.12491 0
0.355947 0.124681 0
0.386175 0.124559 0
0.417182 0.124422 0
0.448981 0.124208 0
0.481331 0.123934 0
0.514382 0.123583 0
0.548074 0.123247 0
0.582315 0.122957 0
0.616983 0.122698 0
0.651881 0.122408 0
0.686961 0.122103 0
0.722271 0.121859 0
0.757671 0.121675 0
0.793149 0.121508 0
0.828672 0.121401 0
0.864286 0.121355 0
0.899947 0.12137 0
0.935607 0.121416 0
0.972564 0.121584 0
1 0.121798 0
1 0.121981 0
1 0.122194 0
0 0.171572 0.0719921
0 0.168658 0.0698863
0 0.164752 0.0670024
0 0.161715 0.051606
0.0367895 0.15642 0.0354162
0.15433 0.140475 0.0338293
0.186786 0.144305 0.0425727
0.217227 0.147326 0.043595
0.256672 0.147646 0.030808
0.295445 0.147646 0.0179141
0.328527 0.147738 0.00682078
0.358373 0.147738 0
0.38819 0.147601 0
0.418341 0.147707 0
0.448768 0.147967 0
0.479637 0.148272 0
0.511025 0.148501 0
0.543023 0.148684 0
0.575647 0.148852 0
0.608927 0.149096 0
0.642756 0.149294 0
0.676875 0.149325 0
0.711421 0.149355 0
0.746349 0.149386 0
0.781567 0.149432 0
0.816999 0.149447 0
0.852598 0.149477 0
0.888365 0.149538 0
0.924376 0.149737 0
0.960479 0.149981 0
0.997604 0.150057 0
1 0.15021 0
1 0.150393 0
0 0.198749 0.0751965
0 0.195819 0.0731823
0 0.193133 0.0712139
0 0.189105 0.0639506
0 0.187839 0.0438697
0.0862287 0.178271 0.0316472
0.204273 0.16112 0.0306401
0.237507 0.164782 0.0380407
0.263905 0.169009 0.044831
0.29897 0.170306 0.0357977
0.331579 0.170764 0.0231022
0.361624 0.17116 0.0113527
0.391775 0.171527 0.00134279
0.421881 0.171679 0
0.452186 0.171954 0
0.482811 0.172412 0
0.513634 0.172976 0
0.544579 0.173602 0
0.575875 0.174212 0
0.607828 0.174929 0
0.640269 0.175616 0
0.673106 0.17612 0
0.706279 0.176593 0
0.73994 0.176989 0
0.774044 0.177371 0
0.80853 0.177722 0
0.843351 0.178012 0
0.878447 0.178271 0
0.914092 0.178759 0
0.94966 0.178973 0
0.986542 0.179141 0
1 0.179339 0
1 0.179522 0
0 0.226398 0.0787366
0 0.223285 0.0766308
0 0.221393 0.0750134
0 0.217029 0.0716411
0 0.215656 0.057908
0.0310369 0.213779 0.0388647
0.139727 0.200504 0.0285344
0.253956 0.182879 0.028397
0.287343 0.186496 0.0343786
0.310933 0.191653 0.0450446
0.336034 0.194293 0.0410468
0.365759 0.19527 0.0291905
0.396048 0.195941 0.0173037
0.426474 0.196612 0.0069276
0.456931 0.197131 0
0.487373 0.197513 0
0.518105 0.198108 0
0.549065 0.198825 0
0.580148 0.199603 0
0.611368 0.200412 0
0.643 0.201526 0
0.674678 0.202396 0
0.706767 0.20322 0
0.739239 0.203998 0
0.772091 0.2047 0
0.805432 0.205325 0
0.838941 0.205951 0
0.87306 0.206607 0
0.9075 0.207218 0
0.942107 0.207645 0
0.978088 0.207965 0
1 0.208286 0
1 0.208576 0
0 0.254276 0.0822766
0 0.251225 0.0803235
0 0.249439 0.0789349
0 0.24596 0.0772717
0 0.243763 0.0697337
0 0.244984 0.052491
0.0790417 0.238651 0.0349584
0.19292 0.223514 0.0262455
0.302556 0.205936 0.0270085
0.331151 0.209552 0.0318914
0.349737 0.215488 0.0450294
0.372778 0.219211 0.0454871
0.401083 0.220829 0.0360418
0.431586 0.221744 0.024033
0.462211 0.222599 0.0127871
0.492927 0.223407 0.00302129
0.523644 0.224079 0
0.554391 0.224674 0
0.585412 0.225452 0
0.616739 0.226459 0
0.648142 0.227466 0
0.679545 0.228412 0
0.711055 0.229389 0
0.742657 0.230396 0
0.774517 0.231357 0
0.806699 0.232273 0
0.839414 0.233295 0
0.872328 0.234134 0
0.905501 0.234852 0
0.939025 0.235477 0
0.972671 0.236072 0
1 0.23653 0
1 0.236942 0
0 0.282658 0.0860456
0 0.279942 0.0844434
0 0.27808 0.0831159
0 0.276127 0.0822919
0 0.272847 0.0785229
0 0.27332 0.0665904
0.0354925 0.273671 0.0473945
0.13315 0.263676 0.0322881
0.245716 0.24744 0.0247349
0.342931 0.230091 0.0264591
0.370764 0.233799 0.0304112
0.389807 0.240101 0.0446021
0.4112 0.244633 0.0489815
0.437736 0.24712 0.0429236
0.467979 0.248325 0.0314031
0.498756 0.249348 0.0198825
0.529625 0.250309 0.0091249
0.56054 0.251209 0
0.591608 0.25214 0
0.622629 0.252949 0
0.653819 0.253803 0
0.6851 0.254734 0
0.716487 0.25568 0
0.747951 0.256657 0
0.779492 0.257664 0
0.811124 0.258701 0
0.843046 0.259922 0
0.874937 0.260884 0
0.907073 0.261738 0
0.939483 0.262531 0
0.972152 0.263264 0
1 0.26389 0
1 0.264668 0
0 0.312062 0.0902876
0 0.309239 0.0886549
0 0.30779 0.0878157
0 0.306981 0.087068
0 0.303319 0.0857862
0 0.3028 0.0785077
0.00810254 0.30576 0.0636301
0.0828412 0.301717 0.0434577
0.18735 0.289158 0.0304875
0.296941 0.272236 0.0238193
0.382483 0.25536 0.0266575
0.411032 0.258854 0.0296483
0.430671 0.265202 0.0438849
0.450919 0.270497 0.0516213
0.475837 0.273793 0.0489204
0.504952 0.275517 0.0391699
0.535805 0.276646 0.0274357
0.566735 0.277714 0.0163119
0.597955 0.27892 0.00660716
0.629023 0.279881 0
0.659937 0.280613 0
0.690974 0.281376 0
0.72221 0.282261 0
0.753506 0.283162 0
0.785046 0.284245 0
0.816587 0.285252 0
0.848051 0.286198 0
0.879576 0.287129 0
0.911116 0.288029 0
0.942672 0.288914 0
0.974441 0.289723 0
1 0.290639 0
1 0.29131 0
0 0.341939 0.0946822
0 0.339391 0.0933394
0 0.338033 0.0926375
0 0.337682 0.0923934
0 0.334874 0.0921035
0 0.3337 0.088426
0 0.336446 0.078645
0.047013 0.337041 0.059144
0.135912 0.329641 0.0406043
0.241093 0.31519 0.0293126
0.339727 0.29781 0.0233921
0.4224 0.281041 0.027039
0.451637 0.284443 0.0292363
0.472068 0.290761 0.0430915
0.491417 0.296696 0.0536202
0.515023 0.300633 0.0537728
0.54258 0.303029 0.0466163
0.573312 0.304555 0.0353704
0.604257 0.305653 0.0239261
0.635248 0.306691 0.013077
0.666285 0.307652 0.00354009
0.697246 0.308492 0
0.728099 0.309133 0
0.759182 0.309926 0
0.790585 0.310948 0
0.82179 0.311772 0
0.853025 0.312566 0
0.884291 0.313359 0
0.915618 0.314153 0
0.94696 0.314946 0
0.978576 0.315938 0
1 0.316579 0
1 0.31722 0
0 0.37232 0.0994278
0 0.370169 0.0984665
0 0.368872 0.0978866
0 0.368582 0.0978103
0 0.367391 0.0982376
0 0.365209 0.0966964
0 0.366827 0.0903639
0.022858 0.370428 0.0766308
0.0938277 0.367498 0.054963
0.189273 0.357443 0.038529
0.293248 0.342061 0.0287327
0.379873 0.323995 0.0231937
0.462654 0.307164 0.0275425
0.492409 0.31043 0.0290532
0.513619 0.31667 0.0422065
0.532479 0.323033 0.0545663
0.554894 0.327718 0.0577096
0.581094 0.3308 0.0531319
0.610452 0.332433 0.0431067
0.641321 0.333501 0.0313573
0.672251 0.334508 0.0201267
0.703182 0.335439 0.00950637
0.73434 0.336477 0.000350958
0.765209 0.337163 0
0.795926 0.337652 0
0.826841 0.338247 0
0.857847 0.338888 0
0.888853 0.339483 0
0.920104 0.340291 0
0.951202 0.340902 0
0.983429 0.341451 0
1 0.341985 0
1 0.342443 0
0 0.403464 0.104768
0 0.401221 0.103761
0 0.400305 0.103548
0 0.400153 0.10367
0 0.400275 0.10399
0 0.39762 0.104265
0 0.398016 0.100557
0.00402838 0.40238 0.0921798
0.0630503 0.402914 0.0726024
0.144656 0.397101 0.0515602
0.242084 0.385 0.0369421
0.33669 0.36875 0.0281376
0.420325 0.350622 0.0231327
0.502937 0.333608 0.027985
0.533074 0.336721 0.0288701
0.555291 0.342962 0.0413062
0.573907 0.349493 0.0548257
0.59501 0.354513 0.0604105
0.619684 0.357885 0.0581369
0.647608 0.35993 0.0500649
0.677958 0.360998 0.0385443
0.708904 0.362051 0.0270848
0.739803 0.362951 0.0160983
0.770535 0.363622 0.0056611
0.801251 0.364202 0
0.831815 0.364553 0
0.862364 0.364843 0
0.893294 0.365454 0
0.924102 0.365866 0
0.954818 0.366201 0
0.986694 0.366476 0
1 0.366796 0
1 0.367147 0
0 0.434745 0.11017
0 0.432975 0.109575
0 0.431922 0.109285
0 0.431922 0.109621
0 0.432639 0.110246
0 0.43032 0.111055
0 0.430091 0.109667
0 0.434073 0.104799
0.0400854 0.436286 0.0901045
0.109255 0.434363 0.0682231
0.196094 0.426154 0.0488136
0.292851 0.412207 0.0355688
0.376455 0.395285 0.0275425
0.460624 0.377005 0.0228885
0.543114 0.360006 0.0283207
0.573617 0.362982 0.028687
0.596216 0.368627 0.0399481
0.614755 0.375158 0.0540322
0.63476 0.380499 0.0618753
0.658198 0.384207 0.0617533
0.684977 0.386831 0.055848
0.714199 0.388067 0.0454719
0.744732 0.388769 0.0335546
0.775311 0.389395 0.0221256
0.805875 0.389929 0.0112459
0.836545 0.390494 0.00170901
0.867002 0.390784 0
0.897215 0.390784 0
0.927581 0.390875 0
0.958007 0.390997 0
0.989609 0.391058 0
1 0.391287 0
1 0.391287 0
0 0.466697 0.11606
0 0.464836 0.115434
0 0.464103 0.11545
0 0.464164 0.115892
0 0.464622 0.116396
0 0.463722 0.117678
0 0.462501 0.117647
0 0.464729 0.114488
0.021088 0.468986 0.105852
0.0813153 0.469306 0.0863661
0.156924 0.464561 0.0638285
0.246509 0.454124 0.0461585
0.335424 0.439155 0.0343328
0.416144 0.421546 0.0268406
0.500404 0.402808 0.0223087
0.582681 0.385779 0.0281682
0.613275 0.388403 0.027924
0.636408 0.393683 0.0382239
0.655085 0.400107 0.0524147
0.674327 0.405859 0.0622873
0.696605 0.409812 0.0641031
0.721721 0.412451 0.0599832
0.74963 0.413886 0.0510567
0.779553 0.414481 0.0393683
0.81004 0.415076 0.0277104
0.840406 0.415442 0.0164645
0.870634 0.41561 0.00578317
0.900786 0.415656 0
0.93077 0.415457 0
0.960784 0.415259 0
0.992157 0.415198 0
1 0.415 0
1 0.414755 0
0 0.498741 0.121965
0 0.497139 0.121569
0 0.496498 0.121721
0 0.49633 0.122026
0 0.497047 0.122805
0 0.497276 0.123888
0 0.495262 0.12491
0 0.496452 0.123522
0.00340276 0.501152 0.11873
0.0585336 0.50248 0.103517
0.125704 0.500771 0.0814527
0.205295 0.493767 0.0598917
0.29482 0.481178 0.043534
0.373861 0.465141 0.0326696
0.45536 0.44715 0.025742
0.539803 0.428168 0.0214847
0.621408 0.410651 0.0274052
0.652125 0.413062 0.0267185
0.675929 0.418143 0.0361028
0.694682 0.424262 0.0500343
0.713024 0.429877 0.0610056
0.734112 0.434012 0.0647593
0.758007 0.436835 0.0623636
0.784772 0.438727 0.055314
0.81355 0.439384 0.0445716
0.843519 0.439506 0.0324712
0.873518 0.439567 0.0208286
0.903471 0.439506 0.00976577
0.933608 0.439582 0.000106813
0.963333 0.439185 0
0.994034 0.438544 0
1 0.438056 0
1 0.437613 0
0 0.531182 0.128069
0 0.529656 0.127764
0 0.528786 0.127764
0 0.528862 0.128313
0 0.529244 0.128893
0 0.530449 0.129915
0 0.528374 0.131624
0 0.528222 0.131273
0 0.532418 0.129152
0.0386816 0.535058 0.1187
0.0996414 0.534936 0.0993362
0.16997 0.530632 0.0759136
0.252369 0.521385 0.0557107
0.33489 0.507424 0.0408484
0.411917 0.490333 0.0306859
0.493751 0.471748 0.0240482
0.578073 0.452399 0.0199588
0.659449 0.434852 0.0261692
0.690105 0.436866 0.0249332
0.714076 0.441321 0.0331884
0.733028 0.447166 0.0466468
0.751049 0.452934 0.0586252
0.771069 0.457221 0.0640574
0.793729 0.460182 0.0634012
0.818921 0.462013 0.0578012
0.846494 0.46276 0.0482795
0.875975 0.462928 0.0365301
0.905715 0.462776 0.0246433
0.935378 0.462486 0.0132448
0.965026 0.462119 0.00309758
0.995666 0.46154 0
1 0.46096 0
1 0.460197 0
0 0.563821 0.134295
0 0.562036 0.133806
0 0.561395 0.13402
0 0.561151 0.134356
0 0.561715 0.135134
0 0.562768 0.136095
0 0.561273 0.13756
0 0.560494 0.138369
0 0.562936 0.137209
0.0194553 0.566659 0.131106
0.0764477 0.567437 0.115694
0.140887 0.565484 0.0934157
0.214527 0.559136 0.0702831
0.297353 0.547631 0.0513771
0.371313 0.532311 0.037644
0.449363 0.514595 0.0282597
0.531456 0.495567 0.0218967
0.615473 0.4757 0.0178836
0.696162 0.457694 0.024033
0.726711 0.459342 0.0223545
0.751232 0.463615 0.0297704
0.770428 0.469123 0.0426032
0.787884 0.474601 0.0549172
0.806699 0.478996 0.0621195
0.828397 0.482002 0.0627604
0.852659 0.484184 0.0588083
0.878996 0.485115 0.0507057
0.907286 0.485191 0.0397498
0.93666 0.484764 0.0276188
0.966064 0.48426 0.0159762
0.996826 0.483879 0.00509651
1 0.483207 0
1 0.482338 0
0 0.596262 0.140429
0 0.594705 0.140154
0 0.593729 0.140124
0 0.593652 0.140612
0 0.594064 0.141329
0 0.59469 0.142
0 0.594461 0.143374
0 0.592737 0.144732
0 0.593515 0.144091
0.00128176 0.597818 0.141466
0.0551003 0.599222 0.129854
0.115846 0.598566 0.110491
0.181796 0.594278 0.0865339
0.257771 0.585687 0.0643015
0.334188 0.572625 0.0468299
0.407355 0.556237 0.034165
0.485756 0.53753 0.0251316
0.567864 0.517922 0.0189059
0.651698 0.49781 0.0151522
0.731975 0.479637 0.0213474
0.762402 0.480934 0.0192416
0.786923 0.484535 0.0255741
0.806394 0.489693 0.0376287
0.823911 0.495308 0.0503548
0.841962 0.499809 0.0587778
0.862593 0.502953 0.0609903
0.885557 0.505028 0.05832
0.910735 0.506157 0.0516976
0.938201 0.5066 0.0420081
0.967025 0.506157 0.0301976
0.997345 0.505455 0.0183413
1 0.504723 0.0071107
1 0.503929 0
0 0.628992 0.14696
0 0.627085 0.146395
0 0.62623 0.146517
0 0.626017 0.146929
0 0.625986 0.147311
0 0.626627 0.148028
0 0.627588 0.148974
0 0.624674 0.150423
0 0.624506 0.150546
0 0.628214 0.14966
0.0346838 0.630335 0.141711
0.0920577 0.629938 0.125643
0.153704 0.627573 0.103288
0.222492 0.621485 0.0792096
0.299275 0.610849 0.0581979
0.368048 0.595926 0.0417029
0.442359 0.578622 0.0299535
0.521401 0.559518 0.0215305
0.603418 0.539345 0.0154421
0.686671 0.518639 0.0117342
0.766491 0.500267 0.0178836
0.796918 0.50132 0.0154726
0.82179 0.504707 0.0210727
0.841642 0.509529 0.0321813
0.858808 0.514824 0.0448768
0.876295 0.519432 0.0543069
0.896208 0.522896 0.0580148
0.918196 0.525216 0.0569162
0.94229 0.526528 0.0516976
0.968566 0.52694 0.0430304
0.997665 0.526604 0.0320745
1 0.526024 0.0202945
1 0.525154 0.00891127
0 0.661448 0.153384
0 0.659586 0.15288
0 0.65861 0.152895
0 0.657877 0.152911
0 0.657923 0.153399
0 0.658351 0.153994
0 0.658808 0.154406
0 0.656718 0.155947
0 0.655543 0.156512
0 0.657176 0.15552
0.0144198 0.660273 0.151034
0.0692302 0.6607 0.138689
0.128496 0.65919 0.119097
0.19115 0.654795 0.0949111
0.261646 0.646555 0.0711986
0.33254 0.634043 0.0514687
0.401526 0.618112 0.036347
0.476738 0.599985 0.0253758
0.555886 0.580118 0.0172732
0.637797 0.559518 0.0113375
0.720943 0.53875 0.00801099
0.80032 0.520226 0.0140841
0.83064 0.520989 0.0114137
0.855589 0.523888 0.0160983
0.875715 0.52842 0.0264439
0.893202 0.533791 0.0390326
0.910307 0.53846 0.0491493
0.929107 0.542046 0.0543832
0.950301 0.544427 0.0543374
0.973709 0.546044 0.0504616
1 0.546746 0.0432136
1 0.546609 0.0333257
1 0.545876 0.0217899
0 0.693874 0.15964
0 0.69189 0.159075
0 0.69044 0.158724
0 0.689815 0.158846
0 0.68954 0.159106
0 0.689403 0.159258
0 0.689876 0.159762
0 0.688502 0.160815
0 0.686076 0.161563
0 0.68629 0.160937
0 0.689708 0.158785
0.0469062 0.690471 0.149233
0.104234 0.689311 0.132967
0.163241 0.68632 0.110475
0.227863 0.680171 0.0857557
0.299397 0.670115 0.0630655
0.364019 0.656046 0.0446479
0.434272 0.638895 0.030518
0.510155 0.620066 0.0202792
0.589715 0.59997 0.012726
0.671641 0.579095 0.00762951
0.754421 0.558083 0.00456245
0.833188 0.539208 0.00981155
0.863706 0.540002 0.00709545
0.888899 0.542626 0.0110781
0.909346 0.546899 0.0206149
0.926772 0.551919 0.0326543
0.943603 0.556649 0.0432746
0.961883 0.560678 0.0499733
0.982376 0.563256 0.0511482
1 0.56492 0.0484779
1 0.565774 0.0424811
1 0.566064 0.0337682
0 0.726116 0.165682
0 0.723705 0.164767
0 0.722255 0.164431
0 0.721325 0.16434
0 0.720562 0.164218
0 0.720348 0.164355
0 0.720439 0.164553
0 0.719829 0.16492
0 0.716609 0.166033
0 0.715526 0.165759
0 0.71809 0.164767
0.0250706 0.719387 0.157824
0.079881 0.718669 0.144503
0.137484 0.716487 0.12488
0.197574 0.71194 0.100771
0.263737 0.703975 0.0762341
0.329854 0.69189 0.0546273
0.395041 0.676646 0.0375372
0.466712 0.65893 0.0246433
0.54316 0.639536 0.0150912
0.622751 0.618921 0.00788891
0.704555 0.597726 0.00300603
0.787076 0.576577 0.000289921
0.865705 0.557824 0.00590524
0.895994 0.558251 0.00308232
0.921462 0.560693 0.00587472
0.942443 0.564904 0.0146639
0.960082 0.569787 0.0262455
0.976745 0.574563 0.0371862
0.995468 0.578531 0.0446479
1 0.581552 0.0472572
1 0.583474 0.0458686
1 0.584543 0.0410315
0 0.758068 0.171405
0 0.755398 0.170275
0 0.753735 0.169787
0 0.752255 0.169253
0 0.751369 0.169055
0 0.750881 0.169009
0 0.750515 0.168887
0 0.750301 0.168734
0 0.746838 0.169802
0 0.744732 0.169879
0 0.744839 0.168368
0.00370794 0.747448 0.164767
0.0559701 0.747295 0.154009
0.112795 0.745556 0.137636
0.169635 0.741955 0.115114
0.231067 0.735775 0.0901961
0.298238 0.726177 0.0664225
0.359136 0.712734 0.0463111
0.426032 0.696529 0.0305638
0.498695 0.678141 0.0186618
0.575448 0.658091 0.00967422
0.655344 0.637339 0.00355535
0.737133 0.615976 0
0.819394 0.594751 0
0.897765 0.575967 0.00161746
0.928038 0.576242 0
0.953704 0.57847 0.00137331
0.974884 0.5823 0.00862135
0.99411 0.587213 0.0197299
1 0.592081 0.030808
1 0.596216 0.0390631
1 0.599313 0.0428168
1 0.601572 0.0426337
0 0.789502 0.176623
0 0.786801 0.175509
0 0.784497 0.174502
0 0.782971 0.173953
0 0.781826 0.173541
0 0.780728 0.173053
0 0.779995 0.172656
0 0.779629 0.172427
0 0.776761 0.172915
0 0.773373 0.172961
0 0.772427 0.171969
0 0.774777 0.170214
0.0327611 0.775113 0.161837
0.0873579 0.773648 0.14786
0.14345 0.770886 0.128328
0.201358 0.76611 0.104341
0.264179 0.758495 0.0794995
0.326757 0.747295 0.056733
0.388342 0.73257 0.038056
0.456626 0.715434 0.0235142
0.53019 0.696544 0.0125734
0.607569 0.676371 0.00495918
0.687541 0.655314 0
0.769223 0.633692 0
0.851118 0.612314 0
0.929244 0.593545 0
0.959518 0.593713 0
0.985611 0.595972 0
1 0.599649 0.00344854
1 0.604303 0.0132143
1 0.60914 0.0242161
1 0.613657 0.0332189
1 0.617075 0.0383459
0 0.820752 0.181689
0 0.817563 0.180179
0 0.815152 0.17908
0 0.81323 0.178225
0 0.811551 0.177401
0 0.810208 0.17673
0 0.809171 0.17612
0 0.808362 0.17557
0 0.806226 0.175357
0 0.802136 0.175723
0 0.8 0.174929
0 0.800763 0.173373
0.0101625 0.802289 0.168307
0.0622416 0.801205 0.156451
0.118257 0.798993 0.140002
0.1738 0.79527 0.117891
0.232822 0.789197 0.0931106
0.2963 0.779858 0.0686351
0.354131 0.767208 0.047303
0.41767 0.751705 0.030045
0.487282 0.733974 0.0167391
0.561578 0.714626 0.00671397
0.639307 0.694179 0
0.719188 0.672694 0
0.800855 0.650965 0
0.882658 0.629725 0
0.960678 0.611063 0
0.992096 0.611093 0
1 0.613031 0
1 0.616815 0
1 0.621363 0.00688182
1 0.626261 0.0177615
1 0.630732 0.0270695
0 0.851591 0.186389
0 0.847959 0.184512
0 0.845228 0.183169
0 0.842954 0.18204
0 0.840879 0.180911
0 0.839216 0.179995
0 0.837888 0.179187
0 0.836637 0.178271
0 0.835554 0.177478
