luts/1771694514910-Gessy01.cube
TITLE "Generated by Resolve"
LUT_3D_SIZE 9
0 0.00891127 0.0713207
0 0.00518807 0.0681773
0.22443 0 0.0534066
0.45481 0 0.0394141
0.622553 0 0.0336309
0.765927 0 0.0393072
0.894362 0 0.0526436
1 0.00451667 0.0672618
1 0.0210422 0.0815442
0 0.0261845 0.142397
0 0.10515 0.068101
0.192508 0.0992752 0.0632792
0.44947 0.0959487 0.0605325
0.633051 0.0989242 0.0630961
0.785794 0.108888 0.0716259
0.916945 0.124895 0.0852064
1 0.14229 0.0999771
1 0.159594 0.114717
0 0.040528 0.246647
0 0.130541 0.136782
0.141131 0.255131 0.0648814
0.420645 0.253132 0.063447
0.608026 0.254353 0.0647746
0.766232 0.263005 0.0725109
0.90016 0.278218 0.0857099
1 0.29482 0.10013
1 0.310307 0.113695
0 0.0541848 0.359823
0 0.152468 0.236316
0.0383764 0.28838 0.137057
0.386908 0.412238 0.062974
0.577203 0.411719 0.0631418
0.739757 0.417487 0.0687266
0.875227 0.429725 0.0796216
0.999084 0.443534 0.0919356
1 0.455177 0.102708
0 0.0676585 0.483421
0 0.173342 0.34345
0 0.315343 0.239322
0.304204 0.442924 0.132586
0.544823 0.562448 0.0620127
0.710185 0.563333 0.0636759
0.84622 0.570428 0.0704967
0.966461 0.579446 0.0790112
1 0.586252 0.0859083
0 0.0812695 0.594995
0 0.192401 0.461799
0 0.335821 0.34609
0.200519 0.466941 0.231525
0.483467 0.586252 0.127153
0.682094 0.691493 0.0614633
0.818479 0.692317 0.0628977
0.93547 0.696162 0.067155
1 0.698634 0.0700236
0 0.0946212 0.688258
0 0.208408 0.571481
0 0.349859 0.46006
0.078294 0.48603 0.336538
0.41323 0.603601 0.219455
0.625177 0.706462 0.120317
0.792737 0.795605 0.057969
0.907973 0.794553 0.0574655
1 0.793317 0.0567178
0 0.106645 0.765103
0 0.220874 0.663569
0 0.35935 0.56495
0 0.499428 0.450034
0.320439 0.615854 0.318517
0.556848 0.71603 0.20148
0.740108 0.802457 0.110445
0.880705 0.878294 0.0474556
0.986236 0.874388 0.0440223
0 0.116121 0.830518
0 0.228672 0.738964
0 0.364248 0.653376
0 0.503349 0.552514
0.194659 0.622553 0.423911
0.477562 0.720851 0.292836
0.676387 0.804822 0.176211
0.829618 0.878477 0.0957046
0.953964 0.946181 0.0287938
0 0.0103456 0.0933394
0 0.00546273 0.156497
0.175708 0 0.142718
0.426001 0 0.128985
0.598901 0 0.122759
0.747311 0 0.127733
0.87808 0 0.141009
1 0.00518807 0.155901
1 0.022034 0.16997
0 0.0941482 0.14638
0 0.105974 0.156786
0.160143 0.102693 0.154025
0.430762 0.0999313 0.151705
0.61738 0.102159 0.153552
0.773388 0.11104 0.160967
0.906279 0.126711 0.17409
1 0.144198 0.188724
1 0.161151 0.202899
0 0.12282 0.24979
0 0.127672 0.261143
0.107561 0.258991 0.155612
0.401648 0.257099 0.154101
0.591638 0.257649 0.15465
0.753399 0.265339 0.161196
0.889357 0.279927 0.173541
1 0.296407 0.187472
1 0.311345 0.200198
0 0.141314 0.359594
0 0.14934 0.372992
0 0.288701 0.263661
0.362966 0.416205 0.152544
0.559747 0.414771 0.151583
0.726085 0.419669 0.155856
0.863874 0.431022 0.165499
0.987884 0.444511 0.176974
1 0.455924 0.186831
0 0.159091 0.478141
0 0.170962 0.494926
0 0.314046 0.378103
0.27013 0.443214 0.257603
0.526177 0.565194 0.148211
0.695232 0.565103 0.148333
0.833936 0.57113 0.153567
0.954742 0.579675 0.160952
1 0.586267 0.166827
0 0.176242 0.585275
0 0.190799 0.603998
0 0.333288 0.498344
0.161593 0.466148 0.369329
0.460273 0.585595 0.248478
0.665537 0.692821 0.142992
0.805005 0.6925 0.142687
0.922972 0.695583 0.145266
1 0.698054 0.147448
0 0.19176 0.67541
0 0.207828 0.695567
0 0.347372 0.603616
0.0359655 0.484855 0.489906
0.38854 0.601968 0.35462
0.603525 0.704585 0.235492
0.777874 0.795422 0.134371
0.894682 0.793545 0.132479
1 0.792309 0.131273
0 0.205035 0.750256
0 0.221027 0.770855
0 0.357855 0.691722
0 0.497383 0.596994
0.283207 0.613733 0.469184
0.531975 0.712902 0.333181
0.720699 0.799588 0.215259
0.866514 0.876921 0.120836
0.972213 0.87274 0.117098
0 0.214435 0.814282
0 0.229099 0.834257
0 0.363348 0.763821
0 0.500542 0.682933
0.152514 0.620203 0.573861
0.450935 0.717449 0.438315
0.652766 0.800015 0.302922
0.812573 0.87538 0.185946
0.939483 0.943954 0.102098
0 0.0121767 0.118837
0 0.00680552 0.197757
0.117586 0 0.271473
0.39324 0 0.257542
0.570901 0 0.250797
0.72462 0 0.255161
0.858076 0 0.268788
0.985107 0.00309758 0.28426
1 0.0193942 0.298741
0 0.0944991 0.177417
0 0.108385 0.195346
0.104356 0.102785 0.284642
0.399313 0.100465 0.282582
0.589502 0.10161 0.283528
0.750378 0.109148 0.290013
0.88603 0.124102 0.303059
1 0.141634 0.318425
1 0.158358 0.333196
0 0.206531 0.24094
0 0.235004 0.265263
0.0674754 0.259342 0.286397
0.377966 0.257481 0.284779
0.570932 0.257221 0.284566
0.736461 0.264073 0.290562
0.874662 0.277943 0.302708
1 0.294163 0.317006
1 0.308965 0.33019
0 0.248432 0.352514
0 0.269749 0.38085
0 0.288273 0.40824
0.331563 0.416419 0.282643
0.538277 0.414359 0.280888
0.708156 0.418128 0.284169
0.848508 0.428534 0.293187
0.972793 0.441398 0.304356
1 0.45272 0.31426
0 0.272465 0.474174
0 0.290608 0.503441
0 0.312581 0.531945
0.233753 0.442802 0.401175
0.503578 0.564401 0.276066
0.675929 0.563088 0.274739
0.817472 0.567956 0.278737
0.938933 0.575631 0.285145
1 0.582269 0.290654
0 0.2916 0.58233
0 0.309483 0.6103
0 0.331685 0.637797
0.120226 0.465263 0.524163
0.436133 0.584237 0.389013
0.644526 0.690257 0.266529
0.787213 0.688746 0.264363
0.906554 0.691203 0.265522
1 0.693523 0.26656
0 0.308125 0.672068
0 0.325673 0.698909
0 0.34667 0.724895
0 0.484276 0.633051
0.357717 0.600366 0.508537
0.580041 0.701518 0.371313
0.758694 0.791455 0.251408
0.877577 0.788876 0.247272
0.986114 0.787564 0.244114
0 0.321202 0.745815
0 0.338003 0.771695
0 0.357977 0.797009
0 0.496376 0.72192
0.245533 0.612345 0.614816
0.50663 0.709804 0.484077
0.698543 0.794614 0.346166
0.84892 0.872419 0.228061
0.955322 0.868116 0.221286
0 0.329442 0.808682
0 0.345174 0.833661
0 0.363592 0.85803
0 0.499229 0.791165
0.110063 0.61941 0.704097
0.424674 0.714656 0.586282
0.628367 0.795117 0.44799
0.791943 0.869154 0.312261
0.923171 0.939895 0.194354
0 0.0134279 0.14995
0 0.00910964 0.233005
0.103197 0 0.321569
0.353109 0 0.400458
0.541924 0 0.392233
0.701167 0 0.396689
0.837659 0 0.411902
0.964385 0.000320439 0.429679
1 0.016434 0.446189
0 0.0965591 0.213977
0 0.11075 0.23537
0.0881056 0.107012 0.331365
0.362982 0.100832 0.430961
0.560311 0.100832 0.430854
0.726406 0.107225 0.437263
0.865293 0.121324 0.451469
0.99234 0.13872 0.469001
1 0.155367 0.485664
0 0.209079 0.27747
0 0.239841 0.30399
0.0730297 0.262821 0.329351
0.334859 0.257679 0.433387
0.541176 0.25658 0.432319
0.711788 0.262135 0.437949
0.853544 0.274922 0.450904
0.980255 0.29073 0.466941
1 0.30547 0.48188
0 0.342565 0.35877
0 0.372702 0.38735
0 0.404395 0.418906
0.298054 0.416297 0.43061
0.516136 0.413733 0.428092
0.689448 0.416342 0.430732
0.832547 0.425696 0.440146
0.957382 0.437934 0.452445
1 0.449088 0.463676
0 0.388663 0.480125
0 0.41387 0.509499
0 0.435584 0.539345
0.196643 0.442557 0.554803
0.480201 0.563256 0.421897
0.655711 0.560708 0.41912
0.800229 0.564309 0.422477
0.922728 0.571328 0.429206
1 0.577661 0.435248
0 0.416022 0.587991
0 0.434989 0.615442
0 0.452491 0.643183
0.0806134 0.465888 0.663035
0.412085 0.583185 0.542962
0.622415 0.687236 0.408591
0.768307 0.684306 0.404517
0.889326 0.686076 0.405097
1 0.688243 0.406012
0 0.433921 0.676738
0 0.449882 0.702586
0 0.466514 0.729015
0 0.485374 0.753552
0.32491 0.599908 0.649241
0.556176 0.69868 0.524117
0.737911 0.78645 0.38793
0.85919 0.783123 0.382162
0.967819 0.781521 0.378119
0 0.446189 0.749432
0 0.460472 0.774121
0 0.476204 0.799374
0 0.496696 0.825528
0.209277 0.612558 0.738491
0.481834 0.707652 0.626841
0.676005 0.789899 0.496117
0.829358 0.866255 0.359121
0.936522 0.861524 0.351064
0 0.453025 0.811658
0 0.465827 0.835187
0 0.480446 0.859358
0 0.498939 0.883925
0.0704662 0.620218 0.812619
0.399725 0.71339 0.713954
0.60412 0.791074 0.59324
0.770748 0.862867 0.456947
0.903807 0.932876 0.320668
0 0.0140993 0.186969
0 0.0108797 0.269352
0.0828412 0 0.364874
0.344808 0 0.459495
0.512535 0 0.541436
0.677699 0 0.54551
0.8177 0 0.560006
0.944381 0 0.577249
1 0.014313 0.594141
0 0.0983902 0.250996
0 0.113436 0.276127
0.0752117 0.113039 0.372274
0.353872 0.10399 0.48864
0.531243 0.101152 0.581292
0.702342 0.106188 0.586389
0.844923 0.11928 0.599664
0.972427 0.13611 0.616693
1 0.153002 0.633783
0 0.213184 0.315435
0 0.244602 0.344945
0.0785229 0.26627 0.374487
0.321401 0.262364 0.48542
0.511482 0.256916 0.583139
0.686976 0.261051 0.587488
0.832654 0.272602 0.599374
0.960266 0.287755 0.614969
1 0.302541 0.630167
0 0.345525 0.401251
0 0.376318 0.431128
0 0.407568 0.461509
0.302144 0.419379 0.478477
0.485573 0.413794 0.579248
0.663493 0.414893 0.580636
0.810773 0.422827 0.588891
0.936965 0.434379 0.600824
1 0.445335 0.612161
0 0.478065 0.489555
0 0.508583 0.519829
0 0.538766 0.549767
0.10721 0.558434 0.569223
0.457099 0.562661 0.573236
0.635508 0.558923 0.569574
0.783123 0.561166 0.571923
0.906905 0.567468 0.578332
1 0.573465 0.584451
0 0.523705 0.598962
0 0.550484 0.627329
0 0.574426 0.654719
0 0.593332 0.68072
0.389303 0.58349 0.678569
0.600198 0.684703 0.55935
0.749386 0.680354 0.554284
0.872297 0.6813 0.554482
0.984573 0.683131 0.555505
0 0.551583 0.689433
0 0.57232 0.715419
0 0.589639 0.740322
0 0.604242 0.764218
0.292912 0.601114 0.767254
0.533089 0.697169 0.661173
0.717037 0.781964 0.538399
0.840787 0.777584 0.531975
0.949737 0.77554 0.527764
0 0.567147 0.762768
0 0.58352 0.786847
0 0.597498 0.81004
0 0.610574 0.832303
0.174731 0.614252 0.841627
0.458289 0.707134 0.747448
0.653941 0.786297 0.635386
0.809522 0.860182 0.50811
0.917723 0.854917 0.499168
0 0.574197 0.824933
0 0.587625 0.847501
0 0.599771 0.86949
0 0.611978 0.890715
0.0337072 0.621973 0.906416
0.374289 0.713527 0.820066
0.580819 0.788708 0.717876
0.749737 0.85742 0.599435
0.884184 0.925719 0.465248
0 0.0144045 0.226322
0 0.0121462 0.308446
0.0665293 0 0.408118
0.330083 0 0.508827
0.509041 0 0.594659
0.655192 0 0.672847
0.799054 0 0.686442
0.926329 0 0.703319
1 0.0138552 0.720455
0 0.100313 0.290944
0 0.116258 0.318593
0.0710765 0.118212 0.417243
0.338811 0.110094 0.534524
0.526726 0.103792 0.63357
0.679149 0.106996 0.714092
0.825818 0.11899 0.726375
0.954467 0.135424 0.743221
1 0.15227 0.760464
0 0.2177 0.35613
0 0.249058 0.389838
0.0840772 0.269749 0.423301
0.30988 0.26862 0.527169
0.504952 0.260365 0.63328
0.662989 0.261784 0.715816
0.812818 0.271809 0.726482
0.942016 0.286564 0.74197
1 0.301167 0.757351
0 0.350011 0.443854
0 0.381094 0.474174
0 0.412192 0.505852
0.306645 0.422782 0.525338
0.476371 0.418463 0.624903
0.638285 0.415274 0.709728
0.789868 0.421378 0.716655
0.918074 0.432395 0.728496
1 0.443076 0.740093
0 0.481117 0.530694
0 0.511849 0.56025
0 0.542794 0.589883
0.160021 0.559533 0.605509
0.459754 0.565408 0.615579
0.608652 0.558724 0.699672
0.7608 0.559136 0.700832
0.887037 0.564599 0.707073
1 0.570443 0.713756
0 0.607996 0.615808
0 0.636393 0.644022
0 0.662623 0.670069
0 0.686778 0.694057
0.324819 0.687602 0.694728
0.578927 0.683726 0.690715
0.731502 0.678004 0.685115
0.856519 0.677943 0.685176
0.968734 0.679347 0.686717
0 0.649744 0.710002
0 0.674907 0.735821
0 0.69688 0.759289
0 0.714763 0.780194
0.108049 0.719081 0.790631
0.511269 0.697414 0.775677
0.697017 0.778912 0.671412
0.823438 0.773373 0.664912
0.932937 0.770794 0.66128
0 0.67538 0.786557
0 0.695476 0.809903
0 0.711635 0.830961
0 0.723445 0.849577
0 0.73051 0.864897
0.436057 0.708202 0.848234
0.633051 0.784527 0.75256
0.790433 0.855268 0.64416
0.899855 0.849271 0.635767
0 0.687465 0.850401
0 0.702861 0.871534
0 0.715007 0.890837
0 0.723796 0.907942
0 0.73048 0.922896
0.344259 0.714885 0.912505
0.558526 0.788037 0.821591
0.729778 0.853635 0.721019
0.865171 0.919356 0.605692
0 0.0148165 0.265522
0 0.0131533 0.349554
0.0555123 0 0.451225
0.315068 0 0.551919
0.501534 0 0.639216
0.654017 0 0.717937
0.781674 0 0.791257
0.910094 0 0.807706
1 0.0150301 0.82501
0 0.102251 0.332265
0 0.119203 0.362951
0.0714733 0.122789 0.463478
0.32694 0.116884 0.575647
0.517357 0.109346 0.675578
0.676921 0.109728 0.758343
0.807797 0.120287 0.831312
0.938186 0.13637 0.847944
1 0.15317 0.865324
0 0.222141 0.400702
0 0.2533 0.437842
0.0896315 0.273228 0.471717
0.306233 0.274281 0.568704
0.494209 0.267033 0.671824
0.659403 0.26479 0.75903
0.794186 0.272923 0.832013
0.925383 0.287022 0.847105
1 0.301457 0.862638
0 0.354818 0.486275
0 0.385901 0.51722
0 0.416419 0.550072
0.311238 0.426246 0.570474
0.468833 0.42501 0.6607
0.632624 0.41857 0.751171
0.770169 0.422095 0.822904
0.900725 0.43212 0.83418
1 0.442634 0.846082
0 0.485603 0.569055
0 0.516457 0.598184
0 0.547082 0.627405
0.160525 0.563699 0.643946
0.462516 0.568231 0.655619
0.600107 0.562463 0.737301
0.739483 0.559182 0.80798
0.868605 0.563455 0.813626
0.985107 0.568933 0.82063
0 0.610941 0.651392
0 0.639124 0.678676
0 0.665049 0.703639
0.000137331 0.686519 0.724041
0.364569 0.687236 0.723857
0.580575 0.685328 0.725567
0.708263 0.677424 0.793683
0.836789 0.676051 0.793256
0.949538 0.676966 0.795193
0 0.727657 0.732601
0 0.752163 0.756985
0 0.773449 0.778164
0 0.791516 0.796139
0.143954 0.797513 0.802045
0.463706 0.786252 0.790707
0.678172 0.777661 0.78204
0.807507 0.770932 0.775433
0.917754 0.767575 0.772229
0 0.763851 0.813107
0 0.785122 0.834836
0 0.803281 0.853803
0 0.817212 0.869245
0 0.827237 0.882139
0.302129 0.812436 0.87277
0.613062 0.78436 0.850523
0.772671 0.852171 0.758053
0.883558 0.845289 0.750256
0 0.785382 0.88072
0 0.802594 0.900221
0 0.816236 0.917113
0 0.825177 0.930632
0 0.828855 0.940505
0.138598 0.820401 0.939361
0.536767 0.788495 0.912261
0.710857 0.851575 0.822003
0.847562 0.914626 0.725032
0 0.0152285 0.306752
0 0.0140841 0.394018
0.0489204 0.002121 0.493965
0.302434 0 0.591089
0.492882 0 0.67776
0.649653 0 0.756252
0.781445 0 0.82974
0.89485 0.000564584 0.899107
1 0.0171817 0.916503
0 0.10428 0.375906
0 0.122347 0.411078
0.0742046 0.127153 0.509529
0.319524 0.123537 0.614542
0.507591 0.116228 0.711421
0.670573 0.114763 0.794675
0.806973 0.122942 0.869337
0.92282 0.138308 0.939467
1 0.155032 0.956863
0 0.226551 0.447074
0 0.25745 0.485237
0.0953078 0.276768 0.518929
0.306569 0.279332 0.609659
0.485771 0.274281 0.705745
0.651072 0.270542 0.793103
0.792477 0.275654 0.869383
0.909621 0.288502 0.938674
1 0.302876 0.954314
0 0.35964 0.528054
0 0.390646 0.559594
0 0.420615 0.59321
0.315999 0.429877 0.613489
0.466407 0.43064 0.695506
0.622873 0.424674 0.782528
0.767071 0.424659 0.85919
0.884199 0.432959 0.92578
1 0.443137 0.937621
0 0.490547 0.605951
0 0.521309 0.634897
0 0.551675 0.664256
0.159655 0.567773 0.68162
0.465354 0.571145 0.693431
0.593027 0.567956 0.76669
0.73434 0.561624 0.842573
0.851011 0.563531 0.905348
0.967895 0.568414 0.912184
0 0.615091 0.684321
0 0.642954 0.710719
0 0.668849 0.73521
0.014374 0.68954 0.754757
0.364324 0.690471 0.755703
0.582574 0.687266 0.758618
0.700633 0.680217 0.825147
0.817823 0.675471 0.885435
0.931548 0.675578 0.88716
0 0.730022 0.762554
0 0.753658 0.785611
0 0.774533 0.805859
0 0.792737 0.823377
0.223041 0.793515 0.823407
0.490517 0.784665 0.813962
0.679225 0.778653 0.811185
0.786938 0.769833 0.868681
0.89897 0.765713 0.865461
0 0.835172 0.838148
0 0.854292 0.857206
0 0.869947 0.872801
0 0.881971 0.884779
0 0.891142 0.893919
0.326863 0.878477 0.881239
0.568689 0.860517 0.863233
0.755886 0.850568 0.853284
0.868666 0.842878 0.845716
0 0.86511 0.908553
0 0.881559 0.925414
0 0.894514 0.938949
0 0.903777 0.949157
0 0.909148 0.956069
0.0801709 0.907362 0.957046
0.427176 0.88098 0.935729
0.692195 0.850492 0.910475
0.831281 0.911559 0.824018
0 0.0156252 0.34931
0 0.0150149 0.440742
0.045243 0.00471504 0.535882
0.293431 0 0.628138
0.48481 0 0.712322
0.643763 0 0.78996
0.778912 0 0.864225
0.895338 0.00325017 0.935882
1 0.0195926 1
0 0.106432 0.423117
0 0.125658 0.459831
0.0777905 0.131136 0.554269
0.315785 0.129747 0.652094
0.499413 0.123522 0.743755
0.662699 0.121172 0.825925
0.80293 0.127428 0.902312
0.922789 0.140993 0.975723
1 0.157183 1
0 0.230976 0.492851
0 0.26157 0.531411
0.100999 0.280293 0.564385
0.308919 0.284123 0.649241
0.480476 0.281239 0.737667
0.641978 0.277241 0.822049
0.786755 0.280491 0.900603
0.908782 0.290913 0.974105
1 0.304326 1
0 0.364508 0.568673
0 0.395331 0.600595
0 0.424918 0.634562
0.320943 0.433616 0.654185
0.466636 0.435676 0.729534
0.615 0.431266 0.810147
0.759579 0.429648 0.888365
0.882322 0.434928 0.960159
0.988891 0.443717 1
0 0.495628 0.64152
0 0.526131 0.670344
0 0.556191 0.699947
0.160235 0.57171 0.7178
0.468299 0.574166 0.729091
0.590494 0.572625 0.795239
0.725597 0.566537 0.869307
0.847761 0.565042 0.938384
0.95108 0.568154 0.999207
0 0.619715 0.715663
0 0.647257 0.741512
0 0.672984 0.765789
0.0163424 0.693202 0.785229
0.362814 0.693507 0.78674
0.584604 0.689235 0.7897
0.694148 0.684367 0.85008
0.812833 0.676799 0.916686
0.914061 0.674784 0.973465
0 0.733394 0.790478
0 0.75668 0.812757
0 0.777142 0.832212
0 0.795178 0.849317
0.234928 0.795163 0.84863
0.489616 0.786892 0.840681
0.680339 0.779706 0.839078
0.779721 0.771435 0.896727
0.880568 0.764401 0.951293
0 0.83624 0.863691
0 0.854597 0.881743
0 0.869429 0.896239
0 0.880842 0.907286
0.0436866 0.88719 0.913191
0.387671 0.87277 0.898268
0.592264 0.858167 0.883284
0.756054 0.850736 0.87895
0.84921 0.841184 0.931685
0 0.930144 0.931762
0 0.943816 0.945403
0 0.954025 0.955596
0 0.960876 0.962417
0 0.964645 0.966186
0.123232 0.961013 0.962554
0.440131 0.938704 0.940246
0.650767 0.918639 0.92018
0.815671 0.909499 0.911055
