luts/1771694559124-Slay08.cube
TITLE "Generated by Resolve"
LUT_3D_SIZE 5
0.0558328 0.085481 0.118746
0.0694285 0.0991989 0.135332
0.0931411 0.122118 0.163897
0.122667 0.150469 0.198169
0.156237 0.183612 0.232975
0.134401 0.161975 0.211048
0.169436 0.196735 0.245121
0.208072 0.234485 0.279072
0.249058 0.275883 0.317906
0.297581 0.323278 0.361807
0.265248 0.292683 0.332921
0.317098 0.342077 0.381689
0.378363 0.40145 0.433799
0.450538 0.465644 0.484596
0.529397 0.532433 0.536934
0.47895 0.489662 0.50338
0.558679 0.557427 0.556573
0.640787 0.627771 0.612161
0.725338 0.700587 0.670481
0.811246 0.775967 0.731838
0.756588 0.727703 0.692485
0.842954 0.803983 0.754879
0.931746 0.882429 0.819272
1 0.962905 0.885206
1 1 0.953429
0.0584878 0.0882277 0.122072
0.0766766 0.106279 0.144121
0.102525 0.131212 0.175143
0.133639 0.161181 0.210178
0.168551 0.19585 0.244327
0.145846 0.173281 0.22295
0.182162 0.2094 0.255634
0.221714 0.247242 0.292165
0.264088 0.291539 0.331884
0.315724 0.34078 0.380255
0.282261 0.308751 0.34786
0.336446 0.360815 0.399741
0.400641 0.422995 0.451087
0.476997 0.488045 0.502098
0.556741 0.555718 0.555261
0.505669 0.512398 0.521218
0.586328 0.581033 0.575174
0.669337 0.652186 0.631647
0.754421 0.725887 0.690959
0.840757 0.802106 0.753338
0.785672 0.753368 0.713298
0.872709 0.830427 0.776532
0.962341 0.909575 0.841489
1 0.991196 0.908476
1 1 0.976822
0.0635538 0.0933089 0.128161
0.0847944 0.114122 0.153918
0.112718 0.140841 0.186801
0.144991 0.172457 0.22211
0.181292 0.208469 0.254871
0.157778 0.185138 0.234409
0.195315 0.222263 0.266789
0.235721 0.261234 0.305287
0.280964 0.307591 0.346731
0.334966 0.359426 0.398444
0.299855 0.32546 0.363943
0.357107 0.381186 0.417472
0.425711 0.4448 0.468238
0.503731 0.51075 0.519921
0.584344 0.579309 0.5738
0.532815 0.535409 0.539284
0.614206 0.604929 0.594018
0.69807 0.676936 0.651438
0.783581 0.751507 0.711818
0.870695 0.828458 0.77499
0.815229 0.779217 0.734569
0.902953 0.857038 0.798444
0.993545 0.936858 0.863905
1 1 0.931517
1 1 1
0.06981 0.0995651 0.13579
0.0935683 0.122637 0.164492
0.123278 0.151034 0.19884
0.156863 0.184283 0.233616
0.194415 0.221332 0.265934
0.170123 0.197436 0.245716
0.208789 0.235187 0.27982
0.249851 0.276753 0.318639
0.298512 0.324239 0.362737
0.355581 0.379568 0.41622
0.318151 0.343084 0.382788
0.379675 0.402625 0.43476
0.451972 0.46688 0.485542
0.530846 0.53373 0.537957
0.612222 0.603189 0.59266
0.560204 0.55874 0.55761
0.642435 0.629084 0.613245
0.726986 0.701961 0.671611
0.81294 0.777386 0.732998
0.900862 0.855085 0.796872
0.844541 0.805463 0.756054
0.933364 0.88394 0.820493
1 0.964477 0.886473
1 1 0.954726
1 1 1
0.0771344 0.106691 0.144656
0.103151 0.131716 0.175753
0.134279 0.161776 0.210864
0.169223 0.196551 0.244938
0.207813 0.234287 0.278874
0.182879 0.210101 0.256214
0.222553 0.247944 0.292897
0.264942 0.292424 0.332677
0.316793 0.341772 0.381338
0.378027 0.401083 0.433509
0.337545 0.361898 0.400732
0.401862 0.424201 0.452018
0.478538 0.489281 0.50309
0.558221 0.557031 0.556268
0.640467 0.627314 0.611872
0.587976 0.58233 0.576181
0.670893 0.653559 0.632731
0.755993 0.727306 0.692088
0.842542 0.803525 0.754513
0.931273 0.881971 0.818891
0.87454 0.831846 0.777798
0.964172 0.91104 0.842725
1 0.992721 0.909758
1 1 0.978119
1 1 1
