luts/1771694525668-PopOff07.cube
TITLE "Generated by Resolve"
LUT_3D_SIZE 9
0 0 0
0.00708019 0.00708019 0.00708019
0.0141604 0.0141604 0.0141604
0.0212558 0.0212558 0.0212558
0.028336 0.028336 0.028336
0.0354162 0.0354162 0.0354162
0.0424964 0.0424964 0.0424964
0.0495766 0.0495766 0.0495766
0.056672 0.056672 0.056672
0.0833295 0.0833295 0.0833295
0.0904097 0.0904097 0.0904097
0.0974899 0.0974899 0.0974899
0.10457 0.10457 0.10457
0.11165 0.11165 0.11165
0.118746 0.118746 0.118746
0.125826 0.125826 0.125826
0.132906 0.132906 0.132906
0.139986 0.139986 0.139986
0.166659 0.166659 0.166659
0.173739 0.173739 0.173739
0.180819 0.180819 0.180819
0.187915 0.187915 0.187915
0.194995 0.194995 0.194995
0.202075 0.202075 0.202075
0.209155 0.209155 0.209155
0.216236 0.216236 0.216236
0.223331 0.223331 0.223331
0.249989 0.249989 0.249989
0.257069 0.257069 0.257069
0.264164 0.264164 0.264164
0.271244 0.271244 0.271244
0.278325 0.278325 0.278325
0.285405 0.285405 0.285405
0.2925 0.2925 0.2925
0.29958 0.29958 0.29958
0.306661 0.306661 0.306661
0.333333 0.333333 0.333333
0.340414 0.340414 0.340414
0.347494 0.347494 0.347494
0.354574 0.354574 0.354574
0.361654 0.361654 0.361654
0.36875 0.36875 0.36875
0.37583 0.37583 0.37583
0.38291 0.38291 0.38291
0.38999 0.38999 0.38999
0.416663 0.416663 0.416663
0.423743 0.423743 0.423743
0.430823 0.430823 0.430823
0.437919 0.437919 0.437919
0.444999 0.444999 0.444999
0.452079 0.452079 0.452079
0.459159 0.459159 0.459159
0.466239 0.466239 0.466239
0.473335 0.473335 0.473335
0.499992 0.499992 0.499992
0.507073 0.507073 0.507073
0.514168 0.514168 0.514168
0.521248 0.521248 0.521248
0.528328 0.528328 0.528328
0.535409 0.535409 0.535409
0.542504 0.542504 0.542504
0.549584 0.549584 0.549584
0.556664 0.556664 0.556664
0.583337 0.583337 0.583337
0.590417 0.590417 0.590417
0.597498 0.597498 0.597498
0.604578 0.604578 0.604578
0.611658 0.611658 0.611658
0.618753 0.618753 0.618753
0.625834 0.625834 0.625834
0.632914 0.632914 0.632914
0.639994 0.639994 0.639994
0.666667 0.666667 0.666667
0.673747 0.673747 0.673747
0.680827 0.680827 0.680827
0.687922 0.687922 0.687922
0.695003 0.695003 0.695003
0.702083 0.702083 0.702083
0.709163 0.709163 0.709163
0.716243 0.716243 0.716243
0.723339 0.723339 0.723339
0.0345769 0.0345769 0.0345769
0.0416571 0.0416571 0.0416571
0.0487526 0.0487526 0.0487526
0.0558328 0.0558328 0.0558328
0.0629129 0.0629129 0.0629129
0.0699931 0.0699931 0.0699931
0.0770733 0.0770733 0.0770733
0.0841688 0.0841688 0.0841688
0.091249 0.091249 0.091249
0.117906 0.117906 0.117906
0.124987 0.124987 0.124987
0.132067 0.132067 0.132067
0.139147 0.139147 0.139147
0.146242 0.146242 0.146242
0.153323 0.153323 0.153323
0.160403 0.160403 0.160403
0.167483 0.167483 0.167483
0.174563 0.174563 0.174563
0.201236 0.201236 0.201236
0.208316 0.208316 0.208316
0.215412 0.215412 0.215412
0.222492 0.222492 0.222492
0.229572 0.229572 0.229572
0.236652 0.236652 0.236652
0.243732 0.243732 0.243732
0.250828 0.250828 0.250828
0.257908 0.257908 0.257908
0.284581 0.284581 0.284581
0.291661 0.291661 0.291661
0.298741 0.298741 0.298741
0.305821 0.305821 0.305821
0.312901 0.312901 0.312901
0.319997 0.319997 0.319997
0.327077 0.327077 0.327077
0.334157 0.334157 0.334157
0.341238 0.341238 0.341238
0.36791 0.36791 0.36791
0.37499 0.37499 0.37499
0.382071 0.382071 0.382071
0.389151 0.389151 0.389151
0.396246 0.396246 0.396246
0.403326 0.403326 0.403326
0.410407 0.410407 0.410407
0.417487 0.417487 0.417487
0.424567 0.424567 0.424567
0.45124 0.45124 0.45124
0.45832 0.45832 0.45832
0.465415 0.465415 0.465415
0.472496 0.472496 0.472496
0.479576 0.479576 0.479576
0.486656 0.486656 0.486656
0.493736 0.493736 0.493736
0.500832 0.500832 0.500832
0.507912 0.507912 0.507912
0.534585 0.534585 0.534585
0.541665 0.541665 0.541665
0.548745 0.548745 0.548745
0.555825 0.555825 0.555825
0.562905 0.562905 0.562905
0.570001 0.570001 0.570001
0.577081 0.577081 0.577081
0.584161 0.584161 0.584161
0.591241 0.591241 0.591241
0.617914 0.617914 0.617914
0.624994 0.624994 0.624994
0.632074 0.632074 0.632074
0.639155 0.639155 0.639155
0.64625 0.64625 0.64625
0.65333 0.65333 0.65333
0.66041 0.66041 0.66041
0.667491 0.667491 0.667491
0.674571 0.674571 0.674571
0.701244 0.701244 0.701244
0.708324 0.708324 0.708324
0.715419 0.715419 0.715419
0.722499 0.722499 0.722499
0.72958 0.72958 0.72958
0.73666 0.73666 0.73666
0.74374 0.74374 0.74374
0.750835 0.750835 0.750835
0.757916 0.757916 0.757916
0.0691691 0.0691691 0.0691691
0.0762493 0.0762493 0.0762493
0.0833295 0.0833295 0.0833295
0.0904097 0.0904097 0.0904097
0.0974899 0.0974899 0.0974899
0.104585 0.104585 0.104585
0.111666 0.111666 0.111666
0.118746 0.118746 0.118746
0.125826 0.125826 0.125826
0.152483 0.152483 0.152483
0.159564 0.159564 0.159564
0.166659 0.166659 0.166659
0.173739 0.173739 0.173739
0.180819 0.180819 0.180819
0.1879 0.1879 0.1879
0.194995 0.194995 0.194995
0.202075 0.202075 0.202075
0.209155 0.209155 0.209155
0.235828 0.235828 0.235828
0.242908 0.242908 0.242908
0.249989 0.249989 0.249989
0.257069 0.257069 0.257069
0.264149 0.264149 0.264149
0.271244 0.271244 0.271244
0.278325 0.278325 0.278325
0.285405 0.285405 0.285405
0.292485 0.292485 0.292485
0.319158 0.319158 0.319158
0.326238 0.326238 0.326238
0.333318 0.333318 0.333318
0.340414 0.340414 0.340414
0.347494 0.347494 0.347494
0.354574 0.354574 0.354574
0.361654 0.361654 0.361654
0.368734 0.368734 0.368734
0.37583 0.37583 0.37583
0.402487 0.402487 0.402487
0.409567 0.409567 0.409567
0.416663 0.416663 0.416663
0.423743 0.423743 0.423743
0.430823 0.430823 0.430823
0.437903 0.437903 0.437903
0.444999 0.444999 0.444999
0.452079 0.452079 0.452079
0.459159 0.459159 0.459159
0.485832 0.485832 0.485832
0.492912 0.492912 0.492912
0.499992 0.499992 0.499992
0.507073 0.507073 0.507073
0.514153 0.514153 0.514153
0.521248 0.521248 0.521248
0.528328 0.528328 0.528328
0.535409 0.535409 0.535409
0.542489 0.542489 0.542489
0.569162 0.569162 0.569162
0.576242 0.576242 0.576242
0.583322 0.583322 0.583322
0.590417 0.590417 0.590417
0.597498 0.597498 0.597498
0.604578 0.604578 0.604578
0.611658 0.611658 0.611658
0.618738 0.618738 0.618738
0.625834 0.625834 0.625834
0.652491 0.652491 0.652491
0.659571 0.659571 0.659571
0.666667 0.666667 0.666667
0.673747 0.673747 0.673747
0.680827 0.680827 0.680827
0.687907 0.687907 0.687907
0.695003 0.695003 0.695003
0.702083 0.702083 0.702083
0.709163 0.709163 0.709163
0.735836 0.735836 0.735836
0.742916 0.742916 0.742916
0.749996 0.749996 0.749996
0.757076 0.757076 0.757076
0.764157 0.764157 0.764157
0.771252 0.771252 0.771252
0.778332 0.778332 0.778332
0.785412 0.785412 0.785412
0.792493 0.792493 0.792493
0.103746 0.103746 0.103746
0.110826 0.110826 0.110826
0.117906 0.117906 0.117906
0.125002 0.125002 0.125002
0.132082 0.132082 0.132082
0.139162 0.139162 0.139162
0.146242 0.146242 0.146242
0.153338 0.153338 0.153338
0.160418 0.160418 0.160418
0.187076 0.187076 0.187076
0.194156 0.194156 0.194156
0.201236 0.201236 0.201236
0.208316 0.208316 0.208316
0.215412 0.215412 0.215412
0.222492 0.222492 0.222492
0.229572 0.229572 0.229572
0.236652 0.236652 0.236652
0.243732 0.243732 0.243732
0.270405 0.270405 0.270405
0.277485 0.277485 0.277485
0.284566 0.284566 0.284566
0.291661 0.291661 0.291661
0.298741 0.298741 0.298741
0.305821 0.305821 0.305821
0.312901 0.312901 0.312901
0.319997 0.319997 0.319997
0.327077 0.327077 0.327077
0.353735 0.353735 0.353735
0.36083 0.36083 0.36083
0.36791 0.36791 0.36791
0.37499 0.37499 0.37499
0.382071 0.382071 0.382071
0.389151 0.389151 0.389151
0.396246 0.396246 0.396246
0.403326 0.403326 0.403326
0.410407 0.410407 0.410407
0.437079 0.437079 0.437079
0.44416 0.44416 0.44416
0.45124 0.45124 0.45124
0.45832 0.45832 0.45832
0.465415 0.465415 0.465415
0.472496 0.472496 0.472496
0.479576 0.479576 0.479576
0.486656 0.486656 0.486656
0.493736 0.493736 0.493736
0.520409 0.520409 0.520409
0.527489 0.527489 0.527489
0.534569 0.534569 0.534569
0.541665 0.541665 0.541665
0.548745 0.548745 0.548745
0.555825 0.555825 0.555825
0.562905 0.562905 0.562905
0.570001 0.570001 0.570001
0.577081 0.577081 0.577081
0.603738 0.603738 0.603738
0.610834 0.610834 0.610834
0.617914 0.617914 0.617914
0.624994 0.624994 0.624994
0.632074 0.632074 0.632074
0.639155 0.639155 0.639155
0.64625 0.64625 0.64625
0.65333 0.65333 0.65333
0.66041 0.66041 0.66041
0.687083 0.687083 0.687083
0.694163 0.694163 0.694163
0.701244 0.701244 0.701244
0.708324 0.708324 0.708324
0.715419 0.715419 0.715419
0.722499 0.722499 0.722499
0.72958 0.72958 0.72958
0.73666 0.73666 0.73666
0.74374 0.74374 0.74374
0.770413 0.770413 0.770413
0.777493 0.777493 0.777493
0.784573 0.784573 0.784573
0.791669 0.791669 0.791669
0.798749 0.798749 0.798749
0.805829 0.805829 0.805829
0.812909 0.812909 0.812909
0.820005 0.820005 0.820005
0.827085 0.827085 0.827085
0.138338 0.138338 0.138338
0.145418 0.145418 0.145418
0.152499 0.152499 0.152499
0.159579 0.159579 0.159579
0.166659 0.166659 0.166659
0.173754 0.173754 0.173754
0.180835 0.180835 0.180835
0.187915 0.187915 0.187915
0.194995 0.194995 0.194995
0.221653 0.221653 0.221653
0.228733 0.228733 0.228733
0.235828 0.235828 0.235828
0.242908 0.242908 0.242908
0.249989 0.249989 0.249989
0.257069 0.257069 0.257069
0.264149 0.264149 0.264149
0.271244 0.271244 0.271244
0.278325 0.278325 0.278325
0.304997 0.304997 0.304997
0.312078 0.312078 0.312078
0.319158 0.319158 0.319158
0.326238 0.326238 0.326238
0.333318 0.333318 0.333318
0.340414 0.340414 0.340414
0.347494 0.347494 0.347494
0.354574 0.354574 0.354574
0.361654 0.361654 0.361654
0.388327 0.388327 0.388327
0.395407 0.395407 0.395407
0.402487 0.402487 0.402487
0.409567 0.409567 0.409567
0.416663 0.416663 0.416663
0.423743 0.423743 0.423743
0.430823 0.430823 0.430823
0.437903 0.437903 0.437903
0.444999 0.444999 0.444999
0.471656 0.471656 0.471656
0.478737 0.478737 0.478737
0.485832 0.485832 0.485832
0.492912 0.492912 0.492912
0.499992 0.499992 0.499992
0.507073 0.507073 0.507073
0.514153 0.514153 0.514153
0.521248 0.521248 0.521248
0.528328 0.528328 0.528328
0.555001 0.555001 0.555001
0.562081 0.562081 0.562081
0.569162 0.569162 0.569162
0.576242 0.576242 0.576242
0.583322 0.583322 0.583322
0.590417 0.590417 0.590417
0.597498 0.597498 0.597498
0.604578 0.604578 0.604578
0.611658 0.611658 0.611658
0.638331 0.638331 0.638331
0.645411 0.645411 0.645411
0.652491 0.652491 0.652491
0.659571 0.659571 0.659571
0.666667 0.666667 0.666667
0.673747 0.673747 0.673747
0.680827 0.680827 0.680827
0.687907 0.687907 0.687907
0.695003 0.695003 0.695003
0.72166 0.72166 0.72166
0.72874 0.72874 0.72874
0.735836 0.735836 0.735836
0.742916 0.742916 0.742916
0.749996 0.749996 0.749996
0.757076 0.757076 0.757076
0.764157 0.764157 0.764157
0.771252 0.771252 0.771252
0.778332 0.778332 0.778332
0.805005 0.805005 0.805005
0.812085 0.812085 0.812085
0.819165 0.819165 0.819165
0.826246 0.826246 0.826246
0.833326 0.833326 0.833326
0.840421 0.840421 0.840421
0.847501 0.847501 0.847501
0.854582 0.854582 0.854582
0.861662 0.861662 0.861662
0.172915 0.172915 0.172915
0.179995 0.179995 0.179995
0.187076 0.187076 0.187076
0.194171 0.194171 0.194171
0.201251 0.201251 0.201251
0.208331 0.208331 0.208331
0.215412 0.215412 0.215412
0.222492 0.222492 0.222492
0.229587 0.229587 0.229587
0.256245 0.256245 0.256245
0.263325 0.263325 0.263325
0.270405 0.270405 0.270405
0.277485 0.277485 0.277485
0.284566 0.284566 0.284566
0.291661 0.291661 0.291661
0.298741 0.298741 0.298741
0.305821 0.305821 0.305821
0.312901 0.312901 0.312901
0.339574 0.339574 0.339574
0.346654 0.346654 0.346654
0.353735 0.353735 0.353735
0.36083 0.36083 0.36083
0.36791 0.36791 0.36791
0.37499 0.37499 0.37499
0.382071 0.382071 0.382071
0.389151 0.389151 0.389151
0.396246 0.396246 0.396246
0.422904 0.422904 0.422904
0.429984 0.429984 0.429984
0.437079 0.437079 0.437079
0.44416 0.44416 0.44416
0.45124 0.45124 0.45124
0.45832 0.45832 0.45832
0.465415 0.465415 0.465415
0.472496 0.472496 0.472496
0.479576 0.479576 0.479576
0.506249 0.506249 0.506249
0.513329 0.513329 0.513329
0.520409 0.520409 0.520409
0.527489 0.527489 0.527489
0.534569 0.534569 0.534569
0.541665 0.541665 0.541665
0.548745 0.548745 0.548745
0.555825 0.555825 0.555825
0.562905 0.562905 0.562905
0.589578 0.589578 0.589578
0.596658 0.596658 0.596658
0.603738 0.603738 0.603738
0.610834 0.610834 0.610834
0.617914 0.617914 0.617914
0.624994 0.624994 0.624994
0.632074 0.632074 0.632074
0.639155 0.639155 0.639155
0.64625 0.64625 0.64625
0.672908 0.672908 0.672908
0.679988 0.679988 0.679988
0.687083 0.687083 0.687083
0.694163 0.694163 0.694163
0.701244 0.701244 0.701244
0.708324 0.708324 0.708324
0.715419 0.715419 0.715419
0.722499 0.722499 0.722499
0.72958 0.72958 0.72958
0.756252 0.756252 0.756252
0.763333 0.763333 0.763333
0.770413 0.770413 0.770413
0.777493 0.777493 0.777493
0.784573 0.784573 0.784573
0.791669 0.791669 0.791669
0.798749 0.798749 0.798749
0.805829 0.805829 0.805829
0.812909 0.812909 0.812909
0.839582 0.839582 0.839582
0.846662 0.846662 0.846662
0.853742 0.853742 0.853742
0.860838 0.860838 0.860838
0.867918 0.867918 0.867918
0.874998 0.874998 0.874998
0.882078 0.882078 0.882078
0.889158 0.889158 0.889158
0.896254 0.896254 0.896254
0.207492 0.207492 0.207492
0.214588 0.214588 0.214588
0.221668 0.221668 0.221668
0.228748 0.228748 0.228748
0.235828 0.235828 0.235828
0.242908 0.242908 0.242908
0.250004 0.250004 0.250004
0.257084 0.257084 0.257084
0.264164 0.264164 0.264164
0.290822 0.290822 0.290822
0.297902 0.297902 0.297902
0.304982 0.304982 0.304982
0.312078 0.312078 0.312078
0.319158 0.319158 0.319158
0.326238 0.326238 0.326238
0.333318 0.333318 0.333318
0.340414 0.340414 0.340414
0.347494 0.347494 0.347494
0.374151 0.374151 0.374151
0.381247 0.381247 0.381247
0.388327 0.388327 0.388327
0.395407 0.395407 0.395407
0.402487 0.402487 0.402487
0.409567 0.409567 0.409567
0.416663 0.416663 0.416663
0.423743 0.423743 0.423743
0.430823 0.430823 0.430823
0.457496 0.457496 0.457496
0.464576 0.464576 0.464576
0.471656 0.471656 0.471656
0.478737 0.478737 0.478737
0.485832 0.485832 0.485832
0.492912 0.492912 0.492912
0.499992 0.499992 0.499992
0.507073 0.507073 0.507073
0.514153 0.514153 0.514153
0.540825 0.540825 0.540825
0.547906 0.547906 0.547906
0.554986 0.554986 0.554986
0.562081 0.562081 0.562081
0.569162 0.569162 0.569162
0.576242 0.576242 0.576242
0.583322 0.583322 0.583322
0.590417 0.590417 0.590417
0.597498 0.597498 0.597498
0.624155 0.624155 0.624155
0.631251 0.631251 0.631251
0.638331 0.638331 0.638331
0.645411 0.645411 0.645411
0.652491 0.652491 0.652491
0.659571 0.659571 0.659571
0.666667 0.666667 0.666667
0.673747 0.673747 0.673747
0.680827 0.680827 0.680827
0.7075 0.7075 0.7075
0.71458 0.71458 0.71458
0.72166 0.72166 0.72166
0.72874 0.72874 0.72874
0.735836 0.735836 0.735836
0.742916 0.742916 0.742916
0.749996 0.749996 0.749996
0.757076 0.757076 0.757076
0.764157 0.764157 0.764157
0.790829 0.790829 0.790829
0.797909 0.797909 0.797909
0.80499 0.80499 0.80499
0.812085 0.812085 0.812085
0.819165 0.819165 0.819165
0.826246 0.826246 0.826246
0.833326 0.833326 0.833326
0.840421 0.840421 0.840421
0.847501 0.847501 0.847501
0.874159 0.874159 0.874159
0.881254 0.881254 0.881254
0.888334 0.888334 0.888334
0.895415 0.895415 0.895415
0.902495 0.902495 0.902495
0.909575 0.909575 0.909575
0.916671 0.916671 0.916671
0.923751 0.923751 0.923751
0.930831 0.930831 0.930831
0.242084 0.242084 0.242084
0.249165 0.249165 0.249165
0.256245 0.256245 0.256245
0.263325 0.263325 0.263325
0.27042 0.27042 0.27042
0.277501 0.277501 0.277501
0.284581 0.284581 0.284581
0.291661 0.291661 0.291661
0.298756 0.298756 0.298756
0.325414 0.325414 0.325414
0.332494 0.332494 0.332494
0.339574 0.339574 0.339574
0.346654 0.346654 0.346654
0.353735 0.353735 0.353735
0.36083 0.36083 0.36083
0.36791 0.36791 0.36791
0.37499 0.37499 0.37499
0.382071 0.382071 0.382071
0.408743 0.408743 0.408743
0.415824 0.415824 0.415824
0.422904 0.422904 0.422904
0.429984 0.429984 0.429984
0.437079 0.437079 0.437079
0.44416 0.44416 0.44416
0.45124 0.45124 0.45124
0.45832 0.45832 0.45832
0.465415 0.465415 0.465415
0.492073 0.492073 0.492073
0.499153 0.499153 0.499153
0.506249 0.506249 0.506249
0.513329 0.513329 0.513329
0.520409 0.520409 0.520409
0.527489 0.527489 0.527489
0.534569 0.534569 0.534569
0.541665 0.541665 0.541665
0.548745 0.548745 0.548745
0.575418 0.575418 0.575418
0.582498 0.582498 0.582498
0.589578 0.589578 0.589578
0.596658 0.596658 0.596658
0.603738 0.603738 0.603738
0.610834 0.610834 0.610834
0.617914 0.617914 0.617914
0.624994 0.624994 0.624994
0.632074 0.632074 0.632074
0.658747 0.658747 0.658747
0.665827 0.665827 0.665827
0.672908 0.672908 0.672908
0.679988 0.679988 0.679988
0.687083 0.687083 0.687083
0.694163 0.694163 0.694163
0.701244 0.701244 0.701244
0.708324 0.708324 0.708324
0.715419 0.715419 0.715419
0.742077 0.742077 0.742077
0.749157 0.749157 0.749157
0.756252 0.756252 0.756252
0.763333 0.763333 0.763333
0.770413 0.770413 0.770413
0.777493 0.777493 0.777493
0.784573 0.784573 0.784573
0.791669 0.791669 0.791669
0.798749 0.798749 0.798749
0.825422 0.825422 0.825422
0.832502 0.832502 0.832502
0.839582 0.839582 0.839582
0.846662 0.846662 0.846662
0.853742 0.853742 0.853742
0.860838 0.860838 0.860838
0.867918 0.867918 0.867918
0.874998 0.874998 0.874998
0.882078 0.882078 0.882078
0.908751 0.908751 0.908751
0.915831 0.915831 0.915831
0.922911 0.922911 0.922911
0.929992 0.929992 0.929992
0.937087 0.937087 0.937087
0.944167 0.944167 0.944167
0.951247 0.951247 0.951247
0.958328 0.958328 0.958328
0.965423 0.965423 0.965423
0.276661 0.276661 0.276661
0.283757 0.283757 0.283757
0.290837 0.290837 0.290837
0.297917 0.297917 0.297917
0.304997 0.304997 0.304997
0.312078 0.312078 0.312078
0.319173 0.319173 0.319173
0.326253 0.326253 0.326253
0.333333 0.333333 0.333333
0.359991 0.359991 0.359991
0.367071 0.367071 0.367071
0.374151 0.374151 0.374151
0.381247 0.381247 0.381247
0.388327 0.388327 0.388327
0.395407 0.395407 0.395407
0.402487 0.402487 0.402487
0.409567 0.409567 0.409567
0.416663 0.416663 0.416663
0.44332 0.44332 0.44332
0.450416 0.450416 0.450416
0.457496 0.457496 0.457496
0.464576 0.464576 0.464576
0.471656 0.471656 0.471656
0.478737 0.478737 0.478737
0.485832 0.485832 0.485832
0.492912 0.492912 0.492912
0.499992 0.499992 0.499992
0.526665 0.526665 0.526665
0.533745 0.533745 0.533745
0.540825 0.540825 0.540825
0.547906 0.547906 0.547906
0.554986 0.554986 0.554986
0.562081 0.562081 0.562081
0.569162 0.569162 0.569162
0.576242 0.576242 0.576242
0.583322 0.583322 0.583322
0.609995 0.609995 0.609995
0.617075 0.617075 0.617075
0.624155 0.624155 0.624155
0.631251 0.631251 0.631251
0.638331 0.638331 0.638331
0.645411 0.645411 0.645411
0.652491 0.652491 0.652491
0.659571 0.659571 0.659571
0.666667 0.666667 0.666667
0.693324 0.693324 0.693324
0.70042 0.70042 0.70042
0.7075 0.7075 0.7075
0.71458 0.71458 0.71458
0.72166 0.72166 0.72166
0.72874 0.72874 0.72874
0.735836 0.735836 0.735836
0.742916 0.742916 0.742916
0.749996 0.749996 0.749996
0.776669 0.776669 0.776669
0.783749 0.783749 0.783749
0.790829 0.790829 0.790829
0.797909 0.797909 0.797909
0.80499 0.80499 0.80499
0.812085 0.812085 0.812085
0.819165 0.819165 0.819165
0.826246 0.826246 0.826246
0.833326 0.833326 0.833326
0.859998 0.859998 0.859998
0.867079 0.867079 0.867079
0.874159 0.874159 0.874159
0.881254 0.881254 0.881254
0.888334 0.888334 0.888334
0.895415 0.895415 0.895415
0.902495 0.902495 0.902495
0.909575 0.909575 0.909575
0.916671 0.916671 0.916671
0.943328 0.943328 0.943328
0.950423 0.950423 0.950423
0.957504 0.957504 0.957504
0.964584 0.964584 0.964584
0.971664 0.971664 0.971664
0.978744 0.978744 0.978744
0.98584 0.98584 0.98584
0.99292 0.99292 0.99292
1 1 1
